; generated by PrusaSlicer 2.3.3+win64 on 2021-10-13 at 15:04:16 UTC

; 

; external perimeters extrusion width = 0.45mm
; perimeters extrusion width = 0.45mm
; infill extrusion width = 0.45mm
; solid infill extrusion width = 0.45mm
; top infill extrusion width = 0.40mm
; support material extrusion width = 0.35mm
; first layer extrusion width = 0.42mm

; external perimeters extrusion width = 0.45mm
; perimeters extrusion width = 0.45mm
; infill extrusion width = 0.45mm
; solid infill extrusion width = 0.45mm
; top infill extrusion width = 0.40mm
; support material extrusion width = 0.35mm
; first layer extrusion width = 0.42mm

; external perimeters extrusion width = 0.45mm
; perimeters extrusion width = 0.45mm
; infill extrusion width = 0.45mm
; solid infill extrusion width = 0.45mm
; top infill extrusion width = 0.40mm
; support material extrusion width = 0.35mm
; first layer extrusion width = 0.42mm

M201 X5000 Y5000 Z500 E5000 ; sets maximum accelerations, mm/sec^2
M203 X500 Y500 Z12 E120 ; sets maximum feedrates, mm/sec
M204 P1500 R1500 T1500 ; sets acceleration (P, T) and retract acceleration (R), mm/sec^2
M205 X8.00 Y8.00 Z0.20 E4.50 ; sets the jerk limits, mm/sec
M205 S0 T0 ; sets the minimum extruding and travel feed rate, mm/sec
M107
;TYPE:Custom
;M412 S0 ;disable filament runout detection
M605 S1 ;auto park

G21; millimeter units
G90; absolute positioning
M82; E absolute
M107; fan off

T0

M140 S85; Start the bed warming
M104 S240 T0; set nozzle temp for Extruder 1
M104 S215 T1; set nozzle temp for Extruder 2
M190 S85; set bed temp and wait for temp to be reached
G28; home all axes
G1 Z5 F5000 ; lift nozzle
M420 S1
G28 X
M109 S240 T0; set nozzle temp for Extruder 1 and wait for temp to be reached
M109 S215 T1; set nozzle temp for Extruder 2 and wait for temp to be reached

T0
G92 E0
G1 Z2.0 F3000 ;Move Z Axis up
G1 X5 Y10 Z0.28 F5000.0 ;Move to start position
G1 Y200.0 F1500.0 E15   ;Draw the first line
G1 X4.6 F5000.0         ;Move to side a little
G1 Y10 F1500.0 E30      ;Draw the second line
G1 X4.2 F5000.0         ;Move to side a little
G1 Y200 F1500.0         ;Purge
G92 E0
G1 E-1.00 F200
G1 X-65 F5000.0

T1
G92 E0
G1 Z2.0 F3000 ;Move Z Axis up
G1 X305 Y10 Z0.28 F5000.0 ;Move to start position
G1 Y200.0 F1500.0 E45     ;Draw the first line
G1 X305.4 F5000.0         ;Move to side a little
G1 Y10 F1500.0 E60        ;Draw the second line
G1 X305.8 F5000.0         ;Move to side a little
G1 Y200 F1500.0           ;Purge
G92 E0
G1 E-1.00 F200
G1 X365 F5000.0


T0
M117 Printing...; put message on display
G21 ; set units to millimeters
G90 ; use absolute coordinates
M82 ; use absolute distances for extrusion
G92 E0
M900 K0.05
;LAYER_CHANGE
;Z:0.2
;HEIGHT:0.2
G1 Z0.200 F10800.000
G1 E-1.20000 F2400.000
G92 E0
G1 Z0.600 F10800.000
G1 X100.950 Y136.409
G1 Z0.200
G1 E1.20000 F2400.000
M204 S1000
;TYPE:Skirt
;WIDTH:0.42
G1 F1800.000
G1 X102.863 Y135.251 E1.26660
G1 X104.788 Y134.350 E1.32990
G1 X106.605 Y133.706 E1.38734
G1 X108.668 Y133.194 E1.45064
G1 X110.533 Y132.918 E1.50681
G1 X112.660 Y132.809 E1.57023
G1 X114.788 Y132.919 E1.63373
G1 X116.683 Y133.202 E1.69078
G1 X118.751 Y133.720 E1.75427
G1 X120.749 Y134.444 E1.81757
G1 X122.489 Y135.274 E1.87501
G1 X124.310 Y136.370 E1.93831
G1 X125.824 Y137.494 E1.99448
G1 X127.400 Y138.917 E2.05771
G1 X128.824 Y140.494 E2.12101
G1 X129.950 Y142.012 E2.17731
G1 X131.046 Y143.833 E2.24060
G1 X131.874 Y145.570 E2.29792
G1 X132.597 Y147.565 E2.36115
G1 X133.115 Y149.633 E2.42464
G1 X133.399 Y151.534 E2.48189
G1 X133.509 Y153.662 E2.54538
G1 X133.400 Y155.785 E2.60868
G1 X133.123 Y157.654 E2.66497
G1 X132.611 Y159.717 E2.72827
G1 X131.968 Y161.530 E2.78559
G1 X131.068 Y163.453 E2.84882
G1 X129.973 Y165.281 E2.91231
G1 X128.829 Y166.826 E2.96956
G1 X127.401 Y168.409 E3.03305
G1 X125.824 Y169.833 E3.09635
G1 X124.306 Y170.959 E3.15264
G1 X122.486 Y172.055 E3.21594
G1 X120.749 Y172.883 E3.27326
G1 X118.753 Y173.606 E3.33649
G1 X116.685 Y174.124 E3.39998
G1 X114.784 Y174.409 E3.45723
G1 X112.657 Y174.518 E3.52068
G1 X110.533 Y174.409 E3.58402
G1 X108.664 Y174.132 E3.64031
G1 X106.601 Y173.620 E3.70361
G1 X104.788 Y172.977 E3.76093
G1 X102.865 Y172.077 E3.82416
G1 X101.037 Y170.982 E3.88765
G1 X99.492 Y169.839 E3.94490
G1 X97.909 Y168.410 E4.00839
G1 X96.485 Y166.833 E4.07169
G1 X95.359 Y165.315 E4.12798
G1 X94.263 Y163.495 E4.19128
G1 X93.435 Y161.758 E4.24860
G1 X92.712 Y159.762 E4.31183
G1 X92.194 Y157.694 E4.37532
G1 X91.909 Y155.793 E4.43257
G1 X91.800 Y153.665 E4.49606
G1 X91.909 Y151.542 E4.55936
G1 X92.186 Y149.673 E4.61565
G1 X92.698 Y147.611 E4.67895
G1 X93.341 Y145.797 E4.73627
G1 X94.241 Y143.874 E4.79950
G1 X95.336 Y142.046 E4.86299
G1 X96.479 Y140.501 E4.92024
G1 X97.908 Y138.918 E4.98373
G1 X99.490 Y137.490 E5.04722
G1 X100.902 Y136.445 E5.09955
M204 S1500
G1 X101.126 Y136.747 F10800.000
M204 S1000
G1 F1800.000
G1 X101.241 Y136.663 E5.10380
G1 X103.041 Y135.583 E5.16634
G1 X104.932 Y134.699 E5.22851
G1 X106.710 Y134.068 E5.28470
G1 X108.742 Y133.564 E5.34705
G1 X110.814 Y133.270 E5.40941
G1 X112.661 Y133.186 E5.46448
G1 X114.746 Y133.294 E5.52665
G1 X116.611 Y133.573 E5.58283
G1 X118.642 Y134.081 E5.64519
G1 X120.604 Y134.793 E5.70737
G1 X122.307 Y135.604 E5.76355
G1 X124.100 Y136.684 E5.82591
G1 X125.584 Y137.785 E5.88094
G1 X127.134 Y139.184 E5.94315
G1 X128.537 Y140.739 E6.00550
G1 X129.655 Y142.250 E6.06150
G1 X130.735 Y144.051 E6.12404
G1 X131.619 Y145.941 E6.18622
G1 X132.250 Y147.719 E6.24240
G1 X132.754 Y149.751 E6.30476
G1 X133.025 Y151.578 E6.35979
G1 X133.132 Y153.664 E6.42200
G1 X133.024 Y155.755 E6.48436
G1 X132.747 Y157.614 E6.54035
G1 X132.237 Y159.651 E6.60290
G1 X131.525 Y161.613 E6.66507
G1 X130.714 Y163.316 E6.72125
G1 X129.634 Y165.109 E6.78361
G1 X128.533 Y166.593 E6.83865
G1 X127.134 Y168.143 E6.90085
G1 X125.584 Y169.542 E6.96302
G1 X124.100 Y170.644 E7.01809
G1 X122.306 Y171.723 E7.08045
G1 X120.604 Y172.534 E7.13660
G1 X118.641 Y173.246 E7.19880
G1 X116.610 Y173.755 E7.26116
G1 X114.745 Y174.034 E7.31734
G1 X112.655 Y174.141 E7.37966
G1 X110.569 Y174.034 E7.44187
G1 X108.741 Y173.763 E7.49694
G1 X106.709 Y173.258 E7.55930
G1 X104.932 Y172.629 E7.61545
G1 X103.041 Y171.744 E7.67765
G1 X101.245 Y170.667 E7.74001
G1 X99.729 Y169.545 E7.79619
G1 X98.175 Y168.143 E7.85855
G1 X96.772 Y166.589 E7.92091
G1 X95.654 Y165.078 E7.97691
G1 X94.574 Y163.277 E8.03945
G1 X93.690 Y161.386 E8.10162
G1 X93.059 Y159.608 E8.15780
G1 X92.555 Y157.576 E8.22016
G1 X92.284 Y155.749 E8.27520
G1 X92.177 Y153.663 E8.33740
G1 X92.285 Y151.572 E8.39976
G1 X92.562 Y149.713 E8.45576
G1 X93.072 Y147.676 E8.51830
G1 X93.784 Y145.714 E8.58048
G1 X94.595 Y144.011 E8.63666
G1 X95.675 Y142.218 E8.69901
G1 X96.776 Y140.734 E8.75405
G1 X98.175 Y139.184 E8.81626
G1 X99.730 Y137.781 E8.87861
G1 X101.078 Y136.783 E8.92858
M204 S1500
; printing object Shape-Cylinder id:0 copy 0
G1 E7.72858 F2400.000
G92 E0
G1 Z0.600 F10800.000
G1 X99.662 Y156.545
G1 Z0.200
G1 E1.20000 F2400.000
M204 S1000
;TYPE:Perimeter
G1 F1800.000
G1 X99.471 Y155.516 E1.23116
G1 X99.392 Y154.824 E1.25192
G1 X99.350 Y154.128 E1.27269
G1 X99.344 Y153.431 E1.29345
G1 X99.374 Y152.735 E1.31421
G1 X99.441 Y152.041 E1.33497
G1 X99.544 Y151.349 E1.35580
G1 X99.795 Y150.218 E1.39032
G1 X99.993 Y149.550 E1.41108
G1 X100.226 Y148.893 E1.43184
G1 X100.493 Y148.249 E1.45260
G1 X100.793 Y147.620 E1.47336
G1 X101.363 Y146.611 E1.50788
G1 X101.749 Y146.028 E1.52872
G1 X102.165 Y145.465 E1.54955
G1 X102.918 Y144.584 E1.58407
G1 X103.745 Y143.772 E1.61859
G1 X104.277 Y143.318 E1.63943
G1 X104.829 Y142.893 E1.66019
G1 X105.796 Y142.254 E1.69470
G1 X106.405 Y141.909 E1.71554
G1 X107.028 Y141.598 E1.73630
G1 X107.667 Y141.320 E1.75706
G1 X108.323 Y141.075 E1.77790
G1 X109.434 Y140.746 E1.81242
G1 X110.114 Y140.595 E1.83318
G1 X110.802 Y140.480 E1.85394
G1 X111.494 Y140.402 E1.87470
G1 X112.190 Y140.359 E1.89546
G1 X112.887 Y140.353 E1.91622
G1 X113.586 Y140.383 E1.93705
G1 X114.737 Y140.515 E1.97157
G1 X115.422 Y140.642 E1.99233
G1 X116.100 Y140.804 E2.01309
G1 X116.768 Y141.002 E2.03385
G1 X117.425 Y141.235 E2.05461
G1 X118.069 Y141.502 E2.07537
G1 X118.698 Y141.802 E2.09613
G1 X119.707 Y142.372 E2.13065
G1 X120.290 Y142.758 E2.15149
G1 X120.853 Y143.175 E2.17233
G1 X121.734 Y143.927 E2.20684
G1 X122.546 Y144.754 E2.24136
G1 X123.000 Y145.286 E2.26220
G1 X123.425 Y145.839 E2.28296
G1 X124.064 Y146.805 E2.31748
G1 X124.409 Y147.414 E2.33831
G1 X124.720 Y148.037 E2.35907
G1 X124.998 Y148.677 E2.37983
G1 X125.243 Y149.332 E2.40067
G1 X125.572 Y150.443 E2.43519
G1 X125.723 Y151.123 E2.45595
G1 X125.838 Y151.811 E2.47671
G1 X125.917 Y152.503 E2.49747
G1 X125.959 Y153.199 E2.51823
G1 X125.965 Y153.896 E2.53899
G1 X125.935 Y154.592 E2.55975
G1 X125.868 Y155.286 E2.58051
G1 X125.765 Y155.978 E2.60135
G1 X125.514 Y157.109 E2.63586
G1 X125.316 Y157.777 E2.65662
G1 X125.083 Y158.434 E2.67738
G1 X124.816 Y159.078 E2.69815
G1 X124.516 Y159.707 E2.71891
G1 X123.946 Y160.716 E2.75342
G1 X123.560 Y161.299 E2.77426
G1 X123.144 Y161.862 E2.79510
G1 X122.391 Y162.743 E2.82961
G1 X121.564 Y163.555 E2.86413
G1 X121.032 Y164.009 E2.88497
G1 X120.479 Y164.434 E2.90573
G1 X119.905 Y164.829 E2.92649
G1 X119.309 Y165.194 E2.94733
G1 X118.281 Y165.729 E2.98184
G1 X117.641 Y166.007 E3.00260
G1 X116.986 Y166.252 E3.02344
G1 X115.875 Y166.581 E3.05796
G1 X115.195 Y166.732 E3.07872
G1 X114.507 Y166.847 E3.09948
G1 X113.815 Y166.926 E3.12024
G1 X113.119 Y166.968 E3.14100
G1 X112.422 Y166.974 E3.16176
G1 X111.726 Y166.944 E3.18252
G1 X111.032 Y166.877 E3.20328
G1 X110.340 Y166.774 E3.22412
G1 X109.209 Y166.523 E3.25864
G1 X108.541 Y166.325 E3.27940
G1 X107.884 Y166.092 E3.30016
G1 X107.240 Y165.825 E3.32092
G1 X106.611 Y165.525 E3.34168
G1 X105.602 Y164.955 E3.37620
G1 X105.019 Y164.569 E3.39703
G1 X104.456 Y164.153 E3.41787
G1 X103.575 Y163.400 E3.45239
G1 X102.763 Y162.573 E3.48690
G1 X102.309 Y162.042 E3.50774
G1 X101.884 Y161.489 E3.52850
G1 X101.489 Y160.914 E3.54926
G1 X101.124 Y160.318 E3.57010
G1 X100.589 Y159.290 E3.60462
G1 X100.311 Y158.651 E3.62538
G1 X100.066 Y157.995 E3.64621
G1 X99.924 Y157.558 E3.65990
G1 X99.675 Y156.604 E3.68929
M204 S1500
G1 X99.307 Y156.685 F10800.000
M204 S1000
;TYPE:External perimeter
G1 F1800.000
G1 X99.216 Y156.276 E3.70178
G1 X99.098 Y155.569 E3.72313
G1 X99.017 Y154.857 E3.74448
G1 X98.973 Y154.141 E3.76583
G1 X98.967 Y153.425 E3.78718
G1 X98.998 Y152.709 E3.80853
G1 X99.067 Y151.995 E3.82988
G1 X99.173 Y151.285 E3.85125
G1 X99.431 Y150.120 E3.88680
G1 X99.635 Y149.433 E3.90815
G1 X99.874 Y148.758 E3.92950
G1 X100.148 Y148.095 E3.95085
G1 X100.457 Y147.448 E3.97219
G1 X101.044 Y146.410 E4.00774
G1 X101.440 Y145.811 E4.02912
G1 X101.867 Y145.234 E4.05049
G1 X102.642 Y144.327 E4.08604
G1 X103.493 Y143.491 E4.12159
G1 X104.039 Y143.025 E4.14296
G1 X104.608 Y142.588 E4.16431
G1 X105.603 Y141.929 E4.19986
G1 X106.227 Y141.576 E4.22123
G1 X106.869 Y141.256 E4.24258
G1 X107.526 Y140.970 E4.26393
G1 X108.198 Y140.719 E4.28531
G1 X109.343 Y140.380 E4.32085
G1 X110.042 Y140.225 E4.34220
G1 X110.749 Y140.107 E4.36355
G1 X111.461 Y140.026 E4.38490
G1 X112.177 Y139.982 E4.40625
G1 X112.893 Y139.976 E4.42760
G1 X113.610 Y140.007 E4.44897
G1 X114.796 Y140.142 E4.48452
G1 X115.501 Y140.273 E4.50587
G1 X116.198 Y140.440 E4.52722
G1 X116.885 Y140.644 E4.54856
G1 X117.560 Y140.883 E4.56991
G1 X118.223 Y141.157 E4.59126
G1 X118.870 Y141.466 E4.61261
G1 X119.908 Y142.053 E4.64816
G1 X120.507 Y142.449 E4.66953
G1 X121.084 Y142.876 E4.69091
G1 X121.991 Y143.651 E4.72646
G1 X122.827 Y144.503 E4.76200
G1 X123.294 Y145.048 E4.78338
G1 X123.730 Y145.617 E4.80473
G1 X124.389 Y146.612 E4.84027
G1 X124.742 Y147.237 E4.86165
G1 X125.062 Y147.878 E4.88300
G1 X125.348 Y148.535 E4.90435
G1 X125.599 Y149.207 E4.92572
G1 X125.938 Y150.352 E4.96127
G1 X126.093 Y151.051 E4.98262
G1 X126.211 Y151.758 E5.00397
G1 X126.292 Y152.470 E5.02532
G1 X126.336 Y153.186 E5.04666
G1 X126.342 Y153.902 E5.06801
G1 X126.311 Y154.619 E5.08936
G1 X126.242 Y155.332 E5.11071
G1 X126.136 Y156.042 E5.13209
G1 X125.878 Y157.207 E5.16763
G1 X125.674 Y157.894 E5.18898
G1 X125.435 Y158.570 E5.21033
G1 X125.161 Y159.232 E5.23168
G1 X124.852 Y159.879 E5.25303
G1 X124.265 Y160.917 E5.28857
G1 X123.869 Y161.516 E5.30995
G1 X123.442 Y162.093 E5.33133
G1 X122.667 Y163.000 E5.36687
G1 X121.816 Y163.837 E5.40242
G1 X121.270 Y164.303 E5.42380
G1 X120.701 Y164.739 E5.44514
G1 X120.111 Y165.145 E5.46649
G1 X119.499 Y165.520 E5.48787
G1 X118.440 Y166.071 E5.52341
G1 X117.783 Y166.357 E5.54476
G1 X117.111 Y166.608 E5.56614
G1 X115.966 Y166.947 E5.60169
G1 X115.267 Y167.102 E5.62304
G1 X114.560 Y167.220 E5.64438
G1 X113.848 Y167.301 E5.66573
G1 X113.132 Y167.345 E5.68708
G1 X112.416 Y167.351 E5.70843
G1 X111.700 Y167.320 E5.72978
G1 X110.986 Y167.251 E5.75113
G1 X110.276 Y167.145 E5.77250
G1 X109.111 Y166.887 E5.80805
G1 X108.424 Y166.683 E5.82940
G1 X107.748 Y166.444 E5.85075
G1 X107.086 Y166.170 E5.87210
G1 X106.439 Y165.861 E5.89344
G1 X105.401 Y165.274 E5.92899
G1 X104.802 Y164.878 E5.95037
G1 X104.225 Y164.451 E5.97174
G1 X103.318 Y163.676 E6.00729
G1 X102.481 Y162.825 E6.04284
G1 X102.015 Y162.279 E6.06421
G1 X101.579 Y161.710 E6.08556
G1 X101.173 Y161.120 E6.10691
G1 X100.798 Y160.508 E6.12829
G1 X100.247 Y159.449 E6.16383
G1 X99.961 Y158.792 E6.18518
G1 X99.710 Y158.120 E6.20656
G1 X99.563 Y157.667 E6.22074
G1 X99.320 Y156.744 E6.24917
M204 S1500
G1 X99.597 Y156.410 F10800.000
G1 E5.04917 F2400.000
G92 E0
G1 Z0.600 F10800.000
G1 X123.376 Y145.970
G1 Z0.200
G1 E1.20000 F2400.000
M204 S1000
;TYPE:Solid infill
;WIDTH:0.420357
G1 F1800.000
G1 X121.539 Y144.133 E1.27745
G1 X120.676 Y143.396 E1.31127
G1 X120.128 Y142.990 E1.33161
G1 X119.391 Y142.518 E1.35771
G1 X123.820 Y146.947 E1.54445
G1 X124.159 Y147.546 E1.56499
G1 X124.432 Y148.093 E1.58320
G1 X118.231 Y141.892 E1.84466
G1 X117.293 Y141.488 E1.87510
G1 X124.824 Y149.019 E2.19264
G1 X124.974 Y149.422 E2.20544
G1 X125.093 Y149.822 E2.21789
G1 X116.484 Y141.213 E2.58087
G1 X115.748 Y141.011 E2.60364
G1 X125.311 Y150.574 E3.00686
G1 X125.458 Y151.254 E3.02761
G1 X115.067 Y140.864 E3.46573
G1 X114.435 Y140.765 E3.48482
G1 X125.562 Y151.893 E3.95401
G1 X125.631 Y152.495 E3.97209
G1 X113.832 Y140.696 E4.46958
G1 X113.254 Y140.652 E4.48686
G1 X125.668 Y153.065 E5.01027
G1 X125.680 Y153.611 E5.02655
G1 X112.706 Y140.637 E5.57361
G1 X112.178 Y140.643 E5.58935
G1 X125.672 Y154.137 E6.15831
G1 X125.646 Y154.645 E6.17347
G1 X111.675 Y140.674 E6.76255
G1 X111.188 Y140.721 E6.77713
G1 X125.599 Y155.132 E7.38474
G1 X125.535 Y155.602 E7.39888
G1 X110.715 Y140.782 E8.02376
G1 X110.258 Y140.858 E8.03758
G1 X125.457 Y156.058 E8.67846
G1 X125.360 Y156.495 E8.69180
G1 X109.817 Y140.951 E9.34718
G1 X109.387 Y141.055 E9.36037
G1 X125.263 Y156.931 E10.02978
G1 X125.147 Y157.349 E10.04271
G1 X108.975 Y141.177 E10.72461
G1 X108.563 Y141.299 E10.73742
G1 X125.022 Y157.758 E11.43141
G1 X124.883 Y158.152 E11.44388
G1 X108.166 Y141.436 E12.14872
G1 X107.778 Y141.581 E12.16109
G1 X124.734 Y158.537 E12.87605
G1 X124.578 Y158.915 E12.88823
G1 X107.406 Y141.742 E13.61229
G1 X107.038 Y141.909 E13.62432
G1 X124.408 Y159.278 E14.35668
G1 X124.232 Y159.636 E14.36857
G1 X106.682 Y142.087 E15.10853
G1 X106.335 Y142.273 E15.12028
G1 X124.039 Y159.977 E15.86675
G1 X123.846 Y160.318 E15.87843
G1 X105.994 Y142.466 E16.63114
G1 X105.670 Y142.676 E16.64265
G1 X123.648 Y160.654 E17.40067
G1 X123.435 Y160.975 E17.41215
G1 X105.349 Y142.889 E18.17476
G1 X105.028 Y143.101 E18.18624
G1 X123.216 Y161.289 E18.95312
G1 X122.989 Y161.596 E18.96449
G1 X104.724 Y143.331 E19.73462
G1 X104.423 Y143.564 E19.74596
G1 X122.748 Y161.889 E20.51862
G1 X122.502 Y162.177 E20.52991
G1 X104.135 Y143.810 E21.30434
G1 X103.853 Y144.062 E21.31561
G1 X122.256 Y162.465 E22.09157
G1 X121.994 Y162.736 E22.10283
G1 X103.584 Y144.326 E22.87907
G1 X103.315 Y144.591 E22.89033
G1 X121.725 Y163.001 E23.66657
G1 X121.456 Y163.265 E23.67783
G1 X103.053 Y144.862 E24.45379
G1 X102.807 Y145.150 E24.46507
G1 X121.174 Y163.517 E25.23950
G1 X120.886 Y163.763 E25.25079
G1 X102.561 Y145.438 E26.02345
