; generated by PrusaSlicer 2.3.3+win64 on 2021-10-13 at 14:43:38 UTC

; 

; external perimeters extrusion width = 0.45mm
; perimeters extrusion width = 0.45mm
; infill extrusion width = 0.45mm
; solid infill extrusion width = 0.45mm
; top infill extrusion width = 0.40mm
; support material extrusion width = 0.35mm
; first layer extrusion width = 0.42mm

; external perimeters extrusion width = 0.45mm
; perimeters extrusion width = 0.45mm
; infill extrusion width = 0.45mm
; solid infill extrusion width = 0.45mm
; top infill extrusion width = 0.40mm
; support material extrusion width = 0.35mm
; first layer extrusion width = 0.42mm

; external perimeters extrusion width = 0.45mm
; perimeters extrusion width = 0.45mm
; infill extrusion width = 0.45mm
; solid infill extrusion width = 0.45mm
; top infill extrusion width = 0.40mm
; support material extrusion width = 0.35mm
; first layer extrusion width = 0.42mm

M201 X5000 Y5000 Z500 E5000 ; sets maximum accelerations, mm/sec^2
M203 X500 Y500 Z12 E120 ; sets maximum feedrates, mm/sec
M204 P1500 R1500 T1500 ; sets acceleration (P, T) and retract acceleration (R), mm/sec^2
M205 X8.00 Y8.00 Z0.20 E4.50 ; sets the jerk limits, mm/sec
M205 S0 T0 ; sets the minimum extruding and travel feed rate, mm/sec
M107
;TYPE:Custom
;M412 S0 ;disable filament runout detection
M605 S1 ;auto park

G21; millimeter units
G90; absolute positioning
M82; E absolute
M107; fan off

T0

M140 S85; Start the bed warming
M104 S215 T0; set nozzle temp for Extruder 1
M104 S215 T1; set nozzle temp for Extruder 2
M190 S85; set bed temp and wait for temp to be reached
G28; home all axes
G1 Z5 F5000 ; lift nozzle
M420 S1
G28 X
M109 S215 T0; set nozzle temp for Extruder 1 and wait for temp to be reached
M109 S215 T1; set nozzle temp for Extruder 2 and wait for temp to be reached

T0
G92 E0
G1 Z2.0 F3000 ;Move Z Axis up
G1 X5 Y10 Z0.28 F5000.0 ;Move to start position
G1 Y200.0 F1500.0 E15   ;Draw the first line
G1 X4.6 F5000.0         ;Move to side a little
G1 Y10 F1500.0 E30      ;Draw the second line
G1 X4.2 F5000.0         ;Move to side a little
G1 Y200 F1500.0         ;Purge
G92 E0
G1 E-1.00 F200
G1 X-65 F5000.0

T1
G92 E0
G1 Z2.0 F3000 ;Move Z Axis up
G1 X305 Y10 Z0.28 F5000.0 ;Move to start position
G1 Y200.0 F1500.0 E45     ;Draw the first line
G1 X305.4 F5000.0         ;Move to side a little
G1 Y10 F1500.0 E60        ;Draw the second line
G1 X305.8 F5000.0         ;Move to side a little
G1 Y200 F1500.0           ;Purge
G92 E0
G1 E-1.00 F200
G1 X365 F5000.0


T0
M117 Printing...; put message on display
G21 ; set units to millimeters
G90 ; use absolute coordinates
M82 ; use absolute distances for extrusion
G92 E0
T1
G92 E0
;LAYER_CHANGE
;Z:0.2
;HEIGHT:0.2
G1 Z0.200 F10800.000
G1 E-1.20000 F2400.000
G92 E0
G1 Z0.600 F10800.000
G1 X199.538 Y142.016
G1 Z0.200
G1 E1.20000 F2400.000
M204 S1000
;TYPE:Skirt
;WIDTH:0.42
G1 F1800.000
G1 X200.681 Y140.471 E1.25725
G1 X202.109 Y138.889 E1.32074
G1 X203.691 Y137.460 E1.38423
G1 X205.236 Y136.317 E1.44148
G1 X207.064 Y135.221 E1.50497
G1 X208.989 Y134.321 E1.56827
G1 X210.807 Y133.676 E1.62571
G1 X212.869 Y133.164 E1.68901
G1 X214.735 Y132.888 E1.74518
G1 X216.861 Y132.780 E1.80860
G1 X218.990 Y132.889 E1.87209
G1 X220.884 Y133.173 E1.92915
G1 X222.952 Y133.691 E1.99264
G1 X224.950 Y134.415 E2.05594
G1 X226.691 Y135.244 E2.11338
G1 X228.511 Y136.341 E2.17668
G1 X230.025 Y137.464 E2.23285
G1 X231.601 Y138.887 E2.29608
G1 X233.025 Y140.464 E2.35938
G1 X234.151 Y141.982 E2.41567
G1 X235.247 Y143.803 E2.47897
G1 X236.075 Y145.540 E2.53628
G1 X236.798 Y147.536 E2.59952
G1 X237.317 Y149.603 E2.66301
G1 X237.601 Y151.504 E2.72026
G1 X237.710 Y153.633 E2.78375
G1 X237.602 Y155.755 E2.84705
G1 X237.325 Y157.624 E2.90334
G1 X236.812 Y159.687 E2.96664
G1 X236.169 Y161.501 E3.02396
G1 X235.270 Y163.423 E3.08719
G1 X234.174 Y165.252 E3.15068
G1 X233.031 Y166.797 E3.20792
G1 X231.603 Y168.379 E3.27142
G1 X230.025 Y169.803 E3.33472
G1 X228.508 Y170.929 E3.39101
G1 X226.687 Y172.025 E3.45431
G1 X224.950 Y172.853 E3.51162
G1 X222.954 Y173.576 E3.57486
G1 X220.886 Y174.095 E3.63835
G1 X218.986 Y174.379 E3.69559
G1 X216.858 Y174.488 E3.75905
G1 X214.735 Y174.380 E3.82239
G1 X212.865 Y174.103 E3.87868
G1 X210.803 Y173.590 E3.94198
G1 X208.989 Y172.947 E3.99929
G1 X207.066 Y172.048 E4.06253
G1 X205.238 Y170.952 E4.12602
G1 X203.693 Y169.809 E4.18326
G1 X202.111 Y168.381 E4.24676
G1 X200.686 Y166.803 E4.31006
G1 X199.560 Y165.286 E4.36635
G1 X198.464 Y163.465 E4.42965
G1 X197.637 Y161.728 E4.48696
G1 X196.913 Y159.732 E4.55020
G1 X196.395 Y157.665 E4.61369
G1 X196.111 Y155.764 E4.67093
G1 X196.002 Y153.635 E4.73443
G1 X196.110 Y151.513 E4.79773
G1 X196.387 Y149.643 E4.85402
G1 X196.900 Y147.581 E4.91732
G1 X197.543 Y145.767 E4.97463
G1 X198.442 Y143.844 E5.03786
G1 X199.507 Y142.067 E5.09957
M204 S1500
G1 X199.831 Y142.263 F10800.000
M204 S1000
G1 F1800.000
G1 X200.977 Y140.704 E5.15720
G1 X202.377 Y139.154 E5.21940
G1 X203.931 Y137.751 E5.28176
G1 X205.442 Y136.633 E5.33775
G1 X207.243 Y135.553 E5.40030
G1 X209.133 Y134.669 E5.46247
G1 X210.911 Y134.039 E5.51865
G1 X212.943 Y133.534 E5.58101
G1 X215.016 Y133.240 E5.64337
G1 X216.863 Y133.157 E5.69844
G1 X218.947 Y133.264 E5.76061
G1 X220.813 Y133.543 E5.81679
G1 X222.843 Y134.052 E5.87915
G1 X224.806 Y134.763 E5.94132
G1 X226.508 Y135.575 E5.99750
G1 X228.302 Y136.654 E6.05986
G1 X229.786 Y137.755 E6.11490
G1 X231.336 Y139.155 E6.17710
G1 X232.738 Y140.709 E6.23946
G1 X233.857 Y142.220 E6.29546
G1 X234.936 Y144.021 E6.35800
G1 X235.821 Y145.911 E6.42017
G1 X236.451 Y147.689 E6.47635
G1 X236.956 Y149.721 E6.53871
G1 X237.226 Y151.549 E6.59375
G1 X237.333 Y153.634 E6.65595
G1 X237.226 Y155.725 E6.71831
G1 X236.948 Y157.584 E6.77431
G1 X236.438 Y159.621 E6.83685
G1 X235.727 Y161.584 E6.89903
G1 X234.915 Y163.286 E6.95521
G1 X233.835 Y165.080 E7.01756
G1 X232.734 Y166.564 E7.07260
G1 X231.335 Y168.114 E7.13481
G1 X229.786 Y169.512 E7.19698
G1 X228.301 Y170.614 E7.25204
G1 X226.507 Y171.694 E7.31440
G1 X224.806 Y172.505 E7.37055
G1 X222.842 Y173.216 E7.43276
G1 X220.811 Y173.725 E7.49512
G1 X218.946 Y174.004 E7.55130
G1 X216.857 Y174.111 E7.61362
G1 X214.771 Y174.004 E7.67583
G1 X212.942 Y173.733 E7.73090
G1 X210.910 Y173.229 E7.79326
G1 X209.133 Y172.599 E7.84941
G1 X207.242 Y171.714 E7.91161
G1 X205.446 Y170.638 E7.97397
G1 X203.930 Y169.516 E8.03015
G1 X202.376 Y168.113 E8.09251
G1 X200.973 Y166.559 E8.15487
G1 X199.855 Y165.048 E8.21086
G1 X198.775 Y163.247 E8.27341
G1 X197.891 Y161.356 E8.33558
G1 X197.261 Y159.578 E8.39176
G1 X196.756 Y157.547 E8.45412
G1 X196.485 Y155.719 E8.50916
G1 X196.379 Y153.633 E8.57136
G1 X196.486 Y151.543 E8.63372
G1 X196.764 Y149.683 E8.68971
G1 X197.274 Y147.646 E8.75226
G1 X197.985 Y145.684 E8.81443
G1 X198.797 Y143.982 E8.87061
G1 X199.800 Y142.314 E8.92858
M204 S1500
; printing object Shape-Cylinder id:0 copy 0
G1 E7.72858 F2400.000
G92 E0
G1 Z0.600 F10800.000
G1 X205.911 Y146.057
G1 Z0.200
G1 E1.20000 F2400.000
M204 S1000
;TYPE:Perimeter
G1 F1800.000
G1 X206.367 Y145.436 E1.22295
G1 X206.656 Y145.079 E1.23664
G1 X207.120 Y144.555 E1.25748
G1 X207.610 Y144.056 E1.27831
G1 X208.478 Y143.288 E1.31283
G1 X209.031 Y142.864 E1.33359
G1 X209.607 Y142.467 E1.35443
G1 X210.606 Y141.879 E1.38895
G1 X211.230 Y141.568 E1.40971
G1 X211.869 Y141.291 E1.43047
G1 X212.961 Y140.904 E1.46498
G1 X213.635 Y140.717 E1.48582
G1 X214.316 Y140.566 E1.50658
G1 X215.003 Y140.451 E1.52734
G1 X215.696 Y140.372 E1.54810
G1 X216.391 Y140.329 E1.56886
G1 X217.088 Y140.323 E1.58962
G1 X218.245 Y140.394 E1.62414
G1 X218.938 Y140.485 E1.64498
G1 X219.624 Y140.612 E1.66574
G1 X220.301 Y140.775 E1.68650
G1 X220.970 Y140.973 E1.70726
G1 X221.627 Y141.205 E1.72802
G1 X222.271 Y141.472 E1.74878
G1 X222.900 Y141.772 E1.76954
G1 X223.514 Y142.106 E1.79038
G1 X224.492 Y142.729 E1.82489
G1 X225.411 Y143.434 E1.85941
G1 X225.935 Y143.898 E1.88025
G1 X226.434 Y144.388 E1.90109
G1 X227.202 Y145.256 E1.93560
G1 X227.626 Y145.809 E1.95636
G1 X228.022 Y146.385 E1.97720
G1 X228.610 Y147.384 E2.01172
G1 X228.921 Y148.008 E2.03248
G1 X229.199 Y148.647 E2.05324
G1 X229.586 Y149.739 E2.08776
G1 X229.773 Y150.413 E2.10859
G1 X229.924 Y151.094 E2.12935
G1 X230.039 Y151.781 E2.15011
G1 X230.118 Y152.474 E2.17087
G1 X230.160 Y153.169 E2.19163
G1 X230.167 Y153.866 E2.21239
G1 X230.136 Y154.563 E2.23315
G1 X230.069 Y155.256 E2.25392
G1 X229.878 Y156.400 E2.28847
G1 X229.715 Y157.079 E2.30927
G1 X229.517 Y157.748 E2.33003
G1 X229.284 Y158.405 E2.35079
G1 X229.018 Y159.049 E2.37155
G1 X228.718 Y159.678 E2.39231
G1 X228.384 Y160.292 E2.41315
G1 X227.761 Y161.270 E2.44767
G1 X227.056 Y162.189 E2.48218
G1 X226.592 Y162.713 E2.50302
G1 X226.102 Y163.212 E2.52386
G1 X225.234 Y163.980 E2.55837
G1 X224.681 Y164.404 E2.57913
G1 X224.106 Y164.799 E2.59989
G1 X223.107 Y165.388 E2.63445
G1 X222.482 Y165.699 E2.65525
G1 X221.843 Y165.977 E2.67601
G1 X220.751 Y166.364 E2.71053
G1 X220.076 Y166.551 E2.73136
G1 X219.396 Y166.702 E2.75212
G1 X218.709 Y166.817 E2.77288
G1 X218.016 Y166.896 E2.79365
G1 X217.320 Y166.938 E2.81441
G1 X216.624 Y166.945 E2.83517
G1 X215.927 Y166.914 E2.85593
G1 X215.233 Y166.847 E2.87669
G1 X214.089 Y166.656 E2.91124
G1 X213.410 Y166.493 E2.93204
G1 X212.742 Y166.295 E2.95280
G1 X212.085 Y166.062 E2.97356
G1 X211.441 Y165.796 E2.99432
G1 X210.812 Y165.496 E3.01508
G1 X210.197 Y165.162 E3.03592
G1 X209.220 Y164.539 E3.07044
G1 X208.301 Y163.834 E3.10495
G1 X207.777 Y163.370 E3.12579
G1 X207.278 Y162.880 E3.14663
G1 X206.510 Y162.012 E3.18115
G1 X206.086 Y161.459 E3.20191
G1 X205.691 Y160.884 E3.22267
G1 X205.102 Y159.885 E3.25722
G1 X204.790 Y159.260 E3.27802
G1 X204.513 Y158.621 E3.29878
G1 X204.126 Y157.529 E3.33330
G1 X203.939 Y156.854 E3.35414
G1 X203.788 Y156.174 E3.37490
G1 X203.673 Y155.487 E3.39566
G1 X203.594 Y154.794 E3.41642
G1 X203.551 Y154.098 E3.43718
G1 X203.545 Y153.402 E3.45794
G1 X203.576 Y152.705 E3.47870
G1 X203.642 Y152.011 E3.49946
G1 X203.834 Y150.867 E3.53401
G1 X203.997 Y150.188 E3.55481
G1 X204.195 Y149.520 E3.57557
G1 X204.427 Y148.863 E3.59633
G1 X204.694 Y148.219 E3.61709
G1 X204.994 Y147.590 E3.63785
G1 X205.328 Y146.975 E3.65869
G1 X205.878 Y146.107 E3.68931
M204 S1500
G1 X205.564 Y145.899 F10800.000
M204 S1000
;TYPE:External perimeter
G1 F1800.000
G1 X206.069 Y145.205 E3.71487
G1 X206.368 Y144.835 E3.72905
G1 X206.844 Y144.297 E3.75043
G1 X207.347 Y143.785 E3.77181
G1 X208.241 Y142.995 E3.80735
G1 X208.809 Y142.558 E3.82870
G1 X209.401 Y142.152 E3.85008
G1 X210.429 Y141.546 E3.88562
G1 X211.070 Y141.227 E3.90697
G1 X211.728 Y140.941 E3.92832
G1 X212.852 Y140.542 E3.96387
G1 X213.544 Y140.351 E3.98524
G1 X214.244 Y140.195 E4.00659
G1 X214.951 Y140.077 E4.02794
G1 X215.663 Y139.996 E4.04929
G1 X216.378 Y139.952 E4.07064
G1 X217.095 Y139.946 E4.09199
G1 X218.286 Y140.019 E4.12753
G1 X218.997 Y140.112 E4.14891
G1 X219.702 Y140.243 E4.17026
G1 X220.399 Y140.410 E4.19161
G1 X221.086 Y140.614 E4.21296
G1 X221.762 Y140.853 E4.23430
G1 X222.424 Y141.127 E4.25565
G1 X223.071 Y141.436 E4.27700
G1 X223.702 Y141.778 E4.29838
G1 X224.708 Y142.420 E4.33392
G1 X225.655 Y143.146 E4.36947
G1 X226.192 Y143.622 E4.39085
G1 X226.704 Y144.125 E4.41222
G1 X227.495 Y145.019 E4.44777
G1 X227.931 Y145.587 E4.46912
G1 X228.338 Y146.179 E4.49049
G1 X228.943 Y147.207 E4.52604
G1 X229.263 Y147.848 E4.54739
G1 X229.549 Y148.506 E4.56874
G1 X229.947 Y149.630 E4.60428
G1 X230.139 Y150.322 E4.62566
G1 X230.294 Y151.022 E4.64701
G1 X230.413 Y151.729 E4.66836
G1 X230.494 Y152.441 E4.68971
G1 X230.537 Y153.156 E4.71105
G1 X230.544 Y153.873 E4.73240
G1 X230.512 Y154.589 E4.75375
G1 X230.444 Y155.302 E4.77510
G1 X230.338 Y156.012 E4.79648
G1 X230.247 Y156.480 E4.81069
G1 X230.079 Y157.177 E4.83203
G1 X229.876 Y157.864 E4.85338
G1 X229.636 Y158.540 E4.87473
G1 X229.362 Y159.202 E4.89608
G1 X229.054 Y159.849 E4.91743
G1 X228.711 Y160.480 E4.93880
G1 X228.070 Y161.486 E4.97435
G1 X227.344 Y162.433 E5.00990
G1 X226.868 Y162.970 E5.03127
G1 X226.365 Y163.482 E5.05265
G1 X225.471 Y164.273 E5.08819
G1 X224.903 Y164.709 E5.10954
G1 X224.312 Y165.115 E5.13089
G1 X223.700 Y165.490 E5.15227
G1 X223.283 Y165.722 E5.16648
G1 X222.641 Y166.041 E5.18782
G1 X221.984 Y166.327 E5.20917
G1 X220.859 Y166.725 E5.24472
G1 X220.168 Y166.917 E5.26609
G1 X219.468 Y167.072 E5.28744
G1 X218.761 Y167.191 E5.30879
G1 X218.049 Y167.272 E5.33014
G1 X217.334 Y167.315 E5.35149
G1 X216.617 Y167.322 E5.37284
G1 X215.901 Y167.290 E5.39419
G1 X215.187 Y167.222 E5.41553
G1 X214.478 Y167.116 E5.43691
G1 X214.009 Y167.025 E5.45113
G1 X213.313 Y166.857 E5.47246
G1 X212.625 Y166.654 E5.49381
G1 X211.950 Y166.415 E5.51516
G1 X211.288 Y166.140 E5.53651
G1 X210.641 Y165.832 E5.55786
G1 X210.010 Y165.489 E5.57924
G1 X209.004 Y164.848 E5.61478
G1 X208.057 Y164.122 E5.65033
G1 X207.519 Y163.646 E5.67170
G1 X207.007 Y163.143 E5.69308
G1 X206.217 Y162.249 E5.72863
G1 X205.780 Y161.681 E5.74998
G1 X205.375 Y161.090 E5.77132
G1 X205.000 Y160.478 E5.79270
G1 X204.768 Y160.061 E5.80692
G1 X204.449 Y159.419 E5.82825
G1 X204.163 Y158.762 E5.84960
G1 X203.764 Y157.637 E5.88515
G1 X203.573 Y156.946 E5.90653
G1 X203.417 Y156.246 E5.92788
G1 X203.299 Y155.539 E5.94922
G1 X203.218 Y154.827 E5.97057
G1 X203.174 Y154.112 E5.99192
G1 X203.168 Y153.395 E6.01327
G1 X203.199 Y152.679 E6.03462
G1 X203.268 Y151.965 E6.05597
G1 X203.374 Y151.256 E6.07734
G1 X203.465 Y150.787 E6.09156
G1 X203.632 Y150.091 E6.11290
G1 X203.836 Y149.403 E6.13425
G1 X204.075 Y148.728 E6.15559
G1 X204.349 Y148.066 E6.17694
G1 X204.658 Y147.419 E6.19829
G1 X205.000 Y146.788 E6.21967
G1 X205.531 Y145.949 E6.24923
M204 S1500
G1 X205.963 Y145.929 F10800.000
G1 E5.04923 F2400.000
G92 E0
G1 Z0.600 F10800.000
G1 X227.577 Y145.940
G1 Z0.200
G1 E1.20000 F2400.000
M204 S1000
;TYPE:Solid infill
;WIDTH:0.420357
G1 F1800.000
G1 X225.740 Y144.103 E1.27745
G1 X224.878 Y143.366 E1.31127
G1 X224.329 Y142.960 E1.33161
G1 X223.592 Y142.489 E1.35771
G1 X228.021 Y146.917 E1.54445
G1 X228.360 Y147.517 E1.56499
G1 X228.633 Y148.063 E1.58320
G1 X222.432 Y141.862 E1.84466
G1 X221.494 Y141.459 E1.87510
G1 X229.025 Y148.989 E2.19264
G1 X229.176 Y149.392 E2.20544
G1 X229.294 Y149.792 E2.21789
G1 X220.686 Y141.184 E2.58087
G1 X219.949 Y140.981 E2.60364
G1 X229.512 Y150.544 E3.00686
G1 X229.659 Y151.225 E3.02761
G1 X219.268 Y140.834 E3.46573
G1 X218.636 Y140.735 E3.48482
G1 X229.764 Y151.863 E3.95401
G1 X229.832 Y152.465 E3.97209
G1 X218.033 Y140.666 E4.46958
G1 X217.456 Y140.622 E4.48686
G1 X229.869 Y153.036 E5.01027
G1 X229.881 Y153.582 E5.02655
G1 X216.907 Y140.608 E5.57361
G1 X216.379 Y140.613 E5.58935
G1 X229.873 Y154.107 E6.15831
G1 X229.847 Y154.615 E6.17347
G1 X215.876 Y140.644 E6.76255
G1 X215.389 Y140.691 E6.77713
G1 X229.800 Y155.102 E7.38474
G1 X229.736 Y155.572 E7.39888
G1 X214.916 Y140.752 E8.02376
G1 X214.459 Y140.828 E8.03758
G1 X229.659 Y156.028 E8.67846
G1 X229.562 Y156.465 E8.69180
G1 X214.018 Y140.921 E9.34718
G1 X213.588 Y141.025 E9.36037
G1 X229.465 Y156.902 E10.02978
G1 X229.349 Y157.320 E10.04271
G1 X213.177 Y141.147 E10.72461
G1 X212.765 Y141.269 E10.73742
G1 X229.224 Y157.728 E11.43141
G1 X229.084 Y158.123 E11.44388
G1 X212.368 Y141.406 E12.14872
G1 X211.979 Y141.551 E12.16109
G1 X228.936 Y158.508 E12.87605
G1 X228.779 Y158.885 E12.88823
G1 X211.607 Y141.713 E13.61229
G1 X211.240 Y141.879 E13.62432
G1 X228.609 Y159.249 E14.35668
G1 X228.433 Y159.606 E14.36857
G1 X210.884 Y142.057 E15.10853
G1 X210.536 Y142.244 E15.12028
G1 X228.240 Y159.947 E15.86675
G1 X228.047 Y160.288 E15.87843
G1 X210.196 Y142.437 E16.63114
G1 X209.871 Y142.646 E16.64265
G1 X227.849 Y160.624 E17.40067
G1 X227.637 Y160.945 E17.41215
G1 X209.550 Y142.859 E18.17476
G1 X209.229 Y143.071 E18.18624
G1 X227.417 Y161.259 E18.95312
G1 X227.190 Y161.566 E18.96449
G1 X208.925 Y143.301 E19.73462
G1 X208.625 Y143.534 E19.74596
G1 X226.950 Y161.859 E20.51862
G1 X226.704 Y162.147 E20.52991
G1 X208.337 Y143.780 E21.30434
G1 X208.055 Y144.032 E21.31561
G1 X226.458 Y162.435 E22.09157
G1 X226.195 Y162.707 E22.10283
G1 X207.785 Y144.297 E22.87907
G1 X207.516 Y144.561 E22.89033
