; generated by PrusaSlicer 2.3.3+win64 on 2021-10-13 at 15:04:04 UTC

; 

; external perimeters extrusion width = 0.45mm
; perimeters extrusion width = 0.45mm
; infill extrusion width = 0.45mm
; solid infill extrusion width = 0.45mm
; top infill extrusion width = 0.40mm
; support material extrusion width = 0.35mm
; first layer extrusion width = 0.42mm

; external perimeters extrusion width = 0.45mm
; perimeters extrusion width = 0.45mm
; infill extrusion width = 0.45mm
; solid infill extrusion width = 0.45mm
; top infill extrusion width = 0.40mm
; support material extrusion width = 0.35mm
; first layer extrusion width = 0.42mm

; external perimeters extrusion width = 0.45mm
; perimeters extrusion width = 0.45mm
; infill extrusion width = 0.45mm
; solid infill extrusion width = 0.45mm
; top infill extrusion width = 0.40mm
; support material extrusion width = 0.35mm
; first layer extrusion width = 0.42mm

M201 X5000 Y5000 Z500 E5000 ; sets maximum accelerations, mm/sec^2
M203 X500 Y500 Z12 E120 ; sets maximum feedrates, mm/sec
M204 P1500 R1500 T1500 ; sets acceleration (P, T) and retract acceleration (R), mm/sec^2
M205 X8.00 Y8.00 Z0.20 E4.50 ; sets the jerk limits, mm/sec
M205 S0 T0 ; sets the minimum extruding and travel feed rate, mm/sec
M107
;TYPE:Custom
;M412 S0 ;disable filament runout detection
M605 S1 ;auto park

G21; millimeter units
G90; absolute positioning
M82; E absolute
M107; fan off

T0

M140 S85; Start the bed warming
M104 S240 T0; set nozzle temp for Extruder 1
M104 S215 T1; set nozzle temp for Extruder 2
M190 S85; set bed temp and wait for temp to be reached
G28; home all axes
G1 Z5 F5000 ; lift nozzle
M420 S1
G28 X
M109 S240 T0; set nozzle temp for Extruder 1 and wait for temp to be reached
M109 S215 T1; set nozzle temp for Extruder 2 and wait for temp to be reached

T0
G92 E0
G1 Z2.0 F3000 ;Move Z Axis up
G1 X5 Y10 Z0.28 F5000.0 ;Move to start position
G1 Y200.0 F1500.0 E15   ;Draw the first line
G1 X4.6 F5000.0         ;Move to side a little
G1 Y10 F1500.0 E30      ;Draw the second line
G1 X4.2 F5000.0         ;Move to side a little
G1 Y200 F1500.0         ;Purge
G92 E0
G1 E-1.00 F200
G1 X-65 F5000.0

T1
G92 E0
G1 Z2.0 F3000 ;Move Z Axis up
G1 X305 Y10 Z0.28 F5000.0 ;Move to start position
G1 Y200.0 F1500.0 E45     ;Draw the first line
G1 X305.4 F5000.0         ;Move to side a little
G1 Y10 F1500.0 E60        ;Draw the second line
G1 X305.8 F5000.0         ;Move to side a little
G1 Y200 F1500.0           ;Purge
G92 E0
G1 E-1.00 F200
G1 X365 F5000.0


T0
M117 Printing...; put message on display
G21 ; set units to millimeters
G90 ; use absolute coordinates
M82 ; use absolute distances for extrusion
G92 E0
T0
G92 E0
M900 K0.05
;LAYER_CHANGE
;Z:0.2
;HEIGHT:0.2
G1 Z0.200 F10800.000
G1 E-1.20000 F2400.000
G92 E0
G1 Z0.600 F10800.000
G1 X148.869 Y130.071
G1 Z0.200
G1 E1.20000 F2400.000
M204 S1000
;TYPE:Skirt
;WIDTH:0.42
G1 F1800.000
G1 X150.021 Y129.189 E1.24321
G1 X151.336 Y128.592 E1.28623
G1 X152.758 Y128.306 E1.32943
G1 X182.305 Y128.283 E2.20952
G1 X183.465 Y128.391 E2.24423
G1 X184.580 Y128.705 E2.27874
G1 X185.620 Y129.216 E2.31326
G1 X186.550 Y129.907 E2.34778
G1 X187.340 Y130.755 E2.38230
G1 X187.966 Y131.738 E2.41700
G1 X188.402 Y132.812 E2.45151
G1 X188.636 Y133.953 E2.48622
G1 X188.674 Y173.039 E3.65046
G1 X188.592 Y173.914 E3.67664
G1 X188.392 Y174.770 E3.70282
G1 X188.075 Y175.590 E3.72900
G1 X187.646 Y176.364 E3.75537
G1 X186.681 Y177.521 E3.80023
G1 X185.478 Y178.417 E3.84492
G1 X184.093 Y179.008 E3.88978
G1 X182.614 Y179.258 E3.93447
G1 X153.098 Y179.263 E4.81364
G1 X152.236 Y179.177 E4.83945
G1 X151.393 Y178.975 E4.86526
G1 X150.586 Y178.661 E4.89107
G1 X149.823 Y178.236 E4.91707
G1 X148.657 Y177.263 E4.96231
G1 X147.755 Y176.042 E5.00754
G1 X147.166 Y174.642 E5.05278
G1 X146.926 Y173.142 E5.09801
G1 X146.922 Y134.504 E6.24891
G1 X147.004 Y133.629 E6.27510
G1 X147.206 Y132.774 E6.30128
G1 X147.523 Y131.954 E6.32746
G1 X147.950 Y131.186 E6.35364
G1 X148.831 Y130.118 E6.39487
M204 S1500
; printing object Shape-Box id:0 copy 0
G1 E5.19487 F2400.000
G92 E0
G1 Z0.600 F10800.000
G1 X154.716 Y139.562
G1 Z0.200
G1 E1.20000 F2400.000
M204 S1000
;TYPE:Perimeter
G1 F1800.000
G1 X157.385 Y139.562 E1.27949
G1 X157.385 Y167.988 E2.12619
G1 X154.716 Y167.988 E2.20568
G1 X154.716 Y139.622 E3.05060
M204 S1500
G1 X154.339 Y139.185 F10800.000
M204 S1000
;TYPE:External perimeter
G1 F1800.000
G1 X157.762 Y139.185 E3.15255
G1 X157.762 Y168.365 E4.02172
G1 X154.339 Y168.365 E4.12367
G1 X154.339 Y139.245 E4.99106
M204 S1500
G1 X154.693 Y139.371 F10800.000
G1 E3.79106 F2400.000
G92 E0
G1 Z0.600 F10800.000
G1 X156.501 Y139.675
G1 Z0.200
G1 E1.20000 F2400.000
M204 S1000
;TYPE:Solid infill
;WIDTH:0.423979
G1 F1800.000
G1 X157.102 Y140.276 E1.22559
G1 X157.102 Y140.815 E1.24181
G1 X156.132 Y139.845 E1.28311
G1 X155.593 Y139.845 E1.29933
G1 X157.102 Y141.354 E1.36357
G1 X157.102 Y141.893 E1.37979
G1 X155.054 Y139.845 E1.46698
G1 X154.999 Y139.845 E1.46863
G1 X154.999 Y140.329 E1.48320
G1 X157.102 Y142.431 E1.57272
G1 X157.102 Y142.970 E1.58894
G1 X154.999 Y140.867 E1.67846
G1 X154.999 Y141.406 E1.69468
G1 X157.102 Y143.509 E1.78420
G1 X157.102 Y144.048 E1.80042
G1 X154.999 Y141.945 E1.88994
G1 X154.999 Y142.484 E1.90616
G1 X157.102 Y144.587 E1.99567
G1 X157.102 Y145.126 E2.01190
G1 X154.999 Y143.023 E2.10141
G1 X154.999 Y143.562 E2.11764
G1 X157.102 Y145.665 E2.20715
G1 X157.102 Y146.204 E2.22337
G1 X154.999 Y144.101 E2.31289
G1 X154.999 Y144.640 E2.32911
G1 X157.102 Y146.743 E2.41863
G1 X157.102 Y147.282 E2.43485
G1 X154.999 Y145.179 E2.52437
G1 X154.999 Y145.718 E2.54059
G1 X157.102 Y147.820 E2.63011
G1 X157.102 Y148.359 E2.64633
G1 X154.999 Y146.256 E2.73585
G1 X154.999 Y146.795 E2.75207
G1 X157.102 Y148.898 E2.84159
G1 X157.102 Y149.437 E2.85781
G1 X154.999 Y147.334 E2.94733
G1 X154.999 Y147.873 E2.96355
G1 X157.102 Y149.976 E3.05307
G1 X157.102 Y150.515 E3.06929
G1 X154.999 Y148.412 E3.15881
G1 X154.999 Y148.951 E3.17503
G1 X157.102 Y151.054 E3.26455
G1 X157.102 Y151.593 E3.28077
G1 X154.999 Y149.490 E3.37029
G1 X154.999 Y150.029 E3.38651
G1 X157.102 Y152.132 E3.47603
G1 X157.102 Y152.671 E3.49225
G1 X154.999 Y150.568 E3.58177
G1 X154.999 Y151.107 E3.59799
G1 X157.102 Y153.209 E3.68751
G1 X157.102 Y153.748 E3.70373
G1 X154.999 Y151.645 E3.79324
G1 X154.999 Y152.184 E3.80947
G1 X157.102 Y154.287 E3.89898
G1 X157.102 Y154.826 E3.91521
G1 X154.999 Y152.723 E4.00472
G1 X154.999 Y153.262 E4.02094
G1 X157.102 Y155.365 E4.11046
G1 X157.102 Y155.904 E4.12668
G1 X154.999 Y153.801 E4.21620
G1 X154.999 Y154.340 E4.23242
G1 X157.102 Y156.443 E4.32194
G1 X157.102 Y156.982 E4.33816
G1 X154.999 Y154.879 E4.42768
G1 X154.999 Y155.418 E4.44390
G1 X157.102 Y157.521 E4.53342
G1 X157.102 Y158.060 E4.54964
G1 X154.999 Y155.957 E4.63916
G1 X154.999 Y156.496 E4.65538
G1 X157.102 Y158.598 E4.74490
G1 X157.102 Y159.137 E4.76112
G1 X154.999 Y157.034 E4.85064
G1 X154.999 Y157.573 E4.86686
G1 X157.102 Y159.676 E4.95638
G1 X157.102 Y160.215 E4.97260
G1 X154.999 Y158.112 E5.06212
G1 X154.999 Y158.651 E5.07834
G1 X157.102 Y160.754 E5.16786
G1 X157.102 Y161.293 E5.18408
G1 X154.999 Y159.190 E5.27360
G1 X154.999 Y159.729 E5.28982
G1 X157.102 Y161.832 E5.37934
G1 X157.102 Y162.371 E5.39556
G1 X154.999 Y160.268 E5.48508
G1 X154.999 Y160.807 E5.50130
G1 X157.102 Y162.910 E5.59081
G1 X157.102 Y163.449 E5.60704
G1 X154.999 Y161.346 E5.69655
G1 X154.999 Y161.885 E5.71278
G1 X157.102 Y163.987 E5.80229
G1 X157.102 Y164.526 E5.81852
G1 X154.999 Y162.423 E5.90803
G1 X154.999 Y162.962 E5.92425
G1 X157.102 Y165.065 E6.01377
G1 X157.102 Y165.604 E6.02999
G1 X154.999 Y163.501 E6.11951
G1 X154.999 Y164.040 E6.13573
G1 X157.102 Y166.143 E6.22525
G1 X157.102 Y166.682 E6.24147
G1 X154.999 Y164.579 E6.33099
G1 X154.999 Y165.118 E6.34721
G1 X157.102 Y167.221 E6.43673
G1 X157.102 Y167.705 E6.45130
G1 X157.047 Y167.705 E6.45295
G1 X154.999 Y165.657 E6.54013
G1 X154.999 Y166.196 E6.55635
G1 X156.508 Y167.705 E6.62059
G1 X155.969 Y167.705 E6.63681
G1 X154.999 Y166.735 E6.67811
G1 X154.999 Y167.274 E6.69433
G1 X155.600 Y167.874 E6.71991
M204 S1500
; stop printing object Shape-Box id:0 copy 0
G1 E-3.28009 F2400.000
G92 E0
G1 Z0.600 F10800.000
; Filament-specific end gcode
T1
G92 E0
; printing object Shape-Box id:0 copy 0
G1 E-1.20000 F2400.000
G92 E0
G1 X158.551 Y165.617 F10800.000
G1 Z0.200
G1 E1.20000 F2400.000
M204 S1000
;TYPE:Support material interface
;WIDTH:0.35
G1 F1800.000
G1 X158.551 Y168.931 E1.28040
G1 X158.329 Y169.153 E1.28801
G1 X156.263 Y169.153 E1.33813
G1 X156.263 Y169.924 E1.35683
G1 X160.877 Y169.924 E1.46876
G1 X160.877 Y137.625 E2.25224
G1 X156.263 Y137.625 E2.36417
G1 X156.263 Y138.396 E2.38287
G1 X158.329 Y138.396 E2.43299
G1 X158.551 Y138.618 E2.44060
G1 X158.551 Y165.617 E3.09552
M204 S1500
G1 X159.058 Y165.617 F10800.000
M204 S1000
G1 F1800.000
G1 X159.058 Y169.141 E3.18102
G1 X158.782 Y169.417 E3.19047
G1 X160.370 Y169.417 E3.22899
G1 X160.370 Y138.132 E3.98787
G1 X158.782 Y138.132 E4.02638
G1 X159.058 Y138.408 E4.03584
G1 X159.058 Y165.617 E4.69586
M204 S1500
G1 E3.49586 F2400.000
G92 E0
G1 Z0.600 F10800.000
G1 X171.023 Y144.464
G1 Z0.200
G1 E1.20000 F2400.000
M204 S1000
;TYPE:Support material
;WIDTH:0.42
G1 F1800.000
G1 X171.023 Y163.085 E1.75465
G1 X172.494 Y163.085 E1.79848
G1 X172.494 Y144.464 E2.35313
G1 X171.023 Y144.464 E2.39695
M204 S1500
G1 X170.269 Y143.710 F10800.000
M204 S1000
G1 F1800.000
G1 X173.248 Y143.710 E2.48570
G1 X173.248 Y163.839 E3.08528
G1 X170.269 Y163.839 E3.17403
G1 X170.269 Y143.710 E3.77361
M204 S1500
G1 X169.515 Y142.956 F10800.000
M204 S1000
G1 F1800.000
G1 X169.515 Y164.593 E4.41812
G1 X174.003 Y164.593 E4.55180
G1 X174.003 Y142.956 E5.19631
G1 X169.515 Y142.956 E5.32999
M204 S1500
G1 X168.761 Y142.202 F10800.000
M204 S1000
G1 F1800.000
G1 X174.757 Y142.202 E5.50859
G1 X174.757 Y165.348 E6.19803
G1 X168.760 Y165.348 E6.37663
G1 X168.761 Y142.202 E7.06607
M204 S1500
G1 X168.006 Y141.448 F10800.000
M204 S1000
G1 F1800.000
G1 X168.006 Y166.102 E7.80043
G1 X175.511 Y166.102 E8.02397
G1 X175.511 Y141.448 E8.75833
G1 X168.006 Y141.448 E8.98186
M204 S1500
G1 X167.252 Y140.693 F10800.000
M204 S1000
G1 F1800.000
G1 X176.265 Y140.693 E9.25032
G1 X176.265 Y166.856 E10.02961
G1 X167.252 Y166.856 E10.29808
G1 X167.252 Y140.693 E11.07737
M204 S1500
G1 X166.498 Y139.939 F10800.000
M204 S1000
G1 F1800.000
G1 X166.498 Y167.610 E11.90158
G1 X177.019 Y167.610 E12.21497
G1 X177.019 Y139.939 E13.03919
G1 X166.498 Y139.939 E13.35258
M204 S1500
G1 X165.744 Y139.185 F10800.000
M204 S1000
G1 F1800.000
G1 X165.744 Y168.364 E14.22172
G1 X177.773 Y168.364 E14.58004
G1 X177.773 Y139.185 E15.44919
G1 X165.744 Y139.185 E15.80750
M204 S1500
G1 X164.990 Y138.431 F10800.000
M204 S1000
G1 F1800.000
G1 X178.528 Y138.431 E16.21075
G1 X178.528 Y169.118 E17.12482
G1 X164.990 Y169.118 E17.52807
G1 X164.990 Y138.431 E18.44214
M204 S1500
G1 X164.236 Y137.677 F10800.000
M204 S1000
G1 F1800.000
G1 X164.236 Y169.872 E19.40114
G1 X179.282 Y169.872 E19.84931
G1 X179.282 Y137.677 E20.80831
G1 X164.236 Y137.677 E21.25648
M204 S1500
G1 X163.481 Y136.923 F10800.000
M204 S1000
G1 F1800.000
G1 X180.036 Y136.923 E21.74958
G1 X180.036 Y170.627 E22.75351
G1 X163.481 Y170.627 E23.24661
G1 X163.481 Y136.923 E24.25054
M204 S1500
G1 X162.727 Y136.168 F10800.000
M204 S1000
G1 F1800.000
G1 X162.727 Y171.381 E25.29939
G1 X180.790 Y171.381 E25.83742
G1 X180.790 Y136.168 E26.88628
G1 X162.727 Y136.168 E27.42430
M204 S1500
G1 X161.973 Y136.529 F10800.000
M204 S1000
G1 F1800.000
G1 X155.166 Y136.529 E27.62705
G1 X155.166 Y137.607 E27.65917
G1 X154.052 Y137.607 E27.69236
G1 X154.052 Y135.414 E27.75768
G1 X181.544 Y135.414 E28.57658
G1 X181.544 Y172.135 E29.67036
G1 X154.052 Y172.135 E30.48926
G1 X154.052 Y169.942 E30.55457
G1 X155.166 Y169.942 E30.58777
G1 X155.166 Y171.020 E30.61988
G1 X161.973 Y171.021 E30.82263
G1 X161.973 Y136.529 E31.85002
M204 S1500
G1 X161.219 Y137.283 F10800.000
M204 S1000
G1 F1800.000
G1 X161.219 Y170.266 E32.83249
G1 X155.920 Y170.266 E32.99031
G1 X155.920 Y169.188 E33.02242
G1 X153.758 Y169.188 E33.08683
G1 X153.516 Y168.946 E33.09704
G1 X153.516 Y166.188 E33.17918
G1 X153.298 Y166.188 E33.18568
G1 X153.298 Y172.889 E33.38527
G1 X182.298 Y172.889 E34.24910
G1 X182.298 Y134.660 E35.38781
G1 X153.298 Y134.660 E36.25164
G1 X153.298 Y141.361 E36.45124
G1 X153.516 Y141.361 E36.45773
G1 X153.516 Y138.603 E36.53988
G1 X153.758 Y138.361 E36.55008
G1 X155.920 Y138.361 E36.61449
G1 X155.920 Y137.283 E36.64660
G1 X161.219 Y137.283 E36.80443
M204 S1500
; stop printing object Shape-Box id:0 copy 0
M106 S84.15
;LAYER_CHANGE
;Z:0.4
;HEIGHT:0.2
G1 Z0.400 F10800.000
M104 S225 T0 ; set temperature
G1 E35.60443 F2400.000
G92 E0
G1 Z0.800 F10800.000
G1 X151.336 Y128.592
G1 Z0.400
G1 E1.20000 F2400.000
;TYPE:Skirt
G1 F3000.000
G1 X152.758 Y128.306 E1.24321
G1 X182.305 Y128.283 E2.12330
G1 X183.465 Y128.391 E2.15800
G1 X184.580 Y128.705 E2.19252
G1 X185.620 Y129.216 E2.22703
G1 X186.550 Y129.907 E2.26155
G1 X187.340 Y130.755 E2.29607
G1 X187.966 Y131.738 E2.33077
G1 X188.402 Y132.812 E2.36529
G1 X188.636 Y133.953 E2.39999
G1 X188.674 Y173.039 E3.56423
G1 X188.592 Y173.914 E3.59041
G1 X188.392 Y174.770 E3.61659
G1 X188.075 Y175.590 E3.64278
G1 X187.646 Y176.364 E3.66914
G1 X186.681 Y177.521 E3.71401
G1 X185.478 Y178.417 E3.75869
G1 X184.093 Y179.008 E3.80356
G1 X182.614 Y179.258 E3.84824
G1 X153.098 Y179.263 E4.72742
G1 X152.236 Y179.177 E4.75323
G1 X151.393 Y178.975 E4.77904
G1 X150.586 Y178.661 E4.80485
G1 X149.823 Y178.236 E4.83085
G1 X148.657 Y177.263 E4.87608
G1 X147.755 Y176.042 E4.92132
G1 X147.166 Y174.642 E4.96655
G1 X146.926 Y173.142 E5.01179
G1 X146.922 Y134.504 E6.16269
G1 X147.004 Y133.629 E6.18887
G1 X147.206 Y132.774 E6.21505
G1 X147.523 Y131.954 E6.24123
G1 X147.950 Y131.186 E6.26741
G1 X148.869 Y130.071 E6.31043
G1 X150.021 Y129.189 E6.35364
G1 X151.281 Y128.617 E6.39487
; printing object Shape-Box id:0 copy 0
G1 E5.19487 F2400.000
G92 E0
G1 Z0.800 F10800.000
G1 X179.472 Y137.625
G1 Z0.400
G1 E1.20000 F2400.000
;TYPE:Support material
;WIDTH:0.35
G1 F3000.000
G1 X161.184 Y137.625 E1.64361
G1 X161.184 Y139.932 E1.69957
G1 X179.333 Y139.932 E2.13983
G1 X179.333 Y142.239 E2.19579
G1 X161.184 Y142.239 E2.63604
G1 X161.184 Y144.546 E2.69201
G1 X179.333 Y144.546 E3.13226
G1 X179.333 Y146.853 E3.18823
G1 X161.184 Y146.853 E3.62848
G1 X161.184 Y149.160 E3.68444
G1 X179.333 Y149.160 E4.12470
G1 X179.333 Y151.468 E4.18066
G1 X161.184 Y151.468 E4.62092
G1 X161.184 Y153.775 E4.67688
G1 X179.333 Y153.775 E5.11714
G1 X179.333 Y156.082 E5.17310
G1 X161.184 Y156.082 E5.61336
G1 X161.184 Y158.389 E5.66932
G1 X179.333 Y158.389 E6.10957
G1 X179.333 Y160.696 E6.16554
G1 X161.184 Y160.696 E6.60579
G1 X161.184 Y163.003 E6.66176
G1 X179.333 Y163.003 E7.10201
G1 X179.333 Y165.310 E7.15797
G1 X161.184 Y165.310 E7.59823
G1 X161.184 Y167.617 E7.65419
G1 X179.333 Y167.617 E8.09445
G1 X179.333 Y169.924 E8.15041
G1 X161.046 Y169.924 E8.59402
G1 E7.39402 F2400.000
G92 E0
G1 Z0.800 F10800.000
G1 X159.258 Y165.334
G1 Z0.400
G1 E1.20000 F2400.000
;TYPE:Support material interface
G1 X159.258 Y169.141 E1.29236
G1 X158.982 Y169.417 E1.30181
G1 X160.370 Y169.417 E1.33547
G1 X160.370 Y138.132 E2.09435
G1 X158.982 Y138.132 E2.12802
G1 X159.258 Y138.408 E2.13747
G1 X159.258 Y165.334 E2.79063
G1 X158.751 Y165.334 F10800.000
G1 F2400.000
G1 X158.751 Y138.618 E3.43869
G1 X158.529 Y138.396 E3.44629
G1 X156.263 Y138.396 E3.50127
G1 X156.263 Y137.625 E3.51997
G1 X160.877 Y137.625 E3.63190
G1 X160.877 Y169.924 E4.41538
G1 X156.263 Y169.924 E4.52731
G1 X156.263 Y169.153 E4.54601
G1 X158.529 Y169.153 E4.60098
G1 X158.751 Y168.931 E4.60859
G1 X158.751 Y165.334 E4.69585
; stop printing object Shape-Box id:0 copy 0
G1 E-1.30415
G92 E0
G1 Z0.800 F10800.000
; Filament-specific end gcode
M107
T0
G92 E0
M900 K0.05
; printing object Shape-Box id:0 copy 0
G1 X157.740 Y168.143
G1 Z0.400
G1 E10.00000 F2400.000
M204 S1000
;TYPE:Perimeter
;WIDTH:0.45
G1 F3600.000
G1 X154.761 Y168.143 E10.09578
G1 X154.761 Y139.407 E11.01982
G1 X157.740 Y139.407 E11.11559
G1 X157.740 Y168.083 E12.03771
