; generated by PrusaSlicer 2.2.0+win64 on 2020-06-24 at 16:14:51 UTC

; 

; external perimeters extrusion width = 0.45mm
; perimeters extrusion width = 0.45mm
; infill extrusion width = 0.45mm
; solid infill extrusion width = 0.45mm
; top infill extrusion width = 0.40mm
; first layer extrusion width = 0.42mm

M73 P0 R40
M73 Q0 S40
M201 X1000 Y1000 Z200 E5000 ; sets maximum accelerations, mm/sec^2
M203 X200 Y200 Z12 E120 ; sets maximum feedrates, mm/sec
M204 P1250 R1250 T1250 ; sets acceleration (P, T) and retract acceleration (R), mm/sec^2
M205 X8.00 Y8.00 Z0.40 E4.50 ; sets the jerk limits, mm/sec
M205 S0 T0 ; sets the minimum extruding and travel feed rate, mm/sec
M107
M862.3 P "MK3SMMU2S" ; printer model check
M862.1 P0.4 ; nozzle diameter check
M115 U3.9.0 ; tell printer latest fw version
G90 ; use absolute coordinates
M83 ; extruder relative mode
M104 S240 ; set extruder temp
M140 S85 ; set bed temp
Tx
M190 S85 ; wait for bed temp
M109 S240 ; wait for extruder temp
G28 W ; home all without mesh bed level
G80 ; mesh bed leveling

;go outside print area
G1 Y-3.0 F1000.0
G1 Z0.4 F1000.0
; select extruder
Tc
; purge line
G1 X55.0 F2000.0
G1 Z0.3 F1000.0
G92 E0.0
G1 X240.0 E25.0 F2200.0
M73 Q0 S40
M73 P0 R39
G1 Y-2.0 F1000.0
G1 X55.0 E25 F1400.0
G1 Z0.20 F1000.0
G1 X5.0 E4.0 F1000.0

M221 S95
G92 E0.0
G21 ; set units to millimeters
G90 ; use absolute coordinates
M83 ; use relative distances for extrusion
M900 K0.12 ; Filament gcode LA 1.5
M900 K45 ; Filament gcode LA 1.0
;BEFORE_LAYER_CHANGE
G92 E0.0
;0.2


G1 E-1.40000 F2100.00000
G1 Z0.200 F10800.000
;AFTER_LAYER_CHANGE
;0.2
G1 Z0.400
G1 X106.776 Y79.161
G1 Z0.200
G1 E1.40000 F2100.00000
M204 S1000
G1 F1200.000
G1 X107.108 Y78.560 E0.02154
G1 X107.602 Y78.077 E0.02166
G1 X108.214 Y77.757 E0.02166
G1 X108.892 Y77.625 E0.02166
G1 X141.019 Y77.623 E1.00729
G1 X141.892 Y77.791 E0.02790
G1 X142.640 Y78.266 E0.02778
G1 X143.164 Y78.985 E0.02790
G1 X143.387 Y79.847 E0.02790
G1 X143.392 Y110.937 E0.97482
G1 X143.239 Y111.764 E0.02637
G1 X132.083 Y132.645 E0.74229
G1 X131.789 Y133.066 E0.01609
G1 X131.150 Y133.711 E0.02846
G1 X130.441 Y134.177 E0.02661
G1 X129.613 Y134.365 E0.02661
G1 X120.456 Y134.367 E0.28713
G1 X119.651 Y134.214 E0.02567
G1 X118.904 Y133.760 E0.02743
G1 X118.228 Y133.084 E0.02998
G1 X117.935 Y132.677 E0.01574
G1 X106.900 Y112.047 E0.73354
G1 X106.685 Y111.474 E0.01917
G1 X106.623 Y110.938 E0.01692
G1 X106.623 Y79.992 E0.97029
G1 X106.765 Y79.220 E0.02461
G1 F8640.000
G1 X107.108 Y78.560 E-0.17183
G1 X107.602 Y78.077 E-0.15950
G1 X108.214 Y77.757 E-0.15950
G1 X108.892 Y77.625 E-0.15950
G1 X111.836 Y77.625 E-0.67966
G1 E-0.07000 F2100.00000
G1 Z0.400 F10800.000
G1 X133.187 Y105.359
G1 Z0.200
G1 E1.40000 F2100.00000
G1 F1200.000
G1 X133.541 Y105.027 E0.01519
G1 X133.933 Y104.742 E0.01519
G1 X134.357 Y104.509 E0.01519
G1 X134.808 Y104.331 E0.01519
G1 X135.051 Y104.268 E0.00787
G1 X135.277 Y104.210 E0.00732
G1 X135.758 Y104.149 E0.01519
G1 X136.242 Y104.149 E0.01519
G1 X136.723 Y104.210 E0.01519
G1 X137.192 Y104.331 E0.01519
G1 X137.643 Y104.509 E0.01519
G1 X138.067 Y104.742 E0.01519
G1 X138.459 Y105.027 E0.01519
G1 X138.813 Y105.359 E0.01519
G1 X139.121 Y105.732 E0.01519
G1 X139.381 Y106.141 E0.01519
G1 X139.587 Y106.580 E0.01520
G1 X139.736 Y107.042 E0.01522
G1 X139.823 Y107.520 E0.01524
G1 X139.843 Y108.000 E0.01505
G1 X139.823 Y108.480 E0.01505
G1 X139.736 Y108.958 E0.01524
G1 X139.587 Y109.420 E0.01522
G1 X139.381 Y109.859 E0.01520
G1 X139.121 Y110.268 E0.01519
G1 X138.813 Y110.641 E0.01519
G1 X138.459 Y110.973 E0.01519
G1 X138.067 Y111.258 E0.01519
G1 X137.643 Y111.491 E0.01519
G1 X137.192 Y111.669 E0.01519
G1 X136.723 Y111.790 E0.01519
G1 X136.242 Y111.851 E0.01519
G1 X135.758 Y111.851 E0.01519
G1 X135.277 Y111.790 E0.01519
G1 X134.808 Y111.669 E0.01519
G1 X134.357 Y111.491 E0.01519
G1 X133.933 Y111.258 E0.01519
G1 X133.541 Y110.973 E0.01519
G1 X133.187 Y110.641 E0.01519
G1 X132.879 Y110.268 E0.01519
G1 X132.619 Y109.859 E0.01519
G1 X132.413 Y109.420 E0.01519
G1 X132.263 Y108.959 E0.01519
G1 X132.172 Y108.484 E0.01519
G1 X132.142 Y108.000 E0.01519
G1 X132.172 Y107.516 E0.01519
G1 X132.263 Y107.041 E0.01519
G1 X132.413 Y106.580 E0.01519
G1 X132.619 Y106.141 E0.01519
G1 X132.879 Y105.732 E0.01519
G1 X133.149 Y105.405 E0.01331
G1 X133.072 Y104.976 F10800.000
G1 F8640.000
G1 X133.541 Y105.027 E-0.12563
G1 X133.933 Y104.742 E-0.11188
G1 X134.357 Y104.509 E-0.11187
G1 X134.808 Y104.331 E-0.11187
G1 X135.051 Y104.268 E-0.05797
G1 X135.277 Y104.210 E-0.05392
G1 X135.758 Y104.149 E-0.11189
G1 X136.242 Y104.149 E-0.11186
G1 X136.723 Y104.210 E-0.11190
G1 X137.192 Y104.331 E-0.11189
G1 X137.643 Y104.509 E-0.11188
G1 X138.067 Y104.742 E-0.11187
G1 X138.367 Y104.960 E-0.08557
G1 E-0.07000 F2100.00000
G1 Z0.400 F10800.000
G1 X126.787 Y89.340
G1 Z0.200
G1 E1.40000 F2100.00000
G1 F1200.000
G1 X126.309 Y89.529 E0.01610
G1 X125.794 Y89.661 E0.01668
G1 X125.266 Y89.728 E0.01668
G1 X124.734 Y89.728 E0.01668
G1 X124.206 Y89.661 E0.01668
G1 X123.691 Y89.529 E0.01668
G1 X123.196 Y89.333 E0.01668
G1 X122.730 Y89.077 E0.01668
G1 X122.300 Y88.764 E0.01668
G1 X121.912 Y88.400 E0.01668
G1 X121.573 Y87.990 E0.01668
G1 X121.288 Y87.541 E0.01668
G1 X121.061 Y87.059 E0.01668
G1 X120.897 Y86.553 E0.01668
G1 X120.797 Y86.031 E0.01668
G1 X120.764 Y85.500 E0.01668
G1 X120.797 Y84.969 E0.01668
G1 X120.897 Y84.447 E0.01668
G1 X121.061 Y83.941 E0.01668
G1 X121.288 Y83.459 E0.01668
G1 X121.409 Y83.269 E0.00707
G1 X121.573 Y83.010 E0.00961
G1 X121.912 Y82.600 E0.01668
G1 X122.300 Y82.236 E0.01668
G1 X122.730 Y81.923 E0.01668
G1 X123.196 Y81.667 E0.01668
G1 X123.691 Y81.471 E0.01668
G1 X124.206 Y81.339 E0.01668
G1 X124.734 Y81.272 E0.01668
G1 X125.266 Y81.272 E0.01668
G1 X125.794 Y81.339 E0.01668
G1 X126.313 Y81.472 E0.01682
G1 X126.862 Y81.699 E0.01861
G1 X127.270 Y81.923 E0.01460
G1 X127.700 Y82.236 E0.01668
G1 X128.088 Y82.600 E0.01668
G1 X128.427 Y83.010 E0.01668
G1 X128.712 Y83.459 E0.01668
G1 X128.939 Y83.941 E0.01668
G1 X129.103 Y84.447 E0.01668
G1 X129.203 Y84.969 E0.01668
G1 X129.236 Y85.500 E0.01668
G1 X129.203 Y86.031 E0.01668
G1 X129.103 Y86.553 E0.01668
G1 X128.939 Y87.059 E0.01668
G1 X128.712 Y87.541 E0.01668
G1 X128.427 Y87.990 E0.01668
G1 X128.088 Y88.400 E0.01668
G1 X127.700 Y88.764 E0.01668
G1 X127.324 Y89.038 E0.01460
G1 X126.840 Y89.313 E0.01744
G1 X126.653 Y88.985 F10800.000
G1 F1200.000
G1 X126.192 Y89.169 E0.01557
G1 X125.723 Y89.290 E0.01519
G1 X125.242 Y89.351 E0.01519
G1 X124.758 Y89.351 E0.01519
G1 X124.277 Y89.290 E0.01519
G1 X123.808 Y89.169 E0.01519
G1 X123.357 Y88.991 E0.01519
G1 X122.933 Y88.758 E0.01519
G1 X122.541 Y88.473 E0.01519
G1 X122.187 Y88.141 E0.01519
G1 X121.879 Y87.768 E0.01519
G1 X121.619 Y87.359 E0.01519
G1 X121.413 Y86.920 E0.01519
G1 X121.263 Y86.460 E0.01519
G1 X121.172 Y85.984 E0.01519
G1 X121.142 Y85.500 E0.01519
G1 X121.172 Y85.016 E0.01519
G1 X121.263 Y84.540 E0.01519
G1 X121.413 Y84.080 E0.01519
G1 X121.619 Y83.641 E0.01519
G1 X121.879 Y83.232 E0.01519
G1 X122.187 Y82.859 E0.01519
G1 X122.541 Y82.527 E0.01519
G1 X122.933 Y82.242 E0.01519
G1 X123.357 Y82.009 E0.01519
G1 X123.808 Y81.831 E0.01519
G1 X124.277 Y81.710 E0.01519
G1 X124.758 Y81.649 E0.01519
G1 X125.242 Y81.649 E0.01519
G1 X125.723 Y81.710 E0.01519
G1 X126.194 Y81.831 E0.01524
G1 X126.699 Y82.040 E0.01712
G1 X127.067 Y82.242 E0.01320
G1 X127.459 Y82.527 E0.01519
G1 X127.813 Y82.859 E0.01519
G1 X128.121 Y83.232 E0.01519
G1 X128.381 Y83.641 E0.01519
G1 X128.587 Y84.080 E0.01519
G1 X128.737 Y84.540 E0.01519
G1 X128.828 Y85.016 E0.01519
G1 X128.858 Y85.500 E0.01519
G1 X128.828 Y85.984 E0.01519
G1 X128.737 Y86.460 E0.01519
G1 X128.587 Y86.920 E0.01519
G1 X128.381 Y87.359 E0.01519
G1 X128.121 Y87.768 E0.01519
G1 X127.813 Y88.141 E0.01519
G1 X127.459 Y88.473 E0.01519
G1 X127.119 Y88.720 E0.01320
G1 X126.706 Y88.956 E0.01491
G1 X126.621 Y89.384 F10800.000
G1 F8640.000
G1 X126.192 Y89.169 E-0.12841
G1 X125.723 Y89.290 E-0.11190
G1 X125.242 Y89.351 E-0.11187
G1 X124.758 Y89.351 E-0.11187
G1 X124.277 Y89.290 E-0.11188
G1 X123.808 Y89.169 E-0.11189
G1 X123.357 Y88.991 E-0.11188
G1 X122.933 Y88.758 E-0.11187
G1 X122.541 Y88.473 E-0.11188
G1 X122.187 Y88.141 E-0.11188
G1 X121.879 Y87.768 E-0.11188
G1 X121.686 Y87.465 E-0.08279
G1 E-0.07000 F2100.00000
G1 Z0.400 F10800.000
G1 X128.813 Y113.213
G1 Z0.200
G1 E1.40000 F2100.00000
G1 F1200.000
G1 X128.813 Y131.203 E0.56406
G1 X121.187 Y131.203 E0.23910
G1 X121.187 Y113.213 E0.56406
G1 X115.753 Y113.213 E0.17040
G1 X113.605 Y112.211 E0.07430
G1 X113.734 Y112.228 E0.00408
G1 X114.266 Y112.228 E0.01668
G1 X114.794 Y112.161 E0.01668
G1 X115.309 Y112.029 E0.01668
G1 X115.808 Y111.831 E0.01682
G1 X116.324 Y111.538 E0.01861
G1 X116.700 Y111.264 E0.01460
G1 X117.088 Y110.900 E0.01668
G1 X117.427 Y110.490 E0.01668
G1 X117.712 Y110.041 E0.01668
G1 X117.939 Y109.559 E0.01668
G1 X118.103 Y109.053 E0.01668
G1 X118.203 Y108.531 E0.01668
G1 X118.236 Y108.000 E0.01668
G1 X118.203 Y107.469 E0.01668
G1 X118.103 Y106.947 E0.01668
G1 X117.939 Y106.441 E0.01668
G1 X117.712 Y105.959 E0.01668
G1 X117.427 Y105.510 E0.01668
G1 X117.088 Y105.100 E0.01668
G1 X116.700 Y104.736 E0.01668
G1 X116.270 Y104.423 E0.01668
G1 X115.804 Y104.167 E0.01668
G1 X115.309 Y103.971 E0.01668
G1 X114.794 Y103.839 E0.01668
G1 X114.266 Y103.772 E0.01668
G1 X113.734 Y103.772 E0.01668
G1 X113.206 Y103.839 E0.01668
G1 X112.691 Y103.971 E0.01668
G1 X112.196 Y104.167 E0.01668
G1 X111.928 Y104.315 E0.00962
G1 X111.730 Y104.423 E0.00706
G1 X111.300 Y104.736 E0.01668
G1 X110.912 Y105.100 E0.01668
G1 X110.573 Y105.510 E0.01668
G1 X110.288 Y105.960 E0.01669
G1 X110.187 Y106.174 E0.00743
G1 X110.187 Y81.187 E0.78345
G1 X139.828 Y81.187 E0.92936
G1 X139.828 Y106.205 E0.78441
G1 X139.712 Y105.959 E0.00850
G1 X139.427 Y105.510 E0.01668
G1 X139.088 Y105.100 E0.01668
G1 X138.700 Y104.736 E0.01668
G1 X138.270 Y104.423 E0.01668
G1 X138.072 Y104.315 E0.00706
G1 X137.804 Y104.167 E0.00962
G1 X137.309 Y103.971 E0.01668
G1 X136.794 Y103.839 E0.01668
G1 X136.266 Y103.772 E0.01668
G1 X135.734 Y103.772 E0.01668
G1 X135.206 Y103.839 E0.01668
G1 X134.691 Y103.971 E0.01668
G1 X134.196 Y104.167 E0.01668
G1 X133.730 Y104.423 E0.01668
G1 X133.300 Y104.736 E0.01668
G1 X132.912 Y105.100 E0.01668
G1 X132.573 Y105.510 E0.01668
G1 X132.409 Y105.769 E0.00962
G1 X132.288 Y105.959 E0.00707
G1 X132.061 Y106.441 E0.01668
G1 X131.897 Y106.947 E0.01668
G1 X131.797 Y107.469 E0.01668
G1 X131.764 Y108.000 E0.01668
G1 X131.797 Y108.531 E0.01668
G1 X131.897 Y109.053 E0.01668
G1 X132.061 Y109.559 E0.01668
G1 X132.288 Y110.041 E0.01668
G1 X132.573 Y110.490 E0.01668
G1 X132.912 Y110.900 E0.01668
G1 X133.300 Y111.264 E0.01668
G1 X133.730 Y111.577 E0.01668
G1 X134.196 Y111.833 E0.01668
G1 X134.691 Y112.029 E0.01668
G1 X135.206 Y112.161 E0.01668
G1 X135.734 Y112.228 E0.01668
G1 X136.266 Y112.228 E0.01668
G1 X136.395 Y112.211 E0.00408
G1 X134.247 Y113.213 E0.07430
G1 X128.873 Y113.213 E0.16852
G1 F8640.000
G1 X128.854 Y118.973 E-1.33000
G1 E-0.07000 F2100.00000
G1 Z0.400 F10800.000
G1 X138.970 Y111.011
G1 Z0.200
G1 E1.40000 F2100.00000
G1 F1200.000
G1 X139.088 Y110.900 E0.00508
G1 X139.427 Y110.490 E0.01668
G1 X139.712 Y110.041 E0.01668
G1 X139.828 Y109.795 E0.00850
G1 X139.828 Y110.611 E0.02557
G1 X139.024 Y110.985 E0.02780
G1 F8640.000
G1 X139.088 Y110.900 E-0.02465
G1 X139.427 Y110.490 E-0.12285
G1 X139.712 Y110.041 E-0.12285
G1 X139.828 Y109.795 E-0.06263
G1 X139.828 Y110.611 E-0.18833
G1 X139.024 Y110.985 E-0.20469
G1 E-0.67399 F2100.00000
G1 Z0.400 F10800.000
G1 X117.828 Y108.484
G1 Z0.200
G1 E1.40000 F2100.00000
G1 F1200.000
G1 X117.737 Y108.959 E0.01519
G1 X117.587 Y109.420 E0.01519
G1 X117.381 Y109.859 E0.01519
G1 X117.121 Y110.268 E0.01519
G1 X116.813 Y110.641 E0.01519
G1 X116.459 Y110.973 E0.01519
G1 X116.119 Y111.220 E0.01320
G1 X115.644 Y111.490 E0.01712
G1 X115.192 Y111.669 E0.01524
G1 X114.723 Y111.790 E0.01519
G1 X114.242 Y111.851 E0.01519
G1 X113.758 Y111.851 E0.01519
G1 X113.277 Y111.790 E0.01519
G1 X112.808 Y111.669 E0.01519
G1 X112.357 Y111.491 E0.01519
G1 X112.109 Y111.355 E0.00887
G1 X111.933 Y111.258 E0.00632
G1 X111.541 Y110.973 E0.01519
G1 X111.187 Y110.641 E0.01519
G1 X110.879 Y110.268 E0.01519
G1 X110.619 Y109.859 E0.01520
G1 X110.413 Y109.420 E0.01521
G1 X110.265 Y108.956 E0.01524
G1 X110.182 Y108.478 E0.01523
G1 X110.164 Y108.000 E0.01499
G1 X110.182 Y107.522 E0.01499
G1 X110.265 Y107.044 E0.01523
G1 X110.413 Y106.580 E0.01524
G1 X110.619 Y106.141 E0.01521
G1 X110.879 Y105.732 E0.01520
G1 X111.187 Y105.359 E0.01519
G1 X111.541 Y105.027 E0.01519
G1 X111.933 Y104.742 E0.01519
G1 X112.109 Y104.645 E0.00632
G1 X112.357 Y104.509 E0.00887
G1 X112.808 Y104.331 E0.01519
G1 X113.277 Y104.210 E0.01519
G1 X113.758 Y104.149 E0.01519
G1 X114.242 Y104.149 E0.01519
G1 X114.723 Y104.210 E0.01519
G1 X115.192 Y104.331 E0.01519
G1 X115.643 Y104.509 E0.01519
G1 X116.067 Y104.742 E0.01519
G1 X116.459 Y105.027 E0.01519
G1 X116.813 Y105.359 E0.01519
G1 X117.121 Y105.732 E0.01519
G1 X117.381 Y106.141 E0.01519
G1 X117.587 Y106.580 E0.01519
G1 X117.737 Y107.041 E0.01519
G1 X117.828 Y107.516 E0.01519
G1 X117.858 Y108.000 E0.01519
G1 X117.832 Y108.424 E0.01331
G1 X118.146 Y108.725 F10800.000
G1 F8640.000
G1 X117.737 Y108.959 E-0.12563
G1 X117.587 Y109.420 E-0.11190
G1 X117.381 Y109.859 E-0.11186
G1 X117.121 Y110.268 E-0.11189
G1 X116.813 Y110.641 E-0.11188
G1 X116.459 Y110.973 E-0.11188
G1 X116.119 Y111.220 E-0.09719
G1 X115.644 Y111.490 E-0.12609
G1 X115.192 Y111.669 E-0.11224
G1 X114.723 Y111.790 E-0.11189
G1 X114.242 Y111.851 E-0.11189
G1 X113.871 Y111.851 E-0.08565
G1 E-0.07000 F2100.00000
G1 Z0.400 F10800.000
G1 X111.030 Y111.011
G1 Z0.200
G1 E1.40000 F2100.00000
G1 F1200.000
G1 X110.185 Y110.617 E0.02926
G1 X110.179 Y109.809 E0.02531
G1 X110.288 Y110.040 E0.00800
G1 X110.573 Y110.490 E0.01669
G1 X110.987 Y110.970 E0.01987
G1 F8640.000
G1 X110.185 Y110.617 E-0.20233
G1 X110.179 Y109.809 E-0.18637
G1 X110.288 Y110.040 E-0.05892
G1 X110.573 Y110.490 E-0.12290
G1 X110.987 Y110.970 E-0.14630
G1 E-0.68317 F2100.00000
G1 Z0.400 F10800.000
G1 X129.190 Y113.590
G1 Z0.200
G1 E1.40000 F2100.00000
G1 F1200.000
G1 X129.190 Y131.580 E0.56406
G1 X120.810 Y131.580 E0.26275
G1 X120.810 Y113.590 E0.56406
G1 X115.669 Y113.590 E0.16119
G1 X109.809 Y110.858 E0.20272
G1 X109.791 Y108.147 E0.08500
G1 X109.810 Y106.165 E0.06212
G1 X109.810 Y80.810 E0.79500
G1 X140.205 Y80.810 E0.95300
G1 X140.205 Y110.851 E0.94192
G1 X134.331 Y113.590 E0.20320
G1 X129.250 Y113.590 E0.15931
G1 X128.791 Y113.622 F10800.000
G1 F8640.000
G1 X129.231 Y119.350 E-1.33000
G1 E-0.07000 F2100.00000
G1 Z0.400 F10800.000
G1 X128.700 Y116.923
G1 Z0.200
G1 E1.40000 F2100.00000
G1 F1200.000
G1 X118.245 Y106.468 E0.46372
G1 X118.378 Y106.876 E0.01345
G1 X118.438 Y107.195 E0.01019
G1 X128.530 Y117.287 E0.44762
G1 X128.530 Y117.820 E0.01673
G1 X118.507 Y107.797 E0.44459
G1 X118.519 Y108.000 E0.00638
G1 X118.499 Y108.323 E0.01014
G1 X128.530 Y118.354 E0.44492
G1 X128.530 Y118.887 E0.01673
G1 X118.440 Y108.797 E0.44755
G1 X118.342 Y109.233 E0.01401
G1 X128.530 Y119.421 E0.45189
G1 X128.530 Y119.954 E0.01673
G1 X118.211 Y109.635 E0.45769
G1 X118.043 Y110.001 E0.01262
G1 X120.973 Y112.930 E0.12993
G1 X120.439 Y112.930 E0.01673
G1 X117.854 Y110.345 E0.11467
G1 X117.645 Y110.670 E0.01211
G1 X119.906 Y112.930 E0.10026
G1 X119.373 Y112.930 E0.01673
G1 X117.404 Y110.962 E0.08731
G1 X117.144 Y111.235 E0.01183
G1 X118.839 Y112.930 E0.07518
G1 X118.306 Y112.930 E0.01673
G1 X116.868 Y111.492 E0.06379
G1 X116.559 Y111.716 E0.01198
G1 X117.772 Y112.930 E0.05383
G1 X117.239 Y112.930 E0.01673
G1 X116.227 Y111.918 E0.04489
G1 X115.881 Y112.106 E0.01233
G1 X116.705 Y112.930 E0.03654
G1 X116.172 Y112.930 E0.01673
G1 X115.499 Y112.258 E0.02983
G1 X115.086 Y112.378 E0.01349
G1 X115.808 Y113.100 E0.03202
G1 F8640.000
G1 X115.086 Y112.378 E-0.23571
G1 X115.499 Y112.258 E-0.09934
G1 X116.172 Y112.930 E-0.21961
G1 X116.705 Y112.930 E-0.12317
G1 X115.881 Y112.106 E-0.26903
G1 X116.227 Y111.918 E-0.09080
G1 X117.122 Y112.813 E-0.29234
G1 E-0.07000 F2100.00000
G1 Z0.400 F10800.000
G1 X113.424 Y112.159
