; generated by PrusaSlicer 2.3.1+win64 on 2021-07-13 at 11:41:31 UTC

; 

; external perimeters extrusion width = 0.40mm
; perimeters extrusion width = 0.45mm
; infill extrusion width = 0.45mm
; solid infill extrusion width = 0.45mm
; top infill extrusion width = 0.40mm
; first layer extrusion width = 0.42mm

M73 P0 R26
M73 Q0 S26
M201 X1000 Y1000 Z200 E5000 ; sets maximum accelerations, mm/sec^2
M203 X200 Y200 Z12 E120 ; sets maximum feedrates, mm/sec
M204 P1250 R1250 T1250 ; sets acceleration (P, T) and retract acceleration (R), mm/sec^2
M205 X8.00 Y8.00 Z0.40 E4.50 ; sets the jerk limits, mm/sec
M205 S0 T0 ; sets the minimum extruding and travel feed rate, mm/sec
M107
;TYPE:Custom
M862.3 P "MK3SMMU2S" ; printer model check
M862.1 P0.4 ; nozzle diameter check
M115 U3.9.1 ; tell printer latest fw version
G90 ; use absolute coordinates
M83 ; extruder relative mode
M104 S210 ; set extruder temp
M140 S65 ; set bed temp
Tx
M190 S65 ; wait for bed temp
M109 S210 ; wait for extruder temp
G28 W ; home all without mesh bed level
G80 ; mesh bed leveling

;go outside print area
G1 Y-3.0 F1000.0
G1 Z0.4 F1000.0
; select extruder
Tc
; purge line
G1 X195.00 F2000.0
G1 Z0.3 F1000.0
G92 E0.0
G1 X10.00 E25.0 F2200.0
M73 P0 R25
M73 Q0 S25
G1 Y-2.0 F1000.0
G1 X195.00 E25 F1400.0
G1 Z0.20 F1000.0
G1 X245.00 E4.0 F1000.0

M221 S95
G92 E0.0

; Don't change E values below. Excessive value can damage the printer.

G21 ; set units to millimeters
G90 ; use absolute coordinates
M83 ; use relative distances for extrusion
M900 K30 ; Filament gcode
;LAYER_CHANGE
;Z:0.2
;HEIGHT:0.2
;BEFORE_LAYER_CHANGE
G92 E0.0
;0.2


M73 P1 R25
M73 Q1 S25
G1 Z0.200 F10800.000
;AFTER_LAYER_CHANGE
;0.2
G1 E-0.80000 F2100.000
G1 Z0.800 F10800.000
G1 X127.82 Y110.875
G1 Z0.200
G1 E0.80000 F2100.000
M204 S1000
;TYPE:Skirt
;WIDTH:0.42
G1 F602.323
G1 X127.15 Y110.266 E0.02997
G1 X126.49 Y109.805 E0.02651
G1 X125.73 Y109.412 E0.02814
G1 X125.02 Y109.163 E0.02470
G1 X124.34 Y109.016 E0.02302
G1 X123.53 Y108.957 E0.02664
G1 X122.69 Y109.026 E0.02782
G1 X121.96 Y109.197 E0.02464
G1 X121.30 Y109.442 E0.02314
G1 X120.56 Y109.833 E0.02743
G1 X119.29 Y110.865 E0.05406
G1 X118.63 Y111.617 E0.03279
G1 X118.09 Y112.403 E0.03145
G1 X117.18 Y114.205 E0.06644
G1 X116.47 Y116.439 E0.07716
G1 X116.08 Y118.715 E0.07606
G1 X115.95 Y121.225 E0.08273
G1 X116.10 Y123.559 E0.07700
G1 X116.55 Y125.982 E0.08117
G1 X117.24 Y128.053 E0.07186
G1 X118.17 Y129.844 E0.06635
G1 X119.33 Y131.317 E0.06178
G1 X119.99 Y131.913 E0.02934
G1 X120.65 Y132.375 E0.02654
G1 X121.42 Y132.770 E0.02830
G1 X122.14 Y133.024 E0.02519
G1 X122.81 Y133.166 E0.02255
G1 X123.61 Y133.225 E0.02663
G1 X125.06 Y133.024 E0.04790
G1 X125.81 Y132.757 E0.02626
G1 X126.58 Y132.350 E0.02869
G1 X127.85 Y131.323 E0.05391
G1 X128.52 Y130.555 E0.03349
G1 X129.05 Y129.787 E0.03079
G1 X129.97 Y127.974 E0.06688
G1 X130.68 Y125.737 E0.07724
G1 X131.08 Y123.463 E0.07601
G1 X131.20 Y120.976 E0.08197
G1 X131.05 Y118.614 E0.07792
G1 X130.60 Y116.223 E0.08010
G1 X129.90 Y114.124 E0.07285
G1 X128.97 Y112.335 E0.06632
G1 X127.86 Y110.922 E0.05925
G1 X127.57 Y111.153 F10800.000
G1 F602.323
G1 X126.92 Y110.564 E0.02887
G1 X126.30 Y110.131 E0.02487
G1 X125.58 Y109.759 E0.02667
G1 X124.92 Y109.527 E0.02289
G1 X123.53 Y109.334 E0.04631
G1 X122.74 Y109.399 E0.02600
G1 X122.06 Y109.559 E0.02304
G1 X120.75 Y110.160 E0.04739
G1 X119.55 Y111.134 E0.05094
G1 X118.93 Y111.853 E0.03133
G1 X118.40 Y112.620 E0.03068
G1 X117.53 Y114.346 E0.06362
G1 X116.84 Y116.529 E0.07536
G1 X116.45 Y118.757 E0.07445
G1 X116.32 Y121.220 E0.08120
G1 X116.47 Y123.513 E0.07564
G1 X116.92 Y125.886 E0.07948
G1 X117.59 Y127.901 E0.06992
G1 X118.47 Y129.622 E0.06371
G1 X119.59 Y131.049 E0.05976
G1 X120.84 Y132.046 E0.05250
G1 X121.56 Y132.422 E0.02682
G1 X122.23 Y132.659 E0.02352
G1 X123.61 Y132.848 E0.04583
G1 X124.41 Y132.782 E0.02612
G1 X125.10 Y132.618 E0.02341
G1 X126.39 Y132.024 E0.04684
G1 X127.59 Y131.054 E0.05079
G1 X128.23 Y130.319 E0.03202
G1 X128.75 Y129.565 E0.03017
G1 X129.62 Y127.828 E0.06406
G1 X130.32 Y125.643 E0.07544
G1 X130.70 Y123.421 E0.07426
M73 Q2 S25
G1 X130.83 Y120.981 E0.08043
M73 P2 R25
G1 X130.68 Y118.665 E0.07642
G1 X130.24 Y116.319 E0.07856
G1 X129.56 Y114.272 E0.07104
G1 X128.67 Y112.557 E0.06356
G1 X127.60 Y111.200 E0.05681
G1 X127.34 Y111.470 F10800.000
G1 F602.323
G1 X126.90 Y111.036 E0.02050
G1 X126.18 Y110.503 E0.02940
G1 X124.97 Y109.933 E0.04411
G1 X124.27 Y109.768 E0.02352
G1 X123.53 Y109.711 E0.02452
G1 X122.77 Y109.776 E0.02503
G1 X122.06 Y109.953 E0.02400
G1 X120.79 Y110.582 E0.04664
G1 X119.61 Y111.618 E0.05174
G1 X118.61 Y113.003 E0.05631
G1 X117.79 Y114.717 E0.06256
G1 X117.20 Y116.640 E0.06622
G1 X116.83 Y118.802 E0.07223
G1 X116.70 Y121.219 E0.07968
G1 X116.85 Y123.466 E0.07413
G1 X117.28 Y125.783 E0.07757
G1 X117.90 Y127.682 E0.06583
G1 X118.75 Y129.347 E0.06143
G1 X119.72 Y130.629 E0.05290
G1 X120.38 Y131.258 E0.03019
G1 X120.98 Y131.691 E0.02434
G1 X122.18 Y132.250 E0.04359
G1 X122.87 Y132.413 E0.02324
G1 X123.61 Y132.471 E0.02464
G1 X124.37 Y132.406 E0.02490
G1 X125.08 Y132.229 E0.02412
G1 X126.37 Y131.589 E0.04734
G1 X127.53 Y130.564 E0.05115
G1 X128.55 Y129.168 E0.05675
G1 X129.37 Y127.452 E0.06263
G1 X129.95 Y125.533 E0.06607
G1 X130.33 Y123.375 E0.07209
G1 X130.45 Y120.982 E0.07890
G1 X130.30 Y118.711 E0.07491
G1 X129.88 Y116.423 E0.07664
G1 X129.25 Y114.522 E0.06585
G1 X128.41 Y112.851 E0.06163
G1 X127.39 Y111.511 E0.05547
;WIPE_START
G1 F8640.000
G1 X126.90 Y111.036 E-0.15762
G1 X126.18 Y110.503 E-0.20618
G1 X124.97 Y109.933 E-0.30939
G1 X124.60 Y109.846 E-0.08681
;WIPE_END
G1 E-0.04000 F2100.000
G1 Z0.800 F10800.000
G1 X125.30 Y113.358
G1 Z0.200
G1 E0.80000 F2100.000
;TYPE:External perimeter
G1 F602.323
G1 X124.94 Y113.035 E0.01587
G1 X124.52 Y112.758 E0.01668
G1 X124.15 Y112.600 E0.01301
G1 X123.69 Y112.505 E0.01545
G1 X123.43 Y112.503 E0.00860
G1 X123.07 Y112.560 E0.01199
G1 X122.77 Y112.666 E0.01067
G1 X122.34 Y112.901 E0.01597
G1 X121.99 Y113.180 E0.01489
G1 X121.58 Y113.608 E0.01953
G1 X121.24 Y114.050 E0.01824
G1 X120.87 Y114.662 E0.02353
G1 X120.62 Y115.170 E0.01865
G1 X120.39 Y115.722 E0.01973
G1 X120.15 Y116.405 E0.02379
G1 X119.91 Y117.272 E0.02960
G1 X119.77 Y117.945 E0.02263
G1 X119.65 Y118.662 E0.02391
G1 X119.56 Y119.463 E0.02655
G1 X119.50 Y120.473 E0.03331
G1 X119.49 Y121.208 E0.02423
G1 X119.51 Y121.944 E0.02423
G1 X119.57 Y122.757 E0.02683
G1 X119.70 Y123.745 E0.03282
G1 X119.83 Y124.435 E0.02308
G1 X119.98 Y125.100 E0.02249
G1 X120.19 Y125.804 E0.02413
G1 X120.48 Y126.624 E0.02871
G1 X120.75 Y127.221 E0.02156
G1 X121.01 Y127.709 E0.01822
G1 X121.41 Y128.310 E0.02366
G1 X121.74 Y128.711 E0.01711
G1 X122.04 Y129.013 E0.01412
G1 X122.48 Y129.342 E0.01813
G1 X122.83 Y129.524 E0.01293
G1 X123.26 Y129.652 E0.01477
G1 X123.61 Y129.683 E0.01144
G1 X124.03 Y129.630 E0.01410
G1 X124.38 Y129.516 E0.01196
G1 X124.69 Y129.355 E0.01148
G1 X125.13 Y129.031 E0.01795
G1 X125.46 Y128.698 E0.01558
G1 X125.87 Y128.178 E0.02181
G1 X126.18 Y127.691 E0.01898
G1 X126.44 Y127.190 E0.01863
G1 X126.77 Y126.445 E0.02672
G1 X126.97 Y125.854 E0.02062
G1 X127.18 Y125.135 E0.02463
G1 X127.38 Y124.228 E0.03061
G1 X127.50 Y123.534 E0.02315
G1 X127.59 Y122.714 E0.02715
G1 X127.65 Y121.727 E0.03257
G1 X127.66 Y120.993 E0.02417
G1 X127.63 Y120.147 E0.02786
G1 X127.55 Y119.169 E0.03233
G1 X127.45 Y118.461 E0.02353
G1 X127.30 Y117.665 E0.02666
G1 X127.08 Y116.782 E0.02994
G1 X126.89 Y116.164 E0.02132
G1 X126.64 Y115.492 E0.02368
G1 X126.30 Y114.784 E0.02572
G1 X125.99 Y114.240 E0.02070
G1 X125.70 Y113.828 E0.01650
G1 X125.34 Y113.404 E0.01845
;WIPE_START
G1 F8640.000
G1 X124.94 Y113.035 E-0.12509
G1 X124.52 Y112.758 E-0.11701
G1 X124.15 Y112.600 E-0.09125
G1 X123.69 Y112.505 E-0.10839
G1 X123.43 Y112.503 E-0.06033
G1 X123.07 Y112.560 E-0.08411
G1 X122.77 Y112.666 E-0.07484
G1 X122.39 Y112.874 E-0.09897
;WIPE_END
G1 E-0.04000 F2100.000
G1 Z0.800 F10800.000
G1 X126.01 Y127.750
G1 Z0.200
G1 E0.80000 F2100.000
;TYPE:Solid infill
;WIDTH:0.421272
G1 F600.298
G1 X124.94 Y128.815 E0.04985
G1 X124.54 Y129.115 E0.01661
G1 X124.27 Y129.254 E0.01004
G1 X123.97 Y129.353 E0.01034
G1 X123.86 Y129.367 E0.00375
G1 X126.22 Y127.010 E0.11012
G1 X126.50 Y126.342 E0.02403
G1 X126.59 Y126.102 E0.00839
G1 X123.32 Y129.373 E0.15278
G1 X122.91 Y129.245 E0.01411
G1 X126.83 Y125.321 E0.18331
G1 X127.01 Y124.612 E0.02413
G1 X122.57 Y129.052 E0.20742
G1 X122.26 Y128.823 E0.01263
G1 X127.14 Y123.941 E0.22806
M73 Q3 S25
G1 X127.24 Y123.312 E0.02104
M73 P3 R25
G1 X121.99 Y128.561 E0.24526
G1 X121.74 Y128.272 E0.01254
G1 X127.31 Y122.706 E0.26000
G1 X127.34 Y122.135 E0.01892
G1 X121.52 Y127.962 E0.27222
G1 X121.31 Y127.639 E0.01276
G1 X127.37 Y121.572 E0.28343
G1 X127.38 Y121.030 E0.01790
G1 X121.11 Y127.297 E0.29274
G1 X120.94 Y126.940 E0.01318
G1 X127.36 Y120.511 E0.30032
G1 X127.34 Y120.001 E0.01686
G1 X120.77 Y126.570 E0.30688
G1 X120.75 Y126.518 E0.00191
G1 X120.62 Y126.181 E0.01182
G1 X127.30 Y119.508 E0.31173
G1 X127.25 Y119.024 E0.01609
G1 X120.48 Y125.789 E0.31603
G1 X120.36 Y125.378 E0.01418
G1 X127.18 Y118.553 E0.31881
G1 X127.10 Y118.101 E0.01520
G1 X120.24 Y124.960 E0.32042
G1 X120.14 Y124.526 E0.01472
G1 X127.01 Y117.654 E0.32102
G1 X126.90 Y117.225 E0.01458
G1 X120.05 Y124.080 E0.32021
G1 X119.97 Y123.624 E0.01528
G1 X126.79 Y116.800 E0.31881
G1 X126.67 Y116.393 E0.01410
G1 X119.91 Y123.150 E0.31570
G1 X119.85 Y122.674 E0.01586
G1 X126.53 Y115.998 E0.31186
M73 Q4 S25
G1 X126.38 Y115.610 E0.01370
M73 P4 R25
G1 X119.81 Y122.176 E0.30672
G1 X119.79 Y121.667 E0.01683
G1 X126.21 Y115.246 E0.29999
M73 P4 R24
M73 Q4 S24
G1 X126.03 Y114.884 E0.01325
G1 X119.77 Y121.145 E0.29252
G1 X119.78 Y120.604 E0.01789
G1 X125.84 Y114.544 E0.28307
G1 X125.63 Y114.218 E0.01280
G1 X119.81 Y120.040 E0.27195
G1 X119.85 Y119.468 E0.01893
G1 X125.40 Y113.911 E0.25957
G1 X125.15 Y113.624 E0.01253
G1 X119.92 Y118.863 E0.24472
G1 X120.01 Y118.232 E0.02108
G1 X124.88 Y113.363 E0.22747
G1 X124.77 Y113.260 E0.00505
G1 X124.57 Y113.134 E0.00761
G1 X120.14 Y117.567 E0.20708
G1 X120.32 Y116.849 E0.02447
G1 X124.23 Y112.942 E0.18252
G1 X124.07 Y112.871 E0.00588
G1 X123.82 Y112.819 E0.00841
G1 X120.57 Y116.070 E0.15186
G1 X120.65 Y115.823 E0.00862
G1 X120.94 Y115.164 E0.02373
G1 X123.29 Y112.812 E0.10987
G1 X123.14 Y112.836 E0.00497
G1 X122.88 Y112.925 E0.00907
G1 X122.50 Y113.137 E0.01447
G1 X122.18 Y113.388 E0.01341
G1 X121.16 Y114.413 E0.04788
M106 S255
;LAYER_CHANGE
;Z:0.3
;HEIGHT:0.1
;BEFORE_LAYER_CHANGE
G92 E0.0
;0.3


G1 Z0.300 F10800.000
;AFTER_LAYER_CHANGE
;0.3
M104 S205 ; set temperature
G1 X120.84 Y114.212
M204 S800
;TYPE:External perimeter
;WIDTH:0.4
G1 F923
G1 X120.50 Y114.838 E0.01176
G1 X120.23 Y115.462 E0.01123
G1 X120.02 Y116.060 E0.01048
G1 X119.77 Y116.936 E0.01507
G1 X119.60 Y117.705 E0.01300
G1 X119.48 Y118.427 E0.01211
G1 X119.37 Y119.395 E0.01610
G1 X119.31 Y120.258 E0.01428
G1 X119.30 Y121.004 E0.01232
G1 X119.32 Y121.749 E0.01232
G1 X119.40 Y122.727 E0.01621
G1 X119.51 Y123.580 E0.01421
G1 X119.64 Y124.283 E0.01180
G1 X119.85 Y125.172 E0.01511
G1 X120.08 Y125.928 E0.01304
G1 X120.37 Y126.708 E0.01378
G1 X120.62 Y127.252 E0.00990
G1 X120.95 Y127.842 E0.01114
G1 X121.34 Y128.413 E0.01141
G1 X121.65 Y128.783 E0.00800
G1 X122.04 Y129.154 E0.00887
G1 X122.48 Y129.469 E0.00895
G1 X122.81 Y129.638 E0.00624
G1 X123.23 Y129.765 E0.00714
G1 X123.67 Y129.810 E0.00734
G1 X124.02 Y129.778 E0.00573
G1 X124.42 Y129.663 E0.00698
G1 X124.87 Y129.441 E0.00825
G1 X125.20 Y129.206 E0.00669
G1 X125.58 Y128.850 E0.00864
G1 X125.99 Y128.360 E0.01054
G1 X126.28 Y127.929 E0.00858
G1 X126.60 Y127.357 E0.01081
G1 X126.93 Y126.624 E0.01330
G1 X127.18 Y125.942 E0.01198
G1 X127.36 Y125.312 E0.01086
G1 X127.58 Y124.401 E0.01545
G1 X127.71 Y123.607 E0.01331
G1 X127.80 Y122.890 E0.01194
G1 X127.87 Y121.880 E0.01673
G1 X127.89 Y121.047 E0.01377
G1 X127.85 Y120.019 E0.01699
G1 X127.78 Y119.201 E0.01358
G1 X127.68 Y118.482 E0.01199
G1 X127.50 Y117.507 E0.01640
G1 X127.31 Y116.770 E0.01255
G1 X127.12 Y116.136 E0.01096
G1 X126.80 Y115.302 E0.01474
G1 X126.52 Y114.709 E0.01081
G1 X126.13 Y114.024 E0.01306
G1 X125.83 Y113.601 E0.00857
G1 X125.49 Y113.200 E0.00872
G1 X125.02 Y112.776 E0.01039
G1 X124.66 Y112.530 E0.00730
G1 X124.18 Y112.317 E0.00862
G1 X123.83 Y112.234 E0.00587
G1 X123.46 Y112.212 E0.00625
G1 X123.15 Y112.244 E0.00516
G1 X122.98 Y112.281 E0.00276
G1 X122.64 Y112.402 E0.00600
G1 X122.27 Y112.603 E0.00696
G1 X121.81 Y112.961 E0.00966
G1 X121.49 Y113.283 E0.00745
G1 X121.16 Y113.710 E0.00899
G1 X120.87 Y114.161 E0.00883
M204 S1000
;WIPE_START
G1 F8640.000
G1 X120.50 Y114.838 E-0.17809
G1 X120.23 Y115.462 E-0.15694
G1 X120.02 Y116.060 E-0.14647
G1 X119.77 Y116.936 E-0.21052
G1 X119.70 Y117.224 E-0.06798
;WIPE_END
G1 E-0.04000 F2100.000
G1 Z0.900 F10800.000
G1 X122.81 Y129.514
G1 Z0.300
G1 E0.80000 F2100.000
;TYPE:Solid infill
;WIDTH:0.458796
G1 F923
G1 X121.84 Y128.538 E0.02634
G1 X121.58 Y128.230 E0.00770
G1 X121.21 Y127.683 E0.01262
G1 X120.89 Y127.115 E0.01239
G1 X120.77 Y126.854 E0.00550
G1 X123.40 Y129.478 E0.07085
G1 X123.67 Y129.506 E0.00528
G1 X124.00 Y129.467 E0.00638
G1 X120.36 Y125.824 E0.09834
G1 X120.10 Y124.950 E0.01738
G1 X124.46 Y129.306 E0.11759
G1 X124.71 Y129.180 E0.00537
G1 X124.85 Y129.080 E0.00330
G1 X119.92 Y124.146 E0.13322
G1 X119.79 Y123.400 E0.01445
G1 X125.19 Y128.799 E0.14579
M73 Q5 S24
G1 X125.36 Y128.641 E0.00444
G1 X125.49 Y128.483 E0.00393
G1 X119.70 Y122.689 E0.15643
M73 P5 R24
G1 X119.65 Y122.019 E0.01282
G1 X125.77 Y128.142 E0.16532
G1 X126.02 Y127.773 E0.00851
G1 X119.62 Y121.369 E0.17290
G1 X119.61 Y120.744 E0.01193
G1 X126.24 Y127.376 E0.17905
G1 X126.44 Y126.961 E0.00882
G1 X119.63 Y120.141 E0.18414
G1 X119.66 Y119.557 E0.01115
G1 X126.64 Y126.534 E0.18837
G1 X126.80 Y126.082 E0.00920
G1 X119.72 Y118.996 E0.19132
G1 X119.78 Y118.442 E0.01065
G1 X126.96 Y125.617 E0.19372
G1 X127.09 Y125.135 E0.00956
G1 X119.87 Y117.912 E0.19502
G1 X119.97 Y117.399 E0.01001
G1 X127.21 Y124.634 E0.19534
G1 X127.32 Y124.121 E0.00999
G1 X120.09 Y116.898 E0.19502
G1 X120.23 Y116.417 E0.00955
G1 X127.41 Y123.593 E0.19376
G1 X127.47 Y123.043 E0.01058
G1 X120.38 Y115.947 E0.19159
G1 X120.55 Y115.496 E0.00919
G1 X127.53 Y122.474 E0.18842
G1 X127.56 Y121.896 E0.01106
G1 X120.73 Y115.063 E0.18449
G1 X120.94 Y114.650 E0.00881
G1 X127.58 Y121.290 E0.17929
G1 X127.57 Y120.663 E0.01199
G1 X121.16 Y114.259 E0.17289
G1 X121.41 Y113.881 E0.00855
G1 X127.55 Y120.021 E0.16577
G1 X127.49 Y119.343 E0.01299
G1 X121.68 Y113.536 E0.15678
G1 X121.98 Y113.219 E0.00835
G1 X127.40 Y118.635 E0.14623
G1 X127.26 Y117.879 E0.01466
G1 X122.32 Y112.944 E0.13324
G1 X122.44 Y112.857 E0.00272
G1 X122.71 Y112.710 E0.00590
G1 X127.08 Y117.079 E0.11798
G1 X126.82 Y116.202 E0.01746
G1 X123.17 Y112.549 E0.09862
G1 X123.46 Y112.515 E0.00571
G1 X123.77 Y112.534 E0.00585
G1 X126.41 Y115.169 E0.07116
G1 X126.25 Y114.849 E0.00674
G1 X125.87 Y114.187 E0.01457
G1 X125.59 Y113.787 E0.00936
G1 X125.30 Y113.449 E0.00848
G1 X124.38 Y112.528 E0.02487
;LAYER_CHANGE
;Z:0.4
;HEIGHT:0.1
;BEFORE_LAYER_CHANGE
G92 E0.0
;0.4


G1 Z0.400 F10800.000
;AFTER_LAYER_CHANGE
;0.4
G1 X124.44 Y112.382
M204 S800
;TYPE:External perimeter
;WIDTH:0.4
G1 F935
G1 X124.14 Y112.260 E0.00531
G1 X123.80 Y112.179 E0.00587
G1 X123.64 Y112.162 E0.00271
G1 X123.31 Y112.167 E0.00531
G1 X122.95 Y112.233 E0.00612
G1 X122.61 Y112.356 E0.00599
G1 X122.13 Y112.635 E0.00915
G1 X121.79 Y112.916 E0.00735
G1 X121.47 Y113.240 E0.00745
G1 X121.03 Y113.818 E0.01200
G1 X120.75 Y114.293 E0.00918
G1 X120.49 Y114.800 E0.00939
M73 Q6 S24
G1 X120.15 Y115.633 E0.01488
G1 X119.94 Y116.245 E0.01065
G1 X119.77 Y116.900 E0.01122
G1 X119.56 Y117.919 E0.01719
G1 X119.45 Y118.650 E0.01221
M73 P6 R24
G1 X119.38 Y119.378 E0.01209
G1 X119.32 Y120.471 E0.01807
G1 X119.32 Y121.240 E0.01271
G1 X119.36 Y121.984 E0.01231
G1 X119.47 Y123.057 E0.01781
G1 X119.58 Y123.803 E0.01248
G1 X119.72 Y124.499 E0.01172
G1 X119.89 Y125.168 E0.01139
G1 X120.18 Y126.083 E0.01587
G1 X120.41 Y126.667 E0.01038
G1 X120.68 Y127.241 E0.01046
G1 X121.08 Y127.944 E0.01340
