; generated by PrusaSlicer 2.3.1+win64 on 2021-07-10 at 10:20:01 UTC

; 

; external perimeters extrusion width = 0.40mm
; perimeters extrusion width = 0.45mm
; infill extrusion width = 0.45mm
; solid infill extrusion width = 0.45mm
; top infill extrusion width = 0.40mm
; first layer extrusion width = 0.42mm

M73 P0 R31
M73 Q0 S31
M201 X1000 Y1000 Z200 E5000 ; sets maximum accelerations, mm/sec^2
M203 X200 Y200 Z12 E120 ; sets maximum feedrates, mm/sec
M204 P1250 R1250 T1250 ; sets acceleration (P, T) and retract acceleration (R), mm/sec^2
M205 X8.00 Y8.00 Z0.40 E4.50 ; sets the jerk limits, mm/sec
M205 S0 T0 ; sets the minimum extruding and travel feed rate, mm/sec
M107
;TYPE:Custom
M862.3 P "MK3SMMU2S" ; printer model check
M862.1 P0.4 ; nozzle diameter check
M115 U3.9.1 ; tell printer latest fw version
G90 ; use absolute coordinates
M83 ; extruder relative mode
M104 S210 ; set extruder temp
M140 S65 ; set bed temp
Tx
M190 S65 ; wait for bed temp
M109 S210 ; wait for extruder temp
G28 W ; home all without mesh bed level
G80 ; mesh bed leveling

;go outside print area
G1 Y-3.0 F1000.0
G1 Z0.4 F1000.0
; select extruder
Tc
; purge line
G1 X55.0 F2000.0
G1 Z0.3 F1000.0
G92 E0.0
G1 X240.0 E25.0 F2200.0
G1 Y-2.0 F1000.0
G1 X55.0 E25 F1400.0
M73 P0 R30
M73 Q0 S30
G1 Z0.20 F1000.0
G1 X5.0 E4.0 F1000.0

M221 S95
G92 E0.0

; Don't change E values below. Excessive value can damage the printer.

G21 ; set units to millimeters
G90 ; use absolute coordinates
M83 ; use relative distances for extrusion
M900 K30 ; Filament gcode
;LAYER_CHANGE
;Z:0.2
;HEIGHT:0.2
;BEFORE_LAYER_CHANGE
G92 E0.0
;0.2


G1 Z0.200 F10800.000
;AFTER_LAYER_CHANGE
;0.2
G1 E-0.80000 F2100.000
G1 Z0.800 F10800.000
G1 X122.685 Y111.334
M73 P1 R30
M73 Q1 S30
G1 Z0.200
G1 E0.80000 F2100.000
M204 S1000
;TYPE:Skirt
;WIDTH:0.42
G1 F602.323
G1 X123.280 Y110.802 E0.02629
G1 X123.886 Y110.382 E0.02428
G1 X124.323 Y110.145 E0.01635
G1 X124.887 Y109.913 E0.02006
G1 X125.748 Y109.700 E0.02921
G1 X126.589 Y109.648 E0.02775
G1 X127.235 Y109.713 E0.02138
G1 X127.739 Y109.826 E0.01698
G1 X128.273 Y110.011 E0.01862
G1 X129.007 Y110.379 E0.02705
G1 X129.652 Y110.831 E0.02591
G1 X130.307 Y111.436 E0.02936
G1 X130.862 Y112.089 E0.02824
G1 X131.358 Y112.814 E0.02890
G1 X131.804 Y113.618 E0.03027
G1 X132.182 Y114.454 E0.03020
G1 X132.532 Y115.417 E0.03372
G1 X132.782 Y116.272 E0.02932
G1 X132.989 Y117.161 E0.03005
G1 X133.176 Y118.239 E0.03605
G1 X133.282 Y119.128 E0.02948
G1 X133.351 Y120.096 E0.03192
G1 X133.374 Y121.271 E0.03870
G1 X133.341 Y122.235 E0.03174
G1 X133.239 Y123.413 E0.03896
G1 X133.107 Y124.340 E0.03082
G1 X132.889 Y125.434 E0.03673
G1 X132.648 Y126.349 E0.03114
G1 X132.313 Y127.354 E0.03487
G1 X131.986 Y128.146 E0.02820
G1 X131.647 Y128.834 E0.02528
G1 X131.256 Y129.502 E0.02547
G1 X130.687 Y130.295 E0.03213
G1 X130.144 Y130.899 E0.02674
G1 X129.563 Y131.413 E0.02554
G1 X128.977 Y131.818 E0.02344
G1 X128.542 Y132.053 E0.01629
G1 X127.993 Y132.282 E0.01958
G1 X127.161 Y132.494 E0.02827
G1 X126.331 Y132.553 E0.02738
G1 X125.581 Y132.480 E0.02483
G1 X124.860 Y132.294 E0.02451
G1 X124.409 Y132.115 E0.01596
G1 X123.915 Y131.859 E0.01832
G1 X123.256 Y131.410 E0.02624
G1 X122.641 Y130.860 E0.02719
G1 X122.050 Y130.183 E0.02957
G1 X121.552 Y129.473 E0.02856
G1 X121.159 Y128.791 E0.02592
G1 X120.720 Y127.860 E0.03388
G1 X120.419 Y127.076 E0.02766
G1 X120.152 Y126.230 E0.02919
G1 X119.886 Y125.152 E0.03657
G1 X119.712 Y124.204 E0.03173
G1 X119.568 Y123.064 E0.03783
G1 X119.500 Y122.100 E0.03181
G1 X119.478 Y120.947 E0.03796
G1 X119.512 Y119.960 E0.03252
G1 X119.613 Y118.807 E0.03812
G1 X119.749 Y117.854 E0.03169
G1 X119.964 Y116.775 E0.03621
G1 X120.210 Y115.845 E0.03168
G1 X120.542 Y114.854 E0.03442
G1 X120.880 Y114.037 E0.02912
G1 X121.215 Y113.360 E0.02486
G1 X121.596 Y112.710 E0.02481
G1 X122.146 Y111.940 E0.03114
G1 X122.645 Y111.379 E0.02472
G1 X122.926 Y111.630 F10800.000
G1 F602.323
G1 X123.522 Y111.091 E0.02644
G1 X124.076 Y110.708 E0.02216
G1 X124.477 Y110.489 E0.01506
G1 X124.993 Y110.275 E0.01837
G1 X125.790 Y110.075 E0.02705
G1 X126.567 Y110.025 E0.02566
G1 X127.186 Y110.087 E0.02048
G1 X127.626 Y110.186 E0.01485
G1 X128.117 Y110.354 E0.01706
G1 X128.804 Y110.697 E0.02528
G1 X129.406 Y111.116 E0.02417
G1 X130.043 Y111.705 E0.02854
G1 X130.568 Y112.325 E0.02678
G1 X131.032 Y113.005 E0.02709
G1 X131.463 Y113.781 E0.02922
G1 X131.835 Y114.603 E0.02970
G1 X132.176 Y115.540 E0.03282
G1 X132.416 Y116.362 E0.02820
G1 X132.618 Y117.230 E0.02935
G1 X132.803 Y118.299 E0.03571
G1 X132.907 Y119.169 E0.02884
G1 X132.975 Y120.108 E0.03100
G1 X132.997 Y121.263 E0.03804
G1 X132.965 Y122.207 E0.03109
G1 X132.865 Y123.365 E0.03828
G1 X132.736 Y124.272 E0.03014
G1 X132.523 Y125.344 E0.03600
G1 X132.289 Y126.236 E0.03036
G1 X131.962 Y127.216 E0.03403
G1 X131.645 Y127.985 E0.02736
G1 X131.312 Y128.661 E0.02484
G1 X130.935 Y129.304 E0.02451
G1 X130.387 Y130.066 E0.03092
G1 X129.871 Y130.638 E0.02536
G1 X129.322 Y131.122 E0.02410
G1 X128.772 Y131.501 E0.02200
G1 X128.387 Y131.709 E0.01439
G1 X127.885 Y131.920 E0.01794
G1 X127.115 Y132.119 E0.02617
G1 X126.350 Y132.177 E0.02525
G1 X125.660 Y132.112 E0.02281
G1 X124.966 Y131.932 E0.02361
G1 X124.574 Y131.775 E0.01390
G1 X124.117 Y131.540 E0.01691
G1 X123.498 Y131.121 E0.02461
G1 X122.901 Y130.587 E0.02637
G1 X122.341 Y129.943 E0.02809
G1 X121.874 Y129.277 E0.02678
G1 X121.496 Y128.623 E0.02488
G1 X121.069 Y127.718 E0.03293
G1 X120.776 Y126.957 E0.02685
G1 X120.514 Y126.123 E0.02880
G1 X120.253 Y125.067 E0.03579
G1 X120.085 Y124.151 E0.03065
G1 X119.944 Y123.032 E0.03714
G1 X119.877 Y122.088 E0.03116
G1 X119.855 Y120.955 E0.03730
G1 X119.888 Y119.988 E0.03186
G1 X119.987 Y118.855 E0.03744
G1 X120.120 Y117.923 E0.03100
G1 X120.330 Y116.866 E0.03547
G1 X120.570 Y115.959 E0.03089
G1 X120.893 Y114.992 E0.03356
G1 X121.221 Y114.198 E0.02828
G1 X121.544 Y113.545 E0.02399
G1 X121.917 Y112.908 E0.02430
G1 X122.447 Y112.168 E0.02995
G1 X122.886 Y111.674 E0.02176
G1 X123.167 Y111.926 F10800.000
G1 F602.323
G1 X123.764 Y111.381 E0.02658
G1 X124.281 Y111.024 E0.02070
G1 X124.632 Y110.833 E0.01315
G1 X125.100 Y110.637 E0.01671
G1 X125.833 Y110.450 E0.02489
G1 X126.546 Y110.402 E0.02353
G1 X127.137 Y110.461 E0.01957
G1 X127.515 Y110.547 E0.01275
G1 X127.961 Y110.698 E0.01550
G1 X128.601 Y111.015 E0.02351
G1 X129.160 Y111.402 E0.02240
G1 X129.778 Y111.974 E0.02771
G1 X130.274 Y112.561 E0.02531
G1 X130.707 Y113.196 E0.02529
G1 X131.130 Y113.957 E0.02868
G1 X131.488 Y114.752 E0.02869
G1 X131.819 Y115.663 E0.03192
G1 X132.050 Y116.453 E0.02709
G1 X132.247 Y117.300 E0.02864
G1 X132.431 Y118.358 E0.03536
G1 X132.532 Y119.209 E0.02820
G1 X132.598 Y120.120 E0.03008
G1 X132.620 Y121.256 E0.03739
G1 X132.589 Y122.180 E0.03044
G1 X132.491 Y123.318 E0.03760
G1 X132.366 Y124.203 E0.02945
G1 X132.157 Y125.254 E0.03526
G1 X131.929 Y126.123 E0.02957
G1 X131.611 Y127.079 E0.03318
G1 X131.304 Y127.824 E0.02651
G1 X130.976 Y128.488 E0.02440
G1 X130.614 Y129.105 E0.02354
G1 X130.087 Y129.837 E0.02970
G1 X129.599 Y130.377 E0.02397
G1 X129.082 Y130.831 E0.02266
G1 X128.567 Y131.184 E0.02055
G1 X128.232 Y131.366 E0.01254
G1 X127.775 Y131.559 E0.01632
G1 X127.068 Y131.745 E0.02407
G1 X126.369 Y131.800 E0.02309
G1 X125.711 Y131.738 E0.02175
G1 X125.074 Y131.570 E0.02170
G1 X124.738 Y131.436 E0.01191
G1 X124.318 Y131.221 E0.01551
G1 X123.740 Y130.831 E0.02296
G1 X123.162 Y130.314 E0.02555
G1 X122.632 Y129.704 E0.02659
G1 X122.197 Y129.081 E0.02502
G1 X121.834 Y128.454 E0.02384
G1 X121.418 Y127.576 E0.03198
G1 X121.134 Y126.838 E0.02604
G1 X120.875 Y126.015 E0.02840
G1 X120.621 Y124.983 E0.03501
G1 X120.459 Y124.099 E0.02958
G1 X120.320 Y123.000 E0.03646
G1 X120.254 Y122.076 E0.03051
G1 X120.232 Y120.963 E0.03665
G1 X120.264 Y120.015 E0.03121
G1 X120.361 Y118.903 E0.03676
G1 X120.490 Y117.991 E0.03031
G1 X120.697 Y116.956 E0.03473
G1 X120.929 Y116.072 E0.03011
G1 X121.244 Y115.130 E0.03271
G1 X121.562 Y114.359 E0.02743
G1 X121.879 Y113.718 E0.02356
G1 X122.238 Y113.106 E0.02335
G1 X122.747 Y112.396 E0.02876
G1 X123.127 Y111.970 E0.01879
G1 X123.408 Y112.222 F10800.000
G1 F602.323
G1 X123.506 Y112.113 E0.00482
G1 X124.005 Y111.671 E0.02192
G1 X124.486 Y111.341 E0.01924
G1 X124.788 Y111.177 E0.01130
G1 X125.209 Y110.998 E0.01506
M73 Q2 S30
G1 X125.877 Y110.825 E0.02273
G1 X126.525 Y110.779 E0.02137
G1 X127.088 Y110.835 E0.01863
G1 X127.404 Y110.907 E0.01068
M73 P2 R30
G1 X127.806 Y111.042 E0.01396
G1 X128.398 Y111.333 E0.02173
G1 X128.914 Y111.689 E0.02061
G1 X129.513 Y112.242 E0.02686
G1 X129.979 Y112.796 E0.02383
G1 X130.381 Y113.386 E0.02351
G1 X130.796 Y114.133 E0.02813
G1 X131.142 Y114.900 E0.02768
G1 X131.463 Y115.786 E0.03102
G1 X131.684 Y116.543 E0.02599
G1 X131.877 Y117.370 E0.02794
G1 X132.058 Y118.418 E0.03502
G1 X132.157 Y119.249 E0.02756
G1 X132.221 Y120.133 E0.02916
G1 X132.243 Y121.248 E0.03674
G1 X132.213 Y122.152 E0.02978
G1 X132.117 Y123.270 E0.03693
G1 X131.995 Y124.135 E0.02877
G1 X131.791 Y125.164 E0.03453
G1 X131.569 Y126.010 E0.02878
G1 X131.259 Y126.942 E0.03234
G1 X130.963 Y127.663 E0.02566
G1 X130.641 Y128.315 E0.02396
G1 X130.294 Y128.906 E0.02256
G1 X129.788 Y129.607 E0.02848
G1 X129.327 Y130.115 E0.02258
G1 X128.842 Y130.540 E0.02122
G1 X128.363 Y130.867 E0.01911
G1 X128.075 Y131.023 E0.01075
G1 X127.664 Y131.198 E0.01471
G1 X127.019 Y131.370 E0.02197
G1 X126.386 Y131.423 E0.02093
G1 X125.791 Y131.369 E0.01968
G1 X125.202 Y131.216 E0.02003
G1 X124.901 Y131.096 E0.01065
G1 X124.500 Y130.891 E0.01483
G1 X123.962 Y130.526 E0.02140
G1 X123.439 Y130.058 E0.02313
G1 X122.924 Y129.464 E0.02587
G1 X122.511 Y128.872 E0.02377
G1 X122.164 Y128.273 E0.02280
G1 X121.762 Y127.422 E0.03098
G1 X121.488 Y126.708 E0.02516
G1 X121.240 Y125.919 E0.02724
G1 X120.991 Y124.909 E0.03426
G1 X120.832 Y124.046 E0.02888
G1 X120.696 Y122.968 E0.03578
G1 X120.631 Y122.063 E0.02986
G1 X120.609 Y120.970 E0.03599
G1 X120.641 Y120.043 E0.03055
G1 X120.735 Y118.951 E0.03609
G1 X120.861 Y118.060 E0.02963
G1 X121.063 Y117.047 E0.03400
G1 X121.289 Y116.185 E0.02932
G1 X121.595 Y115.267 E0.03186
G1 X121.903 Y114.521 E0.02658
G1 X122.214 Y113.891 E0.02312
G1 X122.559 Y113.305 E0.02240
G1 X123.047 Y112.624 E0.02757
G1 X123.368 Y112.266 E0.01582
G1 X123.648 Y112.518 F10800.000
G1 F602.323
G1 X123.779 Y112.373 E0.00643
G1 X124.245 Y111.962 E0.02046
G1 X124.691 Y111.658 E0.01778
G1 X124.945 Y111.520 E0.00952
G1 X125.320 Y111.359 E0.01344
G1 X125.924 Y111.199 E0.02056
G1 X126.505 Y111.156 E0.01920
G1 X127.017 Y111.205 E0.01693
G1 X127.294 Y111.268 E0.00934
G1 X127.674 Y111.395 E0.01320
G1 X128.218 Y111.665 E0.01999
G1 X128.688 Y111.991 E0.01882
G1 X129.248 Y112.510 E0.02515
G1 X129.684 Y113.031 E0.02236
G1 X130.056 Y113.577 E0.02175
G1 X130.463 Y114.310 E0.02759
G1 X130.789 Y115.035 E0.02620
G1 X131.106 Y115.909 E0.03059
G1 X131.318 Y116.634 E0.02488
G1 X131.508 Y117.450 E0.02759
G1 X131.686 Y118.477 E0.03432
G1 X131.782 Y119.281 E0.02664
G1 X131.844 Y120.145 E0.02853
G1 X131.866 Y121.241 E0.03609
G1 X131.837 Y122.125 E0.02913
G1 X131.743 Y123.223 E0.03626
G1 X131.624 Y124.067 E0.02808
G1 X131.422 Y125.085 E0.03417
G1 X131.209 Y125.897 E0.02761
G1 X130.904 Y126.817 E0.03192
G1 X130.617 Y127.513 E0.02481
G1 X130.313 Y128.131 E0.02266
G1 X129.983 Y128.693 E0.02147
G1 X129.501 Y129.363 E0.02716
G1 X129.069 Y129.840 E0.02117
G1 X128.619 Y130.236 E0.01973
G1 X128.174 Y130.541 E0.01779
G1 X127.919 Y130.679 E0.00955
G1 X127.529 Y130.846 E0.01395
G1 X126.940 Y131.001 E0.02004
G1 X126.374 Y131.045 E0.01872
G1 X125.842 Y130.995 E0.01759
G1 X125.330 Y130.861 E0.01743
G1 X125.065 Y130.756 E0.00939
G1 X124.682 Y130.561 E0.01413
G1 X124.185 Y130.222 E0.01982
G1 X123.716 Y129.801 E0.02074
G1 X123.215 Y129.225 E0.02514
G1 X122.825 Y128.664 E0.02250
G1 X122.495 Y128.091 E0.02175
G1 X122.107 Y127.267 E0.02998
G1 X121.846 Y126.589 E0.02391
G1 X121.604 Y125.823 E0.02647
G1 X121.360 Y124.835 E0.03350
G1 X121.206 Y123.993 E0.02817
G1 X121.071 Y122.936 E0.03510
G1 X121.008 Y122.051 E0.02921
G1 X120.986 Y120.978 E0.03534
G1 X121.017 Y120.070 E0.02990
G1 X121.109 Y118.998 E0.03541
G1 X121.232 Y118.128 E0.02894
G1 X121.429 Y117.137 E0.03326
G1 X121.649 Y116.299 E0.02853
G1 X121.946 Y115.405 E0.03101
G1 X122.244 Y114.682 E0.02573
G1 X122.549 Y114.065 E0.02268
G1 X122.879 Y113.503 E0.02143
G1 X123.347 Y112.853 E0.02637
G1 X123.608 Y112.563 E0.01285
G1 X123.888 Y112.815 F10800.000
G1 F602.323
G1 X124.052 Y112.633 E0.00804
G1 X124.468 Y112.267 E0.01825
G1 X124.880 Y111.984 E0.01647
G1 X125.102 Y111.863 E0.00832
G1 X125.456 Y111.711 E0.01269
G1 X125.971 Y111.574 E0.01754
G1 X126.487 Y111.533 E0.01703
G1 X126.947 Y111.576 E0.01523
G1 X127.184 Y111.629 E0.00798
G1 X127.542 Y111.748 E0.01242
G1 X128.037 Y111.996 E0.01822
G1 X128.461 Y112.292 E0.01702
G1 X128.982 Y112.778 E0.02345
G1 X129.388 Y113.265 E0.02090
G1 X129.730 Y113.768 E0.02001
G1 X130.129 Y114.486 E0.02704
G1 X130.437 Y115.170 E0.02472
G1 X130.750 Y116.031 E0.03015
G1 X130.952 Y116.725 E0.02378
G1 X131.138 Y117.520 E0.02688
G1 X131.314 Y118.536 E0.03397
G1 X131.406 Y119.312 E0.02572
G1 X131.467 Y120.158 E0.02791
G1 X131.489 Y121.234 E0.03543
G1 X131.461 Y122.098 E0.02847
G1 X131.369 Y123.175 E0.03558
G1 X131.253 Y123.999 E0.02739
G1 X131.053 Y125.006 E0.03380
G1 X130.850 Y125.783 E0.02645
G1 X130.548 Y126.691 E0.03150
G1 X130.271 Y127.364 E0.02394
G1 X129.984 Y127.946 E0.02138
G1 X129.671 Y128.481 E0.02038
G1 X129.213 Y129.118 E0.02584
G1 X128.811 Y129.565 E0.01977
G1 X128.396 Y129.932 E0.01825
G1 X127.984 Y130.215 E0.01647
G1 X127.762 Y130.336 E0.00833
G1 X127.393 Y130.494 E0.01320
G1 X126.892 Y130.627 E0.01706
G1 X126.391 Y130.668 E0.01657
G1 X125.921 Y130.626 E0.01552
G1 X125.457 Y130.505 E0.01580
G1 X125.228 Y130.416 E0.00810
G1 X124.865 Y130.230 E0.01340
G1 X124.408 Y129.918 E0.01822
G1 X123.993 Y129.545 E0.01837
G1 X123.507 Y128.985 E0.02441
G1 X123.139 Y128.455 E0.02123
G1 X122.826 Y127.910 E0.02072
G1 X122.451 Y127.113 E0.02899
G1 X122.204 Y126.470 E0.02267
G1 X121.969 Y125.726 E0.02569
G1 X121.730 Y124.761 E0.03274
G1 X121.579 Y123.940 E0.02747
G1 X121.447 Y122.903 E0.03442
G1 X121.385 Y122.038 E0.02855
G1 X121.364 Y120.985 E0.03468
G1 X121.393 Y120.097 E0.02925
G1 X121.483 Y119.046 E0.03474
G1 X121.603 Y118.196 E0.02826
G1 X121.798 Y117.216 E0.03290
G1 X122.009 Y116.412 E0.02737
G1 X122.302 Y115.530 E0.03059
G1 X122.590 Y114.832 E0.02486
G1 X122.878 Y114.249 E0.02139
G1 X123.191 Y113.716 E0.02036
G1 X123.635 Y113.097 E0.02506
G1 X123.848 Y112.860 E0.01053
G1 X124.128 Y113.112 F10800.000
G1 F602.323
G1 X124.324 Y112.894 E0.00966
G1 X124.691 Y112.571 E0.01609
G1 X125.071 Y112.309 E0.01518
G1 X125.259 Y112.206 E0.00709
G1 X125.592 Y112.063 E0.01190
G1 X126.050 Y111.943 E0.01561
G1 X126.469 Y111.910 E0.01382
G1 X126.879 Y111.947 E0.01357
G1 X127.074 Y111.990 E0.00658
G1 X127.409 Y112.102 E0.01161
G1 X127.854 Y112.326 E0.01642
G1 X128.232 Y112.592 E0.01522
G1 X128.715 Y113.044 E0.02177
G1 X129.092 Y113.499 E0.01945
G1 X129.405 Y113.958 E0.01829
G1 X129.796 Y114.662 E0.02650
G1 X130.085 Y115.306 E0.02324
G1 X130.393 Y116.154 E0.02972
G1 X130.586 Y116.816 E0.02268
G1 X130.767 Y117.590 E0.02617
G1 X130.941 Y118.596 E0.03362
G1 X131.030 Y119.344 E0.02480
G1 X131.090 Y120.170 E0.02728
G1 X131.112 Y121.236 E0.03511
G1 X131.085 Y122.071 E0.02749
G1 X130.995 Y123.128 E0.03491
G1 X130.882 Y123.931 E0.02670
G1 X130.684 Y124.927 E0.03344
G1 X130.490 Y125.670 E0.02529
G1 X130.192 Y126.566 E0.03107
G1 X129.925 Y127.214 E0.02308
G1 X129.654 Y127.762 E0.02012
G1 X129.360 Y128.268 E0.01928
G1 X128.913 Y128.889 E0.02519
G1 X128.539 Y129.304 E0.01838
G1 X128.173 Y129.628 E0.01610
G1 X127.793 Y129.890 E0.01518
G1 X127.604 Y129.994 E0.00709
G1 X127.258 Y130.142 E0.01240
G1 X126.813 Y130.258 E0.01514
G1 X126.406 Y130.291 E0.01344
G1 X125.999 Y130.257 E0.01347
G1 X125.582 Y130.150 E0.01417
G1 X125.390 Y130.075 E0.00677
G1 X125.048 Y129.900 E0.01266
G1 X124.632 Y129.614 E0.01661
G1 X124.270 Y129.289 E0.01603
G1 X123.798 Y128.746 E0.02368
G1 X123.454 Y128.248 E0.01994
G1 X123.157 Y127.729 E0.01969
G1 X122.795 Y126.959 E0.02800
G1 X122.562 Y126.351 E0.02144
