; generated by PrusaSlicer 2.1.0+win64 on 2019-11-02 at 18:43:30 UTC

; 

; external perimeters extrusion width = 0.65mm
; perimeters extrusion width = 0.65mm
; infill extrusion width = 0.70mm
; solid infill extrusion width = 0.70mm
; top infill extrusion width = 0.60mm
; support material extrusion width = 0.55mm
; first layer extrusion width = 0.65mm

M73 P0 R161
M73 Q0 S162
M201 X1000 Y1000 Z1000 E5000 ; sets maximum accelerations, mm/sec^2
M203 X200 Y200 Z12 E120 ; sets maximum feedrates, mm/sec
M204 P1250 R1250 T1250 ; sets acceleration (P, T) and retract acceleration (R), mm/sec^2
M205 X8.00 Y8.00 Z0.40 E1.50 ; sets the jerk limits, mm/sec
M205 S0 T0 ; sets the minimum extruding and travel feed rate, mm/sec
M107
M862.3 P "MK3SMMU2S" ; printer model check
M862.1 P0.6 ; nozzle diameter check
M115 U3.8.0 ; tell printer latest fw version
G90 ; use absolute coordinates
M83 ; extruder relative mode
M104 S215 ; set extruder temp
M140 S60 ; set bed temp
Tx
M190 S60 ; wait for bed temp
M109 S215 ; wait for extruder temp
G28 W ; home all without mesh bed level
G80 ; mesh bed leveling

G21 ; set units to millimeters

;go outside print area
G1 Y-3.0 F1000.0
G1 Z0.4 F1000.0
; select extruder
Tc
; purge line
G1 X55.0 F2000.0
G1 Z0.3 F1000.0
G92 E0.0
G1 X240.0 E25.0 F2200.0
M73 Q0 S162
M73 P0 R161
G1 Y-2.0 F1000.0
G1 X55.0 E25 F1400.0
G1 Z0.20 F1000.0
G1 X5.0 E4.0 F1000.0

M221 S95
G92 E0.0
G21 ; set units to millimeters
G90 ; use absolute coordinates
M83 ; use relative distances for extrusion
M900 K18 ; Filament gcode
;BEFORE_LAYER_CHANGE
G92 E0.0
;0.2


G1 E-0.80000 F2100.00000
G1 Z0.600 F10800.000
;AFTER_LAYER_CHANGE
;0.2
G1 X98.509 Y83.088
G1 Z0.200
G1 E0.80000 F2100.00000
M204 S1000
G1 F1200
G1 X100.688 Y80.692 E0.16349
G1 X103.088 Y78.508 E0.16379
G1 X105.683 Y76.560 E0.16378
G1 X108.445 Y74.869 E0.16351
G1 X111.421 Y73.416 E0.16714
G1 X113.352 Y72.654 E0.10480
G1 X115.331 Y72.009 E0.10506
G1 X118.484 Y71.244 E0.16378
G1 X121.756 Y70.774 E0.16688
G1 X125.003 Y70.621 E0.16408
G1 X128.244 Y70.774 E0.16379
G1 X131.517 Y71.244 E0.16691
G1 X134.669 Y72.009 E0.16374
G1 X136.643 Y72.652 E0.10480
G1 X138.579 Y73.416 E0.10506
G1 X141.556 Y74.869 E0.16719
G1 X144.317 Y76.561 E0.16349
G1 X146.912 Y78.509 E0.16379
G1 X149.308 Y80.688 E0.16349
G1 X151.492 Y83.088 E0.16379
G1 X153.436 Y85.679 E0.16350
G1 X155.131 Y88.445 E0.16379
G1 X156.584 Y91.421 E0.16714
G1 X157.346 Y93.352 E0.10480
G1 X157.991 Y95.331 E0.10506
G1 X158.756 Y98.484 E0.16378
G1 X159.226 Y101.756 E0.16688
G1 X159.379 Y105.003 E0.16408
G1 X159.227 Y108.239 E0.16350
G1 X158.756 Y111.517 E0.16719
G1 X157.991 Y114.669 E0.16374
G1 X157.348 Y116.643 E0.10480
G1 X156.584 Y118.579 E0.10506
G1 X155.131 Y121.556 E0.16719
G1 X153.439 Y124.317 E0.16349
G1 X151.491 Y126.912 E0.16379
G1 X149.312 Y129.308 E0.16349
G1 X146.916 Y131.488 E0.16351
G1 X144.317 Y133.440 E0.16406
G1 X141.555 Y135.131 E0.16351
G1 X138.579 Y136.584 E0.16714
G1 X136.648 Y137.346 E0.10480
G1 X134.669 Y137.991 E0.10506
G1 X131.516 Y138.756 E0.16378
G1 X128.244 Y139.226 E0.16688
G1 X124.997 Y139.379 E0.16408
G1 X121.761 Y139.227 E0.16350
G1 X118.483 Y138.756 E0.16719
G1 X115.331 Y137.991 E0.16374
G1 X113.357 Y137.348 E0.10480
G1 X111.421 Y136.584 E0.10506
G1 X108.444 Y135.131 E0.16719
G1 X105.683 Y133.439 E0.16349
G1 X103.088 Y131.491 E0.16379
G1 X100.692 Y129.312 E0.16349
G1 X98.512 Y126.916 E0.16351
G1 X96.564 Y124.321 E0.16378
G1 X94.869 Y121.555 E0.16379
G1 X93.416 Y118.579 E0.16714
G1 X92.654 Y116.648 E0.10480
G1 X92.009 Y114.669 E0.10506
G1 X91.244 Y111.516 E0.16378
G1 X90.773 Y108.238 E0.16716
G1 X90.621 Y104.997 E0.16379
G1 X90.774 Y101.756 E0.16379
G1 X91.244 Y98.483 E0.16691
G1 X92.009 Y95.331 E0.16374
G1 X92.652 Y93.357 E0.10480
G1 X93.416 Y91.421 E0.10506
G1 X94.869 Y88.444 E0.16719
G1 X96.561 Y85.683 E0.16349
G1 X98.455 Y83.159 E0.15924
G1 F8640
G1 X100.663 Y80.719 E-0.76000
G1 E-0.04000 F2100.00000
G1 Z0.800 F10800.000
G1 X99.391 Y83.911
G1 Z0.200
G1 E0.80000 F2100.00000
G1 F1200
G1 X100.089 Y83.090 E0.05439
G1 X100.843 Y82.261 E0.05654
G1 X101.541 Y81.541 E0.05064
G1 X102.261 Y80.843 E0.05062
G1 X103.030 Y80.141 E0.05257
G1 X103.809 Y79.474 E0.05178
G1 X104.681 Y78.775 E0.05640
G1 X105.492 Y78.166 E0.05119
G1 X106.320 Y77.583 E0.05113
G1 X107.240 Y76.979 E0.05554
G1 X108.104 Y76.449 E0.05115
G1 X108.983 Y75.947 E0.05114
G1 X109.973 Y75.423 E0.05655
G1 X110.874 Y74.982 E0.05065
G1 X111.789 Y74.568 E0.05064
G1 X112.823 Y74.139 E0.05654
G1 X113.762 Y73.785 E0.05065
G1 X114.711 Y73.460 E0.05064
G1 X115.782 Y73.131 E0.05655
G1 X116.750 Y72.866 E0.05063
G1 X117.725 Y72.632 E0.05063
G1 X118.822 Y72.404 E0.05656
G1 X119.810 Y72.233 E0.05065
G1 X120.803 Y72.091 E0.05064
G1 X121.917 Y71.968 E0.05653
G1 X122.927 Y71.889 E0.05113
G1 X123.947 Y71.841 E0.05159
G1 X124.969 Y71.824 E0.05160
G1 X125.985 Y71.839 E0.05129
G1 X127.122 Y71.892 E0.05742
G1 X128.122 Y71.971 E0.05065
G1 X129.119 Y72.081 E0.05063
G1 X130.228 Y72.239 E0.05656
G1 X131.216 Y72.412 E0.05063
G1 X132.208 Y72.617 E0.05113
G1 X133.289 Y72.876 E0.05608
G1 X134.275 Y73.147 E0.05162
G1 X135.261 Y73.451 E0.05208
G1 X136.219 Y73.779 E0.05111
G1 X137.160 Y74.133 E0.05080
G1 X138.211 Y74.568 E0.05739
G1 X139.126 Y74.982 E0.05068
G1 X140.027 Y75.423 E0.05065
G1 X141.017 Y75.947 E0.05657
G1 X141.905 Y76.455 E0.05164
G1 X142.769 Y76.984 E0.05111
G1 X143.631 Y77.550 E0.05206
G1 X144.468 Y78.137 E0.05162
G1 X145.365 Y78.810 E0.05659
G1 X146.147 Y79.438 E0.05064
G1 X146.910 Y80.089 E0.05064
G1 X147.739 Y80.843 E0.05654
G1 X148.459 Y81.541 E0.05064
G1 X149.157 Y82.261 E0.05062
G1 X149.859 Y83.030 E0.05257
G1 X150.526 Y83.809 E0.05178
G1 X151.225 Y84.681 E0.05640
G1 X151.834 Y85.492 E0.05120
G1 X152.417 Y86.320 E0.05112
G1 X153.021 Y87.240 E0.05554
G1 X153.551 Y88.104 E0.05115
G1 X154.053 Y88.983 E0.05113
G1 X154.577 Y89.973 E0.05654
G1 X155.018 Y90.874 E0.05065
G1 X155.432 Y91.789 E0.05065
G1 X155.860 Y92.823 E0.05654
G1 X156.215 Y93.762 E0.05064
G1 X156.540 Y94.711 E0.05064
G1 X156.870 Y95.782 E0.05658
G1 X157.138 Y96.769 E0.05161
G1 X157.377 Y97.763 E0.05159
G1 X157.584 Y98.764 E0.05160
G1 X157.761 Y99.771 E0.05163
G1 X157.919 Y100.881 E0.05659
G1 X158.029 Y101.878 E0.05062
G1 X158.108 Y102.878 E0.05063
G1 X158.161 Y103.997 E0.05659
G1 X158.176 Y105.010 E0.05111
G1 X158.161 Y106.003 E0.05015
G1 X158.108 Y107.122 E0.05655
G1 X158.029 Y108.122 E0.05063
G1 X157.919 Y109.119 E0.05063
G1 X157.761 Y110.229 E0.05658
G1 X157.584 Y111.236 E0.05162
G1 X157.377 Y112.237 E0.05160
G1 X157.139 Y113.231 E0.05160
G1 X156.870 Y114.218 E0.05162
G1 X156.540 Y115.289 E0.05658
G1 X156.215 Y116.238 E0.05064
G1 X155.860 Y117.177 E0.05064
G1 X155.432 Y118.211 E0.05653
G1 X155.019 Y119.125 E0.05065
G1 X154.578 Y120.027 E0.05066
G1 X154.053 Y121.017 E0.05656
G1 X153.546 Y121.905 E0.05163
G1 X153.011 Y122.777 E0.05161
G1 X152.450 Y123.631 E0.05161
G1 X151.863 Y124.468 E0.05161
G1 X151.190 Y125.365 E0.05658
G1 X150.562 Y126.147 E0.05064
G1 X149.911 Y126.910 E0.05064
G1 X149.157 Y127.739 E0.05654
G1 X148.459 Y128.459 E0.05064
G1 X147.739 Y129.157 E0.05064
G1 X146.910 Y129.911 E0.05655
G1 X146.147 Y130.563 E0.05065
G1 X145.357 Y131.196 E0.05114
G1 X144.468 Y131.863 E0.05608
G1 X143.631 Y132.450 E0.05162
G1 X142.776 Y133.011 E0.05160
G1 X141.905 Y133.546 E0.05159
G1 X141.017 Y134.053 E0.05163
G1 X140.027 Y134.577 E0.05656
G1 X139.126 Y135.018 E0.05065
G1 X138.211 Y135.432 E0.05065
G1 X137.177 Y135.860 E0.05654
G1 X136.238 Y136.215 E0.05064
G1 X135.289 Y136.540 E0.05064
G1 X134.218 Y136.870 E0.05658
G1 X133.231 Y137.138 E0.05161
G1 X132.237 Y137.377 E0.05159
G1 X131.236 Y137.584 E0.05160
G1 X130.229 Y137.761 E0.05163
G1 X129.119 Y137.919 E0.05659
G1 X128.122 Y138.029 E0.05062
G1 X127.122 Y138.108 E0.05063
G1 X126.003 Y138.161 E0.05659
G1 X124.990 Y138.176 E0.05111
G1 X123.997 Y138.161 E0.05015
G1 X122.878 Y138.108 E0.05655
G1 X121.878 Y138.029 E0.05063
G1 X120.881 Y137.919 E0.05063
G1 X119.771 Y137.761 E0.05657
G1 X118.764 Y137.584 E0.05161
G1 X117.763 Y137.377 E0.05160
G1 X116.769 Y137.139 E0.05161
G1 X115.782 Y136.870 E0.05162
G1 X114.711 Y136.540 E0.05658
G1 X113.762 Y136.215 E0.05064
G1 X112.823 Y135.860 E0.05064
G1 X111.789 Y135.432 E0.05653
G1 X110.875 Y135.019 E0.05064
G1 X109.973 Y134.578 E0.05066
G1 X108.983 Y134.053 E0.05657
G1 X108.095 Y133.546 E0.05163
G1 X107.224 Y133.011 E0.05159
G1 X106.369 Y132.450 E0.05160
G1 X105.532 Y131.863 E0.05162
G1 X104.635 Y131.190 E0.05659
G1 X103.853 Y130.562 E0.05064
G1 X103.090 Y129.911 E0.05064
G1 X102.261 Y129.158 E0.05653
G1 X101.541 Y128.459 E0.05063
G1 X100.843 Y127.739 E0.05062
G1 X100.141 Y126.970 E0.05257
G1 X99.474 Y126.191 E0.05178
G1 X98.775 Y125.319 E0.05640
G1 X98.166 Y124.508 E0.05119
G1 X97.583 Y123.680 E0.05113
G1 X96.979 Y122.760 E0.05554
G1 X96.449 Y121.896 E0.05115
G1 X95.947 Y121.017 E0.05114
G1 X95.423 Y120.027 E0.05654
G1 X94.982 Y119.126 E0.05064
G1 X94.568 Y118.212 E0.05065
G1 X94.140 Y117.177 E0.05655
G1 X93.785 Y116.238 E0.05064
G1 X93.460 Y115.289 E0.05064
G1 X93.130 Y114.218 E0.05658
G1 X92.862 Y113.231 E0.05162
G1 X92.623 Y112.237 E0.05160
G1 X92.416 Y111.236 E0.05160
G1 X92.239 Y110.229 E0.05162
G1 X92.081 Y109.119 E0.05660
G1 X91.971 Y108.122 E0.05063
G1 X91.892 Y107.122 E0.05063
G1 X91.839 Y106.003 E0.05654
G1 X91.824 Y105.010 E0.05015
G1 X91.839 Y103.997 E0.05111
G1 X91.892 Y102.878 E0.05658
G1 X91.971 Y101.878 E0.05063
G1 X92.081 Y100.881 E0.05063
G1 X92.239 Y99.771 E0.05658
G1 X92.416 Y98.764 E0.05162
G1 X92.623 Y97.763 E0.05160
G1 X92.862 Y96.769 E0.05160
G1 X93.130 Y95.782 E0.05161
G1 X93.457 Y94.721 E0.05604
G1 X93.782 Y93.772 E0.05064
G1 X94.133 Y92.839 E0.05032
G1 X94.568 Y91.789 E0.05738
G1 X94.982 Y90.874 E0.05068
G1 X95.423 Y89.973 E0.05065
G1 X95.947 Y88.983 E0.05657
G1 X96.454 Y88.095 E0.05163
G1 X96.989 Y87.224 E0.05158
G1 X97.544 Y86.377 E0.05112
G1 X98.137 Y85.532 E0.05210
G1 X98.810 Y84.635 E0.05659
G1 X99.335 Y83.981 E0.04235
G1 X99.808 Y84.361 F10800.000
G1 F1200
G1 X100.547 Y83.487 E0.05775
G1 X101.282 Y82.680 E0.05507
G1 X101.974 Y81.967 E0.05016
G1 X102.680 Y81.282 E0.04968
G1 X103.436 Y80.593 E0.05162
G1 X104.200 Y79.938 E0.05082
G1 X105.049 Y79.257 E0.05493
G1 X105.845 Y78.660 E0.05024
G1 X106.666 Y78.082 E0.05065
G1 X107.561 Y77.494 E0.05408
G1 X108.409 Y76.974 E0.05020
G1 X109.280 Y76.476 E0.05065
G1 X110.244 Y75.966 E0.05507
G1 X111.137 Y75.529 E0.05018
G1 X112.034 Y75.123 E0.04970
G1 X113.042 Y74.706 E0.05508
G1 X113.972 Y74.355 E0.05017
G1 X114.903 Y74.036 E0.04969
G1 X115.947 Y73.715 E0.05509
G1 X116.896 Y73.456 E0.04969
G1 X117.862 Y73.223 E0.05015
G1 X118.931 Y73.002 E0.05508
G1 X119.910 Y72.831 E0.05017
G1 X120.884 Y72.692 E0.04969
G1 X121.969 Y72.573 E0.05507
G1 X122.969 Y72.495 E0.05065
G1 X123.971 Y72.448 E0.05064
G1 X124.975 Y72.431 E0.05066
G1 X125.972 Y72.446 E0.05034
G1 X127.079 Y72.498 E0.05595
G1 X128.061 Y72.575 E0.04971
G1 X129.048 Y72.684 E0.05015
G1 X130.129 Y72.838 E0.05509
G1 X131.098 Y73.007 E0.04969
G1 X132.071 Y73.208 E0.05016
G1 X133.133 Y73.463 E0.05510
G1 X134.101 Y73.729 E0.05066
G1 X135.069 Y74.027 E0.05113
G1 X136.009 Y74.348 E0.05017
G1 X136.942 Y74.700 E0.05032
G1 X137.965 Y75.123 E0.05591
G1 X138.871 Y75.533 E0.05019
G1 X139.756 Y75.966 E0.04970
G1 X140.720 Y76.476 E0.05509
G1 X141.600 Y76.979 E0.05115
G1 X142.447 Y77.499 E0.05017
G1 X143.294 Y78.054 E0.05111
G1 X144.115 Y78.631 E0.05067
G1 X144.989 Y79.287 E0.05512
G1 X145.757 Y79.902 E0.04969
G1 X146.513 Y80.547 E0.05016
G1 X147.320 Y81.282 E0.05507
G1 X148.033 Y81.974 E0.05016
G1 X148.718 Y82.680 E0.04969
G1 X149.407 Y83.436 E0.05162
G1 X150.062 Y84.200 E0.05082
G1 X150.743 Y85.049 E0.05493
G1 X151.346 Y85.853 E0.05071
G1 X151.918 Y86.666 E0.05017
G1 X152.506 Y87.561 E0.05408
G1 X153.031 Y88.417 E0.05067
G1 X153.524 Y89.280 E0.05018
G1 X154.034 Y90.244 E0.05507
G1 X154.467 Y91.129 E0.04971
G1 X154.877 Y92.034 E0.05017
G1 X155.294 Y93.042 E0.05507
G1 X155.642 Y93.963 E0.04970
G1 X155.964 Y94.903 E0.05016
G1 X156.285 Y95.947 E0.05510
G1 X156.549 Y96.915 E0.05066
G1 X156.783 Y97.891 E0.05064
G1 X156.989 Y98.882 E0.05112
G1 X157.162 Y99.871 E0.05067
G1 X157.316 Y100.952 E0.05512
G1 X157.424 Y101.930 E0.04968
G1 X157.502 Y102.921 E0.05015
G1 X157.554 Y104.011 E0.05512
G1 X157.569 Y105.005 E0.05017
G1 X157.554 Y105.989 E0.04967
G1 X157.502 Y107.079 E0.05508
G1 X157.424 Y108.070 E0.05015
G1 X157.316 Y109.048 E0.04969
G1 X157.162 Y110.129 E0.05511
G1 X156.989 Y111.117 E0.05066
G1 X156.785 Y112.100 E0.05065
G1 X156.549 Y113.085 E0.05113
G1 X156.285 Y114.053 E0.05066
G1 X155.964 Y115.097 E0.05510
G1 X155.642 Y116.037 E0.05016
G1 X155.294 Y116.958 E0.04970
G1 X154.877 Y117.966 E0.05507
G1 X154.471 Y118.863 E0.04970
G1 X154.034 Y119.756 E0.05018
G1 X153.524 Y120.720 E0.05509
G1 X153.026 Y121.592 E0.05067
G1 X152.501 Y122.447 E0.05066
G1 X151.945 Y123.294 E0.05113
G1 X151.369 Y124.116 E0.05066
G1 X150.713 Y124.989 E0.05511
G1 X150.098 Y125.757 E0.04970
G1 X149.453 Y126.513 E0.05016
G1 X148.718 Y127.320 E0.05507
G1 X148.033 Y128.026 E0.04970
G1 X147.320 Y128.718 E0.05017
G1 X146.513 Y129.453 E0.05508
G1 X145.757 Y130.098 E0.05017
G1 X144.981 Y130.720 E0.05019
G1 X144.115 Y131.369 E0.05462
G1 X143.294 Y131.946 E0.05067
G1 X142.455 Y132.496 E0.05065
G1 X141.600 Y133.021 E0.05065
G1 X140.720 Y133.524 E0.05114
G1 X139.756 Y134.034 E0.05508
G1 X138.863 Y134.471 E0.05017
G1 X137.966 Y134.877 E0.04970
G1 X136.958 Y135.294 E0.05508
G1 X136.037 Y135.642 E0.04970
G1 X135.097 Y135.964 E0.05016
G1 X134.053 Y136.285 E0.05510
G1 X133.085 Y136.549 E0.05066
G1 X132.109 Y136.783 E0.05064
G1 X131.118 Y136.989 E0.05112
G1 X130.129 Y137.162 E0.05067
G1 X129.048 Y137.316 E0.05512
G1 X128.070 Y137.424 E0.04968
G1 X127.079 Y137.502 E0.05015
G1 X125.989 Y137.554 E0.05512
G1 X124.995 Y137.569 E0.05017
G1 X124.011 Y137.554 E0.04967
G1 X122.921 Y137.502 E0.05508
G1 X121.930 Y137.424 E0.05015
G1 X120.952 Y137.316 E0.04969
G1 X119.871 Y137.162 E0.05510
G1 X118.883 Y136.989 E0.05066
G1 X117.900 Y136.785 E0.05066
G1 X116.915 Y136.549 E0.05113
G1 X115.947 Y136.285 E0.05066
G1 X114.903 Y135.964 E0.05510
G1 X113.963 Y135.642 E0.05016
G1 X113.042 Y135.294 E0.04970
G1 X112.034 Y134.877 E0.05507
G1 X111.137 Y134.471 E0.04970
G1 X110.244 Y134.034 E0.05018
G1 X109.280 Y133.524 E0.05509
G1 X108.408 Y133.026 E0.05067
G1 X107.553 Y132.501 E0.05065
G1 X106.706 Y131.945 E0.05112
G1 X105.885 Y131.369 E0.05067
G1 X105.011 Y130.713 E0.05512
G1 X104.243 Y130.098 E0.04970
G1 X103.487 Y129.453 E0.05016
G1 X102.680 Y128.718 E0.05507
G1 X101.974 Y128.033 E0.04969
G1 X101.282 Y127.320 E0.05015
G1 X100.593 Y126.564 E0.05162
G1 X99.938 Y125.800 E0.05082
G1 X99.257 Y124.951 E0.05493
G1 X98.660 Y124.155 E0.05024
G1 X98.082 Y123.334 E0.05065
G1 X97.494 Y122.439 E0.05408
G1 X96.974 Y121.591 E0.05020
G1 X96.476 Y120.720 E0.05065
G1 X95.966 Y119.756 E0.05507
G1 X95.533 Y118.872 E0.04970
G1 X95.123 Y117.966 E0.05017
G1 X94.706 Y116.958 E0.05508
G1 X94.358 Y116.037 E0.04970
G1 X94.036 Y115.097 E0.05016
G1 X93.715 Y114.053 E0.05510
G1 X93.451 Y113.085 E0.05066
G1 X93.215 Y112.100 E0.05112
G1 X93.011 Y111.118 E0.05065
G1 X92.838 Y110.129 E0.05067
G1 X92.684 Y109.048 E0.05512
G1 X92.575 Y108.060 E0.05016
G1 X92.498 Y107.079 E0.04969
G1 X92.446 Y105.989 E0.05507
G1 X92.431 Y105.005 E0.04967
G1 X92.446 Y104.011 E0.05017
G1 X92.498 Y102.921 E0.05512
G1 X92.575 Y101.940 E0.04969
G1 X92.684 Y100.952 E0.05015
G1 X92.838 Y99.871 E0.05511
G1 X93.011 Y98.883 E0.05066
G1 X93.215 Y97.900 E0.05066
G1 X93.448 Y96.924 E0.05066
G1 X93.715 Y95.947 E0.05113
G1 X94.032 Y94.913 E0.05457
G1 X94.351 Y93.982 E0.04970
G1 X94.700 Y93.058 E0.04984
G1 X95.123 Y92.035 E0.05591
G1 X95.533 Y91.129 E0.05019
G1 X95.966 Y90.244 E0.04970
G1 X96.476 Y89.280 E0.05510
G1 X96.975 Y88.408 E0.05068
G1 X97.499 Y87.553 E0.05063
G1 X98.049 Y86.714 E0.05064
G1 X98.631 Y85.885 E0.05114
G1 X99.287 Y85.011 E0.05512
G1 X99.752 Y84.431 E0.03756
G1 X100.226 Y84.811 F10800.000
G1 F1200
G1 X101.006 Y83.885 E0.06111
G1 X101.721 Y83.100 E0.05361
G1 X102.400 Y82.400 E0.04921
G1 X103.099 Y81.721 E0.04921
G1 X103.841 Y81.045 E0.05067
G1 X104.592 Y80.403 E0.04986
G1 X105.418 Y79.740 E0.05347
