; generated by PrusaSlicer 2.1.0+win64 on 2019-12-18 at 11:08:30 UTC

; 

; external perimeters extrusion width = 0.60mm
; perimeters extrusion width = 0.50mm
; infill extrusion width = 0.50mm
; solid infill extrusion width = 0.50mm
; top infill extrusion width = 0.45mm
; first layer extrusion width = 0.42mm

M73 P0 R3
M73 Q0 S3
M201 X1000 Y1000 Z1000 E5000 ; sets maximum accelerations, mm/sec^2
M203 X200 Y200 Z12 E120 ; sets maximum feedrates, mm/sec
M204 P1250 R1250 T1250 ; sets acceleration (P, T) and retract acceleration (R), mm/sec^2
M205 X8.00 Y8.00 Z0.40 E1.50 ; sets the jerk limits, mm/sec
M205 S0 T0 ; sets the minimum extruding and travel feed rate, mm/sec
M107
M862.3 P "MK3SMMU2S" ; printer model check
M862.1 P0.4 ; nozzle diameter check
M115 U3.8.1 ; tell printer latest fw version
G90 ; use absolute coordinates
M83 ; extruder relative mode
M104 S220 ; set extruder temp
M140 S85 ; set bed temp
Tx
M190 S85 ; wait for bed temp
M109 S220 ; wait for extruder temp
G28 W ; home all without mesh bed level
G80 ; mesh bed leveling

G21 ; set units to millimeters

;go outside print area
G1 Y-3.0 F1000.0
G1 Z0.4 F1000.0
; select extruder
Tc
; purge line
G1 X55.0 F2000.0
G1 Z0.3 F1000.0
G92 E0.0
G1 X240.0 E25.0 F2200.0
M73 Q3 S3
M73 P3 R3
G1 Y-2.0 F1000.0
G1 X55.0 E25 F1400.0
G1 Z0.20 F1000.0
G1 X5.0 E4.0 F1000.0

M221 S95
G92 E0.0
G21 ; set units to millimeters
G90 ; use absolute coordinates
M83 ; use relative distances for extrusion
M900 K45 ; Filament gcode
;BEFORE_LAYER_CHANGE
G92 E0.0
;0.2


G1 E-1.40000 F2100.00000
G1 Z0.200 F10800.000
;AFTER_LAYER_CHANGE
;0.2
G1 Z0.400
G1 X114.052 Y92.442
G1 Z0.200
G1 E1.40000 F2100.00000
M204 S1000
G1 F1200
G1 X115.966 Y91.799 E0.06332
G1 X133.974 Y91.803 E0.56462
G1 X134.922 Y91.987 E0.03028
G1 X135.831 Y92.377 E0.03100
G1 X137.050 Y93.401 E0.04992
G1 X137.816 Y94.565 E0.04369
G1 X138.195 Y95.953 E0.04513
G1 X138.201 Y113.997 E0.56576
G1 X137.869 Y115.314 E0.04257
G1 X137.143 Y116.498 E0.04355
G1 X136.539 Y117.102 E0.02678
G1 X135.948 Y117.558 E0.02340
G1 X134.034 Y118.201 E0.06330
G1 X116.003 Y118.201 E0.56537
G1 X114.686 Y117.869 E0.04257
G1 X113.502 Y117.143 E0.04355
G1 X112.898 Y116.539 E0.02678
G1 X112.442 Y115.948 E0.02340
G1 X111.799 Y114.034 E0.06330
G1 X111.799 Y96.003 E0.56537
G1 X112.131 Y94.686 E0.04257
G1 X112.857 Y93.502 E0.04355
G1 X113.461 Y92.898 E0.02678
G1 X114.005 Y92.479 E0.02152
G1 X114.234 Y92.777 F10800.000
G1 F1200
G1 X115.997 Y92.176 E0.05840
G1 X133.955 Y92.180 E0.56308
G1 X134.828 Y92.352 E0.02790
G1 X135.654 Y92.712 E0.02823
G1 X136.784 Y93.670 E0.04647
G1 X137.484 Y94.744 E0.04018
G1 X137.824 Y96.026 E0.04157
G1 X137.824 Y113.973 E0.56273
G1 X137.511 Y115.192 E0.03946
G1 X136.861 Y116.247 E0.03885
G1 X136.281 Y116.827 E0.02571
G1 X135.743 Y117.240 E0.02127
G1 X134.004 Y117.824 E0.05754
G1 X116.027 Y117.824 E0.56365
G1 X114.808 Y117.511 E0.03946
G1 X113.753 Y116.861 E0.03885
G1 X113.173 Y116.281 E0.02571
G1 X112.760 Y115.743 E0.02127
G1 X112.176 Y114.004 E0.05754
G1 X112.176 Y96.027 E0.56365
G1 X112.489 Y94.808 E0.03946
G1 X113.139 Y93.753 E0.03885
G1 X113.719 Y93.173 E0.02571
G1 X114.187 Y92.814 E0.01849
G1 X114.416 Y93.113 F10800.000
G1 F1200
G1 X114.461 Y93.079 E0.00179
G1 X116.027 Y92.553 E0.05181
G1 X133.936 Y92.557 E0.56152
G1 X134.733 Y92.718 E0.02549
G1 X135.476 Y93.045 E0.02545
G1 X136.517 Y93.938 E0.04302
G1 X137.150 Y94.923 E0.03669
G1 X137.447 Y96.050 E0.03655
G1 X137.447 Y113.950 E0.56124
G1 X137.174 Y115.020 E0.03463
G1 X136.578 Y115.996 E0.03586
G1 X136.023 Y116.551 E0.02460
G1 X135.539 Y116.921 E0.01912
G1 X133.973 Y117.447 E0.05179
G1 X116.050 Y117.447 E0.56196
G1 X114.980 Y117.174 E0.03463
G1 X114.004 Y116.578 E0.03586
G1 X113.449 Y116.023 E0.02460
G1 X113.079 Y115.539 E0.01912
G1 X112.553 Y113.973 E0.05179
G1 X112.553 Y96.050 E0.56196
G1 X112.826 Y94.980 E0.03463
G1 X113.422 Y94.004 E0.03586
G1 X113.977 Y93.449 E0.02460
G1 X114.368 Y93.150 E0.01544
G1 X114.664 Y93.398 F10800.000
G1 F1200
G1 X116.058 Y92.930 E0.04608
G1 X133.916 Y92.934 E0.55994
G1 X134.636 Y93.083 E0.02304
G1 X135.296 Y93.377 E0.02266
G1 X136.250 Y94.205 E0.03960
G1 X136.794 Y95.049 E0.03149
G1 X137.070 Y96.075 E0.03331
G1 X137.070 Y113.925 E0.55968
G1 X136.817 Y114.898 E0.03149
G1 X136.296 Y115.745 E0.03119
G1 X135.766 Y116.275 E0.02350
G1 X135.336 Y116.602 E0.01695
G1 X133.942 Y117.070 E0.04607
G1 X116.075 Y117.070 E0.56023
G1 X115.102 Y116.817 E0.03149
G1 X114.255 Y116.296 E0.03119
G1 X113.725 Y115.766 E0.02350
G1 X113.398 Y115.336 E0.01695
G1 X112.930 Y113.942 E0.04607
G1 X112.930 Y96.075 E0.56023
G1 X113.183 Y95.102 E0.03149
G1 X113.704 Y94.255 E0.03119
G1 X114.234 Y93.725 E0.02350
G1 X114.617 Y93.434 E0.01507
G1 X114.844 Y93.734 F10800.000
G1 F1200
G1 X116.088 Y93.307 E0.04126
G1 X133.897 Y93.311 E0.55838
G1 X134.501 Y93.435 E0.01932
G1 X135.115 Y93.710 E0.02110
G1 X135.980 Y94.470 E0.03609
G1 X136.460 Y95.226 E0.02809
G1 X136.693 Y96.100 E0.02835
G1 X136.693 Y113.900 E0.55812
G1 X136.460 Y114.773 E0.02831
G1 X136.014 Y115.494 E0.02658
G1 X135.509 Y115.999 E0.02241
G1 X135.133 Y116.283 E0.01477
G1 X133.912 Y116.693 E0.04038
G1 X116.100 Y116.693 E0.55849
G1 X115.227 Y116.460 E0.02831
G1 X114.506 Y116.014 E0.02658
G1 X114.001 Y115.509 E0.02241
G1 X113.717 Y115.133 E0.01477
G1 X113.307 Y113.912 E0.04038
G1 X113.307 Y96.100 E0.55849
G1 X113.540 Y95.227 E0.02831
G1 X113.986 Y94.506 E0.02658
G1 X114.491 Y94.001 E0.02241
G1 X114.796 Y93.771 E0.01198
G1 F8640
G1 X116.088 Y93.307 E-0.31702
G1 X120.475 Y93.308 E-1.01298
G1 E-0.07000 F2100.00000
G1 Z0.400 F10800.000
G1 X116.119 Y93.684
G1 Z0.200
G1 E1.40000 F2100.00000
G1 F1200
G1 X133.877 Y93.688 E0.55679
G1 X134.401 Y93.799 E0.01681
G1 X134.932 Y94.041 E0.01829
G1 X135.709 Y94.733 E0.03263
G1 X136.104 Y95.354 E0.02306
G1 X136.316 Y96.126 E0.02510
G1 X136.316 Y113.874 E0.55650
G1 X136.104 Y114.646 E0.02508
G1 X135.732 Y115.242 E0.02203
G1 X135.252 Y115.723 E0.02132
G1 X134.931 Y115.963 E0.01257
G1 X133.881 Y116.316 E0.03472
G1 X116.126 Y116.316 E0.55671
G1 X115.354 Y116.104 E0.02508
G1 X114.758 Y115.732 E0.02203
G1 X114.277 Y115.252 E0.02132
G1 X114.037 Y114.931 E0.01257
G1 X113.684 Y113.881 E0.03472
G1 X113.684 Y96.126 E0.55671
G1 X113.896 Y95.354 E0.02508
G1 X114.268 Y94.758 E0.02203
G1 X114.748 Y94.277 E0.02132
G1 X115.069 Y94.037 E0.01257
G1 X116.062 Y93.703 E0.03285
G1 X116.150 Y94.061 F10800.000
G1 F1200
G1 X133.856 Y94.065 E0.55516
G1 X134.299 Y94.163 E0.01423
G1 X134.747 Y94.370 E0.01548
G1 X135.437 Y94.995 E0.02920
G1 X135.749 Y95.484 E0.01818
G1 X135.939 Y96.153 E0.02179
G1 X135.939 Y113.847 E0.55481
G1 X135.749 Y114.516 E0.02179
G1 X135.451 Y114.990 E0.01755
G1 X134.995 Y115.446 E0.02022
G1 X134.730 Y115.643 E0.01034
G1 X133.851 Y115.939 E0.02911
G1 X116.153 Y115.939 E0.55491
G1 X115.484 Y115.749 E0.02179
G1 X115.010 Y115.451 E0.01755
G1 X114.554 Y114.995 E0.02022
G1 X114.357 Y114.730 E0.01034
G1 X114.061 Y113.851 E0.02911
G1 X114.061 Y96.153 E0.55491
G1 X114.251 Y95.484 E0.02179
G1 X114.549 Y95.010 E0.01755
G1 X115.005 Y94.554 E0.02022
G1 X115.270 Y94.357 E0.01034
G1 X116.093 Y94.081 E0.02723
G1 X116.180 Y94.439 F10800.000
G1 F1200
G1 X133.833 Y94.442 E0.55349
G1 X134.193 Y94.525 E0.01157
G1 X134.558 Y94.698 E0.01268
G1 X135.164 Y95.256 E0.02580
G1 X135.396 Y95.617 E0.01347
G1 X135.561 Y96.181 E0.01841
G1 X135.561 Y113.819 E0.55305
G1 X135.395 Y114.383 E0.01842
G1 X135.170 Y114.738 E0.01318
G1 X134.739 Y115.169 E0.01911
G1 X134.531 Y115.321 E0.00808
G1 X133.820 Y115.561 E0.02354
G1 X116.181 Y115.561 E0.55306
G1 X115.617 Y115.395 E0.01842
G1 X115.262 Y115.170 E0.01318
G1 X114.831 Y114.739 E0.01911
G1 X114.679 Y114.531 E0.00808
G1 X114.439 Y113.820 E0.02354
G1 X114.439 Y96.181 E0.55306
G1 X114.605 Y95.617 E0.01842
G1 X114.830 Y95.262 E0.01318
G1 X115.261 Y94.831 E0.01911
G1 X115.469 Y94.679 E0.00808
G1 X116.124 Y94.458 E0.02167
G1 X115.666 Y95.001 F10800.000
G1 F1200
G1 X116.211 Y94.816 E0.01806
G1 X133.811 Y94.819 E0.55184
G1 X134.050 Y94.875 E0.00767
G1 X134.370 Y95.026 E0.01109
G1 X134.888 Y95.514 E0.02233
G1 X135.044 Y95.755 E0.00898
G1 X135.184 Y96.210 E0.01495
G1 X135.184 Y113.790 E0.55120
G1 X135.044 Y114.246 E0.01496
G1 X134.890 Y114.485 E0.00892
G1 X134.484 Y114.891 E0.01800
G1 X134.334 Y114.999 E0.00579
G1 X133.789 Y115.184 E0.01806
G1 X116.210 Y115.184 E0.55116
G1 X115.754 Y115.044 E0.01496
G1 X115.515 Y114.890 E0.00892
G1 X115.109 Y114.484 E0.01800
G1 X115.001 Y114.334 E0.00579
G1 X114.816 Y113.789 E0.01806
G1 X114.816 Y96.210 E0.55116
G1 X114.956 Y95.754 E0.01496
G1 X115.110 Y95.515 E0.00892
G1 X115.516 Y95.109 E0.01800
G1 X115.617 Y95.036 E0.00391
G1 X115.860 Y95.325 F10800.000
G1 F1200
G1 X116.243 Y95.193 E0.01269
G1 X133.789 Y95.196 E0.55014
G1 X133.906 Y95.224 E0.00377
G1 X134.179 Y95.353 E0.00947
G1 X134.611 Y95.770 E0.01880
G1 X134.694 Y95.898 E0.00479
G1 X134.807 Y96.242 E0.01136
G1 X134.807 Y113.758 E0.54921
G1 X134.694 Y114.102 E0.01136
G1 X134.610 Y114.232 E0.00484
G1 X134.229 Y114.612 E0.01686
G1 X134.140 Y114.675 E0.00345
G1 X133.757 Y114.807 E0.01270
G1 X116.242 Y114.807 E0.54917
G1 X115.898 Y114.694 E0.01136
G1 X115.768 Y114.610 E0.00484
G1 X115.388 Y114.229 E0.01686
G1 X115.325 Y114.140 E0.00345
G1 X115.193 Y113.757 E0.01270
G1 X115.193 Y96.242 E0.54917
G1 X115.306 Y95.898 E0.01136
G1 X115.390 Y95.768 E0.00484
G1 X115.811 Y95.359 E0.01841
G1 X116.050 Y95.651 F10800.000
G1 F1200
G1 X116.277 Y95.570 E0.00757
G1 X133.737 Y95.570 E0.54746
G1 X133.988 Y95.679 E0.00856
G1 X134.331 Y96.023 E0.01522
G1 X134.430 Y96.277 E0.00856
G1 X134.430 Y113.723 E0.54701
G1 X134.331 Y113.977 E0.00856
G1 X133.977 Y114.331 E0.01566
G1 X133.723 Y114.430 E0.00856
G1 X116.277 Y114.430 E0.54701
G1 X116.023 Y114.331 E0.00856
G1 X115.669 Y113.977 E0.01566
G1 X115.570 Y113.723 E0.00856
G1 X115.570 Y96.277 E0.54701
M73 Q36 S2
M73 P36 R2
G1 X115.669 Y96.023 E0.00856
G1 X116.003 Y95.689 E0.01480
G1 X116.250 Y95.976 F10800.000
G1 F1200
G1 X116.319 Y95.947 E0.00235
G1 X133.681 Y95.947 E0.54439
G1 X133.750 Y95.976 E0.00235
G1 X134.024 Y96.250 E0.01215
G1 X134.053 Y96.319 E0.00235
G1 X134.053 Y113.681 E0.54439
G1 X134.024 Y113.750 E0.00235
G1 X133.750 Y114.024 E0.01215
G1 X133.681 Y114.053 E0.00235
G1 X116.319 Y114.053 E0.54439
G1 X116.250 Y114.024 E0.00235
G1 X115.976 Y113.750 E0.01215
G1 X115.947 Y113.681 E0.00235
G1 X115.947 Y96.319 E0.54439
G1 X115.976 Y96.250 E0.00235
G1 X116.207 Y96.018 E0.01027
G1 X116.434 Y96.324 F10800.000
G1 F1200
G1 X133.566 Y96.324 E0.53714
G1 X133.676 Y96.434 E0.00490
G1 X133.676 Y113.566 E0.53714
G1 X133.566 Y113.676 E0.00490
G1 X116.434 Y113.676 E0.53714
G1 X116.324 Y113.566 E0.00490
G1 X116.324 Y96.434 E0.53714
G1 X116.392 Y96.366 E0.00302
G1 X116.722 Y96.722 F10800.000
G1 F1200
G1 X133.278 Y96.722 E0.51907
G1 X133.278 Y113.278 E0.51907
G1 X116.722 Y113.278 E0.51907
G1 X116.722 Y96.782 E0.51719
G1 X117.109 Y96.826 F10800.000
G1 F8640
G1 X122.482 Y96.762 E-1.33000
G1 E-0.07000 F2100.00000
G1 Z0.400 F10800.000
G1 X125.372 Y105.372
G1 Z0.200
G1 E1.40000 F2100.00000
G1 F1200
G1 X132.533 Y105.372 E0.22454
G1 X132.533 Y112.533 E0.22454
G1 X125.372 Y112.533 E0.22454
G1 X125.372 Y105.432 E0.22266
G1 X125.268 Y104.986 F10800.000
G1 X125.372 Y104.628
G1 F1200
G1 X125.372 Y97.467 E0.22454
G1 X132.533 Y97.467 E0.22454
G1 X132.533 Y104.628 E0.22454
G1 X125.432 Y104.628 E0.22266
G1 X124.986 Y104.732 F10800.000
G1 X124.628 Y104.628
G1 F1200
G1 X117.467 Y104.628 E0.22454
G1 X117.467 Y97.467 E0.22454
G1 X124.628 Y97.467 E0.22454
G1 X124.628 Y104.568 E0.22266
G1 X124.732 Y105.014 F10800.000
G1 X124.628 Y105.372
G1 F1200
G1 X124.628 Y112.533 E0.22454
G1 X117.467 Y112.533 E0.22454
G1 X117.467 Y105.372 E0.22454
G1 X124.568 Y105.372 E0.22266
G1 X125.014 Y105.268 F10800.000
G1 X124.817 Y105.000
G1 F1200
G1 X117.140 Y105.000 E0.23420
G1 X117.094 Y104.817 E0.00577
G1 X117.094 Y97.278 E0.23000
G1 X117.126 Y97.126 E0.00474
G1 X117.278 Y97.094 E0.00474
G1 X124.817 Y97.094 E0.23000
G1 X124.908 Y97.117 E0.00325
G1 X125.000 Y97.140 E0.00361
G1 X125.000 Y97.209 E0.00262
G1 X125.000 Y97.278 E0.00236
G1 X125.000 Y104.908 E0.23280
G1 X125.000 Y105.000 E0.00367
G1 X124.954 Y105.000 E0.00198
G1 X124.908 Y105.000 E0.00183
G1 X124.862 Y105.000 E0.00169
G1 X124.817 Y105.000 E0.00154
G1 X125.000 Y105.000 F10800.000
G1 F1200
G1 X125.092 Y105.000 E0.00367
G1 X132.722 Y105.000 E0.23280
G1 X132.791 Y105.000 E0.00236
G1 X132.860 Y105.000 E0.00262
G1 X132.883 Y105.092 E0.00361
G1 X132.905 Y105.183 E0.00325
G1 X132.905 Y112.722 E0.23000
G1 X132.874 Y112.874 E0.00474
G1 X132.722 Y112.905 E0.00474
G1 X125.183 Y112.905 E0.23000
G1 X125.000 Y112.860 E0.00577
G1 X124.817 Y112.905 E0.00577
G1 X117.278 Y112.905 E0.23000
G1 X117.126 Y112.874 E0.00474
G1 X117.094 Y112.722 E0.00474
G1 X117.094 Y105.183 E0.23000
G1 X117.117 Y105.092 E0.00325
G1 X117.140 Y105.000 E0.00361
G1 F8640
G1 X117.117 Y105.092 E-0.02183
G1 E-1.37817 F2100.00000
G1 Z0.400 F10800.000
G1 X125.000 Y105.000
G1 Z0.200
G1 E1.40000 F2100.00000
G1 F1200
G1 X125.000 Y105.046 E0.00198
G1 X125.000 Y105.092 E0.00183
G1 X125.000 Y105.138 E0.00169
G1 X125.000 Y105.183 E0.00154
G1 X125.000 Y112.860 E0.23420
G1 F8640
G1 X125.000 Y107.100 E-1.33000
G1 E-0.07000 F2100.00000
G1 Z0.400 F10800.000
G1 X132.860 Y105.000
G1 Z0.200
G1 E1.40000 F2100.00000
G1 F1200
G1 X132.883 Y104.908 E0.00361
G1 X132.905 Y104.817 E0.00325
G1 X132.905 Y97.278 E0.23000
G1 X132.874 Y97.126 E0.00474
G1 X132.722 Y97.094 E0.00474
G1 X125.183 Y97.094 E0.23000
G1 X125.000 Y97.140 E0.00577
;BEFORE_LAYER_CHANGE
G92 E0.0
;0.5


G1 F8640
G1 X125.183 Y97.094 E-0.04367
G1 X130.754 Y97.094 E-1.28633
G1 E-0.07000 F2100.00000
G1 Z0.400 F10800.000
G1 Z0.500
;AFTER_LAYER_CHANGE
;0.5
M104 S225 ; set temperature
G1 Z0.700
G1 X117.376 Y112.624
G1 Z0.500
G1 E1.40000 F2100.00000
M204 S800
G1 F912
G1 X117.376 Y105.282 E0.49045
G1 X124.718 Y105.282 E0.49045
G1 X124.718 Y112.624 E0.49045
G1 X117.436 Y112.624 E0.48644
M204 S1000
G1 X116.990 Y112.727 F10800.000
G1 F8640
G1 X117.389 Y106.864 E-1.33000
G1 E-0.07000 F2100.00000
G1 Z0.700 F10800.000
G1 X117.436 Y104.718
G1 Z0.500
G1 E1.40000 F2100.00000
M204 S800
G1 F912
G1 X117.376 Y104.718 E0.00401
G1 X117.376 Y97.377 E0.49045
G1 X124.718 Y97.377 E0.49045
G1 X124.718 Y104.718 E0.49045
G1 X117.496 Y104.718 E0.48244
M204 S1000
G1 X117.421 Y104.776 F10800.000
G1 F8640
G1 X117.376 Y104.718 E-0.02771
G1 X117.376 Y99.078 E-1.30229
G1 E-0.07000 F2100.00000
G1 Z0.700 F10800.000
G1 X132.623 Y97.377
G1 Z0.500
G1 E1.40000 F2100.00000
M204 S800
G1 F912
G1 X132.623 Y104.718 E0.49045
G1 X125.282 Y104.718 E0.49045
G1 X125.282 Y97.377 E0.49045
G1 X132.563 Y97.377 E0.48644
M204 S1000
G1 X133.010 Y97.273 F10800.000
G1 F8640
G1 X132.611 Y103.136 E-1.33000
G1 E-0.07000 F2100.00000
G1 Z0.700 F10800.000
G1 X132.623 Y112.624
G1 Z0.500
G1 E1.40000 F2100.00000
M204 S800
G1 F912
G1 X125.282 Y112.624 E0.49045
G1 X125.282 Y105.282 E0.49045
G1 X132.623 Y105.282 E0.49045
G1 X132.623 Y112.564 E0.48644
M204 S1000
G1 X132.727 Y113.010 F10800.000
G1 X133.188 Y113.187
M204 S800
G1 F912
G1 X116.812 Y113.187 E1.09394
G1 X116.812 Y96.812 E1.09394
G1 X133.188 Y96.812 E1.09394
G1 X133.188 Y113.127 E1.08993
M204 S1000
G1 X132.801 Y113.084 F10800.000
G1 X132.899 Y112.899
G1 F912
G1 X132.866 Y112.905 E0.00038
G1
G1 X125.000 Y112.896 E0.07690
G1
G1 X117.134 Y112.905 E0.07690
G1
G1 X117.101 Y112.899 E0.00038
G1
G1 X117.094 Y112.866 E0.00038
G1
G1 X117.094 Y105.039 E0.07652
G1
G1 X117.104 Y105.000 E0.00049
G1
G1 X117.094 Y97.134 E0.07690
G1
G1 X117.101 Y97.101 E0.00038
G1
G1 X117.134 Y97.094 E0.00038
G1
G1 X124.961 Y97.094 E0.07652
G1
G1 X125.000 Y97.104 E0.00049
G1
G1 X125.000 Y97.134 E0.00036
G1
G1 X125.000 Y105.000 E0.07690
G1
G1 X124.961 Y105.000 E0.00054
G1
G1 X117.104 Y105.000 E0.07681
G1 F8640
G1 X122.864 Y105.000 E-1.33000
G1 E-0.07000 F2100.00000
G1 Z0.700 F10800.000
G1 X125.000 Y105.000
G1 Z0.500
G1 E1.40000 F2100.00000
G1 F912
G1 X132.866 Y105.000 E0.07690
G1
G1 X132.896 Y105.000 E0.00036
G1
G1 X132.905 Y105.039 E0.00049
G1
G1 X132.905 Y112.866 E0.07652
G1
G1 X132.899 Y112.899 E0.00038
G1 F8640
G1 X132.905 Y112.866 E-0.00766
G1 E-1.39234 F2100.00000
G1 Z0.700 F10800.000
G1 X125.000 Y112.896
