; generated by PrusaSlicer 2.1.0+win64 on 2019-12-18 at 11:08:49 UTC

; 

; external perimeters extrusion width = 0.60mm
; perimeters extrusion width = 0.50mm
; infill extrusion width = 0.50mm
; solid infill extrusion width = 0.50mm
; top infill extrusion width = 0.45mm
; first layer extrusion width = 0.42mm

M73 P0 R3
M73 Q0 S3
M201 X1000 Y1000 Z1000 E5000 ; sets maximum accelerations, mm/sec^2
M203 X200 Y200 Z12 E120 ; sets maximum feedrates, mm/sec
M204 P1250 R1250 T1250 ; sets acceleration (P, T) and retract acceleration (R), mm/sec^2
M205 X8.00 Y8.00 Z0.40 E1.50 ; sets the jerk limits, mm/sec
M205 S0 T0 ; sets the minimum extruding and travel feed rate, mm/sec
M107
M862.3 P "MK3SMMU2S" ; printer model check
M862.1 P0.4 ; nozzle diameter check
M115 U3.8.1 ; tell printer latest fw version
G90 ; use absolute coordinates
M83 ; extruder relative mode
M104 S215 ; set extruder temp
M140 S60 ; set bed temp
Tx
M190 S60 ; wait for bed temp
M109 S215 ; wait for extruder temp
G28 W ; home all without mesh bed level
G80 ; mesh bed leveling

G21 ; set units to millimeters

;go outside print area
G1 Y-3.0 F1000.0
G1 Z0.4 F1000.0
; select extruder
Tc
; purge line
G1 X55.0 F2000.0
G1 Z0.3 F1000.0
G92 E0.0
G1 X240.0 E25.0 F2200.0
M73 Q3 S3
M73 P3 R3
G1 Y-2.0 F1000.0
G1 X55.0 E25 F1400.0
G1 Z0.20 F1000.0
G1 X5.0 E4.0 F1000.0

M221 S95
G92 E0.0
G21 ; set units to millimeters
G90 ; use absolute coordinates
M83 ; use relative distances for extrusion
M900 K30 ; Filament gcode
;BEFORE_LAYER_CHANGE
G92 E0.0
;0.2


G1 E-0.80000 F2100.00000
G1 Z0.600 F10800.000
;AFTER_LAYER_CHANGE
;0.2
G1 X113.965 Y92.354
G1 Z0.200
G1 E0.80000 F2100.00000
M204 S1000
G1 F1200
G1 X115.879 Y91.711 E0.06332
G1 X134.062 Y91.715 E0.57011
G1 X135.010 Y91.899 E0.03028
G1 X135.918 Y92.290 E0.03100
G1 X137.137 Y93.314 E0.04992
G1 X137.904 Y94.477 E0.04369
G1 X138.282 Y95.866 E0.04513
G1 X138.288 Y114.085 E0.57124
G1 X137.957 Y115.402 E0.04257
G1 X137.230 Y116.586 E0.04355
G1 X136.626 Y117.190 E0.02678
G1 X136.035 Y117.646 E0.02340
G1 X134.122 Y118.288 E0.06330
G1 X115.915 Y118.288 E0.57085
G1 X114.598 Y117.957 E0.04257
G1 X113.414 Y117.230 E0.04355
G1 X112.810 Y116.626 E0.02678
G1 X112.354 Y116.035 E0.02340
G1 X111.712 Y114.122 E0.06330
G1 X111.712 Y95.915 E0.57085
G1 X112.043 Y94.598 E0.04257
G1 X112.770 Y93.414 E0.04355
G1 X113.374 Y92.810 E0.02678
G1 X113.917 Y92.391 E0.02152
G1 X114.147 Y92.690 F10800.000
G1 F1200
G1 X115.909 Y92.089 E0.05840
G1 X134.043 Y92.092 E0.56856
G1 X134.916 Y92.265 E0.02791
G1 X135.741 Y92.624 E0.02823
G1 X136.872 Y93.583 E0.04647
G1 X137.571 Y94.657 E0.04018
G1 X137.911 Y95.938 E0.04157
G1 X137.911 Y114.061 E0.56821
G1 X137.599 Y115.280 E0.03946
G1 X136.948 Y116.334 E0.03885
G1 X136.369 Y116.914 E0.02571
G1 X135.831 Y117.327 E0.02127
G1 X134.091 Y117.911 E0.05754
G1 X115.939 Y117.911 E0.56914
G1 X114.720 Y117.599 E0.03946
G1 X113.666 Y116.948 E0.03885
G1 X113.086 Y116.369 E0.02571
G1 X112.673 Y115.831 E0.02127
G1 X112.089 Y114.091 E0.05754
G1 X112.089 Y95.939 E0.56914
G1 X112.401 Y94.720 E0.03946
G1 X113.052 Y93.666 E0.03885
G1 X113.631 Y93.086 E0.02571
G1 X114.099 Y92.727 E0.01849
G1 X114.328 Y93.026 F10800.000
G1 F1200
G1 X114.373 Y92.991 E0.00179
G1 X115.940 Y92.466 E0.05180
G1 X134.024 Y92.469 E0.56700
G1 X134.821 Y92.630 E0.02549
G1 X135.563 Y92.958 E0.02545
G1 X136.605 Y93.851 E0.04302
G1 X137.238 Y94.835 E0.03669
G1 X137.534 Y95.963 E0.03655
G1 X137.534 Y114.037 E0.56673
G1 X137.262 Y115.108 E0.03463
G1 X136.666 Y116.084 E0.03586
G1 X136.111 Y116.638 E0.02460
G1 X135.627 Y117.009 E0.01912
G1 X134.060 Y117.534 E0.05179
G1 X115.963 Y117.534 E0.56745
G1 X114.892 Y117.262 E0.03463
G1 X113.916 Y116.666 E0.03586
G1 X113.362 Y116.111 E0.02460
G1 X112.991 Y115.627 E0.01912
G1 X112.466 Y114.060 E0.05179
G1 X112.466 Y95.963 E0.56745
G1 X112.738 Y94.892 E0.03463
G1 X113.334 Y93.916 E0.03586
G1 X113.889 Y93.362 E0.02460
G1 X114.280 Y93.062 E0.01544
G1 X114.577 Y93.310 F10800.000
G1 F1200
G1 X115.970 Y92.843 E0.04608
G1 X134.004 Y92.846 E0.56543
G1 X134.723 Y92.995 E0.02304
G1 X135.383 Y93.290 E0.02266
G1 X136.337 Y94.117 E0.03960
G1 X136.881 Y94.962 E0.03149
G1 X137.157 Y95.988 E0.03331
G1 X137.157 Y114.013 E0.56516
G1 X136.904 Y114.985 E0.03149
G1 X136.383 Y115.833 E0.03119
G1 X135.853 Y116.363 E0.02350
G1 X135.423 Y116.690 E0.01695
G1 X134.030 Y117.157 E0.04607
G1 X115.987 Y117.157 E0.56572
G1 X115.015 Y116.904 E0.03149
G1 X114.167 Y116.383 E0.03119
G1 X113.637 Y115.853 E0.02350
G1 X113.310 Y115.423 E0.01695
G1 X112.843 Y114.030 E0.04607
G1 X112.843 Y95.987 E0.56572
G1 X113.096 Y95.015 E0.03149
G1 X113.616 Y94.167 E0.03119
G1 X114.147 Y93.637 E0.02350
G1 X114.529 Y93.346 E0.01507
G1 X114.756 Y93.647 F10800.000
G1 F1200
G1 X116.001 Y93.220 E0.04126
G1 X133.985 Y93.223 E0.56387
G1 X134.588 Y93.348 E0.01932
G1 X135.203 Y93.622 E0.02110
G1 X136.067 Y94.382 E0.03609
G1 X136.547 Y95.139 E0.02809
G1 X136.780 Y96.012 E0.02835
G1 X136.780 Y113.988 E0.56361
G1 X136.548 Y114.860 E0.02831
G1 X136.102 Y115.581 E0.02658
G1 X135.596 Y116.087 E0.02241
G1 X135.220 Y116.371 E0.01477
G1 X133.999 Y116.780 E0.04038
G1 X116.012 Y116.780 E0.56397
G1 X115.140 Y116.548 E0.02831
G1 X114.419 Y116.102 E0.02658
G1 X113.913 Y115.596 E0.02241
G1 X113.629 Y115.220 E0.01477
G1 X113.220 Y113.999 E0.04038
G1 X113.220 Y96.012 E0.56397
G1 X113.452 Y95.140 E0.02831
G1 X113.898 Y94.419 E0.02658
G1 X114.404 Y93.913 E0.02241
G1 X114.709 Y93.683 E0.01198
G1 F8640
G1 X116.001 Y93.220 E-0.31702
G1 X117.919 Y93.220 E-0.44298
G1 E-0.04000 F2100.00000
G1 Z0.800 F10800.000
G1 X116.031 Y93.597
G1 Z0.200
G1 E0.80000 F2100.00000
G1 F1200
G1 X133.964 Y93.601 E0.56227
G1 X134.489 Y93.712 E0.01681
G1 X135.020 Y93.953 E0.01829
G1 X135.797 Y94.646 E0.03263
G1 X136.191 Y95.266 E0.02306
G1 X136.403 Y96.038 E0.02510
G1 X136.403 Y113.962 E0.56198
G1 X136.192 Y114.733 E0.02508
G1 X135.820 Y115.330 E0.02203
G1 X135.339 Y115.810 E0.02132
G1 X135.019 Y116.051 E0.01257
G1 X133.969 Y116.403 E0.03472
G1 X116.038 Y116.403 E0.56220
G1 X115.267 Y116.192 E0.02508
G1 X114.670 Y115.820 E0.02203
G1 X114.190 Y115.339 E0.02132
G1 X113.949 Y115.019 E0.01257
G1 X113.597 Y113.969 E0.03472
G1 X113.597 Y96.038 E0.56220
G1 X113.808 Y95.267 E0.02508
G1 X114.180 Y94.670 E0.02203
G1 X114.661 Y94.190 E0.02132
G1 X114.981 Y93.949 E0.01257
G1 X115.975 Y93.616 E0.03285
G1 X116.062 Y93.974 F10800.000
G1 F1200
G1 X133.943 Y93.978 E0.56065
G1 X134.386 Y94.075 E0.01423
G1 X134.834 Y94.283 E0.01548
G1 X135.525 Y94.908 E0.02920
G1 X135.837 Y95.396 E0.01818
G1 X136.026 Y96.065 E0.02179
G1 X136.026 Y113.935 E0.56030
G1 X135.837 Y114.604 E0.02179
G1 X135.539 Y115.078 E0.01755
G1 X135.083 Y115.534 E0.02022
G1 X134.818 Y115.730 E0.01034
G1 X133.938 Y116.026 E0.02911
G1 X116.065 Y116.026 E0.56040
G1 X115.396 Y115.837 E0.02179
G1 X114.922 Y115.539 E0.01755
G1 X114.466 Y115.083 E0.02022
G1 X114.270 Y114.818 E0.01034
G1 X113.974 Y113.938 E0.02911
G1 X113.974 Y96.065 E0.56040
G1 X114.163 Y95.396 E0.02179
G1 X114.461 Y94.922 E0.01755
G1 X114.917 Y94.466 E0.02022
G1 X115.182 Y94.270 E0.01034
G1 X116.005 Y93.993 E0.02723
G1 X116.093 Y94.351 F10800.000
G1 F1200
G1 X133.921 Y94.355 E0.55898
G1 X134.280 Y94.438 E0.01157
G1 X134.646 Y94.610 E0.01268
G1 X135.251 Y95.168 E0.02580
G1 X135.483 Y95.530 E0.01347
G1 X135.649 Y96.093 E0.01841
G1 X135.649 Y113.907 E0.55854
G1 X135.483 Y114.471 E0.01842
G1 X135.258 Y114.825 E0.01318
G1 X134.827 Y115.256 E0.01911
G1 X134.619 Y115.409 E0.00808
G1 X133.907 Y115.649 E0.02354
G1 X116.093 Y115.649 E0.55855
G1 X115.529 Y115.483 E0.01842
G1 X115.175 Y115.258 E0.01318
G1 X114.744 Y114.827 E0.01911
G1 X114.591 Y114.619 E0.00808
G1 X114.351 Y113.907 E0.02354
G1 X114.351 Y96.093 E0.55855
G1 X114.517 Y95.529 E0.01842
G1 X114.742 Y95.175 E0.01318
G1 X115.173 Y94.744 E0.01911
G1 X115.381 Y94.591 E0.00808
G1 X116.036 Y94.370 E0.02167
G1 X115.579 Y94.913 F10800.000
G1 F1200
G1 X116.124 Y94.728 E0.01806
G1 X133.899 Y94.732 E0.55732
G1 X134.137 Y94.787 E0.00767
G1 X134.457 Y94.938 E0.01109
G1 X134.976 Y95.426 E0.02233
G1 X135.131 Y95.667 E0.00898
G1 X135.272 Y96.123 E0.01495
G1 X135.272 Y113.877 E0.55669
G1 X135.131 Y114.333 E0.01496
G1 X134.977 Y114.573 E0.00892
G1 X134.571 Y114.979 E0.01800
G1 X134.421 Y115.087 E0.00579
G1 X133.876 Y115.272 E0.01806
G1 X116.123 Y115.272 E0.55665
G1 X115.667 Y115.131 E0.01496
G1 X115.427 Y114.977 E0.00892
G1 X115.021 Y114.571 E0.01800
G1 X114.913 Y114.421 E0.00579
G1 X114.728 Y113.876 E0.01806
G1 X114.728 Y96.123 E0.55665
G1 X114.869 Y95.667 E0.01496
G1 X115.023 Y95.427 E0.00892
G1 X115.429 Y95.021 E0.01800
G1 X115.530 Y94.949 E0.00391
G1 X115.773 Y95.237 F10800.000
G1 F1200
G1 X116.156 Y95.105 E0.01269
G1 X133.877 Y95.109 E0.55563
G1 X133.994 Y95.136 E0.00377
G1 X134.267 Y95.265 E0.00947
G1 X134.698 Y95.682 E0.01880
G1 X134.782 Y95.810 E0.00479
G1 X134.895 Y96.154 E0.01136
G1 X134.895 Y113.846 E0.55470
G1 X134.782 Y114.190 E0.01136
G1 X134.697 Y114.319 E0.00484
G1 X134.317 Y114.700 E0.01686
G1 X134.227 Y114.763 E0.00345
G1 X133.844 Y114.895 E0.01270
G1 X116.154 Y114.895 E0.55465
G1 X115.810 Y114.782 E0.01136
G1 X115.681 Y114.697 E0.00484
G1 X115.300 Y114.317 E0.01686
G1 X115.237 Y114.227 E0.00345
G1 X115.105 Y113.844 E0.01270
G1 X115.105 Y96.154 E0.55465
G1 X115.218 Y95.810 E0.01136
G1 X115.303 Y95.681 E0.00484
G1 X115.724 Y95.272 E0.01841
G1 X115.962 Y95.564 F10800.000
G1 F1200
G1 X116.189 Y95.482 E0.00757
G1 X133.825 Y95.482 E0.55294
G1 X134.075 Y95.592 E0.00856
G1 X134.418 Y95.935 E0.01522
G1 X134.518 Y96.189 E0.00856
G1 X134.518 Y113.811 E0.55250
G1 X134.418 Y114.065 E0.00856
G1 X134.065 Y114.418 E0.01566
G1 X133.811 Y114.518 E0.00856
G1 X116.189 Y114.518 E0.55250
G1 X115.935 Y114.418 E0.00856
G1 X115.582 Y114.065 E0.01566
G1 X115.482 Y113.811 E0.00856
G1 X115.482 Y96.189 E0.55250
M73 Q35 S2
M73 P35 R2
G1 X115.582 Y95.935 E0.00856
G1 X115.916 Y95.601 E0.01480
G1 X116.162 Y95.888 F10800.000
G1 F1200
G1 X116.231 Y95.859 E0.00235
G1 X133.769 Y95.859 E0.54987
G1 X133.838 Y95.888 E0.00235
G1 X134.112 Y96.162 E0.01215
G1 X134.141 Y96.231 E0.00235
G1 X134.141 Y113.769 E0.54987
G1 X134.112 Y113.838 E0.00235
G1 X133.838 Y114.112 E0.01215
G1 X133.769 Y114.141 E0.00235
G1 X116.231 Y114.141 E0.54987
G1 X116.162 Y114.112 E0.00235
G1 X115.888 Y113.838 E0.01215
G1 X115.859 Y113.769 E0.00235
G1 X115.859 Y96.231 E0.54987
G1 X115.888 Y96.162 E0.00235
G1 X116.120 Y95.931 E0.01027
G1 X116.347 Y96.236 F10800.000
G1 F1200
G1 X133.653 Y96.236 E0.54262
G1 X133.764 Y96.347 E0.00490
G1 X133.764 Y113.653 E0.54262
G1 X133.653 Y113.764 E0.00490
G1 X116.347 Y113.764 E0.54262
G1 X116.236 Y113.653 E0.00490
G1 X116.236 Y96.347 E0.54262
G1 X116.304 Y96.279 E0.00302
G1 X116.635 Y96.635 F10800.000
G1 F1200
G1 X133.365 Y96.635 E0.52456
G1 X133.365 Y113.365 E0.52456
G1 X116.635 Y113.365 E0.52456
G1 X116.635 Y96.695 E0.52268
G1 X117.021 Y96.739 F10800.000
G1 X117.012 Y97.012
G1 F1200
G1 X132.988 Y97.012 E0.50091
G1 X132.988 Y112.988 E0.50091
G1 X117.012 Y112.988 E0.50091
G1 X117.012 Y97.072 E0.49903
G1 F8640
G1 X120.303 Y97.060 E-0.76000
G1 E-0.04000 F2100.00000
G1 Z0.800 F10800.000
G1 X125.378 Y105.378
G1 Z0.200
G1 E0.80000 F2100.00000
G1 F1200
G1 X132.609 Y105.378 E0.22672
G1 X132.609 Y112.609 E0.22672
G1 X125.378 Y112.609 E0.22672
G1 X125.378 Y105.438 E0.22484
G1 X125.274 Y104.992 F10800.000
G1 X125.001 Y105.001
G1 F1200
G1 X132.986 Y105.001 E0.25037
G1 X132.986 Y112.986 E0.25037
G1 X125.001 Y112.986 E0.25037
G1 X125.001 Y105.061 E0.24849
G1 X125.378 Y104.622 F10800.000
G1 F1200
G1 X125.378 Y97.391 E0.22672
G1 X132.609 Y97.391 E0.22672
G1 X132.609 Y104.622 E0.22672
G1 X125.438 Y104.622 E0.22484
G1 X124.992 Y104.726 F10800.000
G1 F8640
G1 X125.411 Y101.331 E-0.76000
G1 E-0.04000 F2100.00000
G1 Z0.800 F10800.000
G1 X125.001 Y97.014
G1 Z0.200
G1 E0.80000 F2100.00000
G1 F1200
G1 X132.986 Y97.014 E0.25037
G1 X132.986 Y104.999 E0.25037
G1 X125.001 Y104.999 E0.25037
G1 X125.001 Y97.074 E0.24849
G1 X124.622 Y97.391 F10800.000
G1 F1200
G1 X124.622 Y104.622 E0.22672
G1 X117.391 Y104.622 E0.22672
G1 X117.391 Y97.391 E0.22672
G1 X124.562 Y97.391 E0.22484
G1 X125.008 Y97.287 F10800.000
G1 F8640
G1 X124.589 Y100.682 E-0.76000
G1 E-0.04000 F2100.00000
G1 Z0.800 F10800.000
G1 X117.014 Y97.014
G1 Z0.200
G1 E0.80000 F2100.00000
G1 F1200
G1 X124.999 Y97.014 E0.25037
G1 X124.999 Y104.999 E0.25037
G1 X117.014 Y104.999 E0.25037
G1 X117.014 Y97.074 E0.24849
G1 F8640
G1 X120.305 Y97.049 E-0.76000
G1 E-0.04000 F2100.00000
G1 Z0.800 F10800.000
G1 X117.391 Y105.378
G1 Z0.200
G1 E0.80000 F2100.00000
G1 F1200
G1 X124.622 Y105.378 E0.22672
G1 X124.622 Y112.609 E0.22672
G1 X117.391 Y112.609 E0.22672
G1 X117.391 Y105.438 E0.22484
G1 X117.287 Y104.992 F10800.000
G1 X117.014 Y105.001
G1 F1200
G1 X124.999 Y105.001 E0.25037
G1 X124.999 Y112.986 E0.25037
G1 X117.014 Y112.986 E0.25037
G1 X117.014 Y105.061 E0.24849
M106 S255
;BEFORE_LAYER_CHANGE
G92 E0.0
;0.5


G1 F8640
G1 X120.305 Y105.036 E-0.76000
G1 E-0.04000 F2100.00000
G1 Z0.800 F10800.000
;AFTER_LAYER_CHANGE
;0.5
G1 X117.301 Y105.288
G1 Z0.500
G1 E0.80000 F2100.00000
M204 S800
G1 F900
G1 X124.712 Y105.288 E0.49509
G1 X124.712 Y112.699 E0.49509
G1 X117.301 Y112.699 E0.49509
G1 X117.301 Y105.348 E0.49109
M204 S1000
G1 X117.197 Y104.902 F10800.000
G1 F8640
G1 X120.592 Y105.321 E-0.76000
G1 E-0.04000 F2100.00000
G1 Z1.100 F10800.000
G1 X117.301 Y97.301
G1 Z0.500
G1 E0.80000 F2100.00000
M204 S800
G1 F900
G1 X124.712 Y97.301 E0.49509
G1 X124.712 Y104.712 E0.49509
G1 X117.301 Y104.712 E0.49509
G1 X117.301 Y97.361 E0.49109
M204 S1000
G1 X117.197 Y96.915 F10800.000
G1 F8640
G1 X120.592 Y97.334 E-0.76000
G1 E-0.04000 F2100.00000
G1 Z1.100 F10800.000
G1 X125.288 Y97.361
G1 Z0.500
G1 E0.80000 F2100.00000
M204 S800
G1 F900
G1 X125.288 Y97.301 E0.00401
G1 X132.699 Y97.301 E0.49509
G1 X132.699 Y104.712 E0.49509
G1 X125.288 Y104.712 E0.49509
G1 X125.288 Y97.421 E0.48708
M204 S1000
G1 X125.230 Y97.346 F10800.000
G1 F8640
G1 X125.288 Y97.301 E-0.02771
G1 X128.459 Y97.301 E-0.73229
G1 E-0.04000 F2100.00000
G1 Z1.100 F10800.000
G1 X125.288 Y105.288
G1 Z0.500
G1 E0.80000 F2100.00000
M204 S800
G1 F900
G1 X132.699 Y105.288 E0.49509
G1 X132.699 Y112.699 E0.49509
G1 X125.288 Y112.699 E0.49509
G1 X125.288 Y105.348 E0.49109
M204 S1000
G1 X125.184 Y104.902 F10800.000
G1 F8640
G1 X128.579 Y105.321 E-0.76000
G1 E-0.04000 F2100.00000
G1 Z1.100 F10800.000
G1 X133.275 Y113.275
G1 Z0.500
G1 E0.80000 F2100.00000
M204 S800
G1 F900
G1 X116.725 Y113.275 E1.10563
G1 X116.725 Y96.725 E1.10563
G1 X133.275 Y96.725 E1.10563
G1 X133.275 Y113.215 E1.10162
M204 S1000
G1 X132.889 Y113.171 F10800.000
G1 X132.942 Y112.987
G1 F900
G1 X125.000 Y112.976 E0.08953
G1
G1 X117.058 Y112.987 E0.08953
G1
G1 X117.021 Y112.979 E0.00043
G1 X117.013 Y112.942 E0.00043
G1 X117.013 Y105.045 E0.08902
G1
G1 X117.024 Y105.000 E0.00066
G1
G1 X117.013 Y97.058 E0.08953
G1
G1 X117.021 Y97.021 E0.00043
G1 X117.058 Y97.013 E0.00043
G1 X124.955 Y97.013 E0.08902
G1
G1 X125.000 Y97.024 E0.00066
G1
G1 X125.000 Y97.058 E0.00048
G1
G1 X125.000 Y105.000 E0.08953
G1
G1 X124.955 Y105.000 E0.00072
G1
G1 X117.024 Y105.000 E0.08940
G1 F8640
G1 X120.316 Y105.000 E-0.76000
G1 E-0.04000 F2100.00000
G1 Z1.100 F10800.000
G1 X125.000 Y105.000
G1 Z0.500
G1 E0.80000 F2100.00000
G1 F900
G1 X132.942 Y105.000 E0.08953
G1
G1 X132.976 Y105.000 E0.00048
G1
G1 X132.987 Y105.045 E0.00066
G1
G1 X132.987 Y112.942 E0.08902
G1 X132.979 Y112.979 E0.00043
G1 X132.942 Y112.987 E0.00043
G1 F8640
G1 X132.979 Y112.979 E-0.00883
G1 X132.987 Y112.942 E-0.00883
G1 X132.987 Y109.727 E-0.74234
G1 E-0.04000 F2100.00000
G1 Z1.100 F10800.000
G1 X125.000 Y112.976
G1 Z0.500
G1 E0.80000 F2100.00000
G1 F900
G1 X125.000 Y105.045 E0.08940
G1
G1 X125.000 Y105.000 E0.00072
G1 F8640
G1 X125.000 Y105.045 E-0.01043
G1 E-0.78957 F2100.00000
G1 Z1.100 F10800.000
G1 X125.000 Y97.024
G1 Z0.500
G1 E0.80000 F2100.00000
G1 F900
G1 X132.942 Y97.013 E0.08953
G1
G1 X132.979 Y97.021 E0.00043
G1 X132.987 Y97.058 E0.00043
G1 X132.987 Y104.955 E0.08902
G1
G1 X132.976 Y105.000 E0.00066
;BEFORE_LAYER_CHANGE
G92 E0.0
;0.8


G1 F8640
G1 X132.987 Y104.955 E-0.01076
G1 E-0.78924 F2100.00000
G1 Z1.100 F10800.000
