; generated by PrusaSlicer 2.1.0+win64 on 2019-12-17 at 16:01:06 UTC

; 

; external perimeters extrusion width = 0.60mm
; perimeters extrusion width = 0.50mm
; infill extrusion width = 0.50mm
; solid infill extrusion width = 0.50mm
; top infill extrusion width = 0.45mm
; first layer extrusion width = 0.42mm

M73 P0 R4
M73 Q0 S4
M201 X1000 Y1000 Z1000 E5000 ; sets maximum accelerations, mm/sec^2
M203 X200 Y200 Z12 E120 ; sets maximum feedrates, mm/sec
M204 P1250 R1250 T1250 ; sets acceleration (P, T) and retract acceleration (R), mm/sec^2
M205 X8.00 Y8.00 Z0.40 E1.50 ; sets the jerk limits, mm/sec
M205 S0 T0 ; sets the minimum extruding and travel feed rate, mm/sec
M107
M862.3 P "MK3SMMU2S" ; printer model check
M862.1 P0.4 ; nozzle diameter check
M115 U3.8.1 ; tell printer latest fw version
G90 ; use absolute coordinates
M83 ; extruder relative mode
M104 S260 ; set extruder temp
M140 S105 ; set bed temp
Tx
M190 S105 ; wait for bed temp
M109 S260 ; wait for extruder temp
G28 W ; home all without mesh bed level
G80 ; mesh bed leveling

G21 ; set units to millimeters

;go outside print area
G1 Y-3.0 F1000.0
G1 Z0.4 F1000.0
; select extruder
Tc
; purge line
G1 X55.0 F2000.0
G1 Z0.3 F1000.0
G92 E0.0
G1 X240.0 E25.0 F2200.0
M73 Q2 S4
M73 P2 R4
G1 Y-2.0 F1000.0
G1 X55.0 E25 F1400.0
G1 Z0.20 F1000.0
G1 X5.0 E4.0 F1000.0

M221 S95
G92 E0.0
G21 ; set units to millimeters
G90 ; use absolute coordinates
M83 ; use relative distances for extrusion
M900 K20 ; Filament gcode
;BEFORE_LAYER_CHANGE
G92 E0.0
;0.2


G1 E-0.80000 F2100.00000
G1 Z0.600 F10800.000
;AFTER_LAYER_CHANGE
;0.2
G1 X114.154 Y93.488
G1 Z0.200
G1 E0.80000 F2100.00000
M204 S1000
G1 F1200
G1 X114.699 Y93.303 E0.01896
G1 X135.324 Y93.307 E0.67902
G1 X135.562 Y93.362 E0.00805
G1 X135.882 Y93.513 E0.01165
G1 X136.401 Y94.001 E0.02344
G1 X136.556 Y94.242 E0.00943
G1 X136.697 Y94.698 E0.01570
G1 X136.697 Y115.302 E0.67835
G1 X136.556 Y115.758 E0.01570
G1 X136.402 Y115.998 E0.00937
G1 X135.996 Y116.404 E0.01890
G1 X135.846 Y116.512 E0.00608
G1 X135.301 Y116.697 E0.01896
G1 X114.698 Y116.697 E0.67831
G1 X114.242 Y116.556 E0.01570
G1 X114.002 Y116.402 E0.00937
G1 X113.596 Y115.996 E0.01890
G1 X113.488 Y115.846 E0.00608
G1 X113.303 Y115.301 E0.01896
G1 X113.303 Y94.698 E0.67831
G1 X113.444 Y94.242 E0.01570
G1 X113.598 Y94.002 E0.00937
G1 X114.004 Y93.596 E0.01890
G1 X114.105 Y93.524 E0.00410
G1 X114.348 Y93.812 F10800.000
G1 F1200
G1 X114.731 Y93.680 E0.01333
G1 X135.302 Y93.684 E0.67724
G1 X135.419 Y93.711 E0.00396
G1 X135.692 Y93.840 E0.00995
G1 X136.123 Y94.257 E0.01974
G1 X136.207 Y94.385 E0.00503
G1 X136.320 Y94.729 E0.01193
G1 X136.320 Y115.271 E0.67626
G1 X136.207 Y115.615 E0.01193
G1 X136.122 Y115.744 E0.00508
G1 X135.742 Y116.125 E0.01771
G1 X135.652 Y116.188 E0.00362
G1 X135.269 Y116.320 E0.01333
G1 X114.729 Y116.320 E0.67622
G1 X114.385 Y116.207 E0.01193
G1 X114.256 Y116.122 E0.00508
G1 X113.875 Y115.742 E0.01771
G1 X113.812 Y115.652 E0.00362
G1 X113.680 Y115.269 E0.01333
G1 X113.680 Y94.729 E0.67622
G1 X113.793 Y94.385 E0.01193
G1 X113.878 Y94.256 E0.00508
G1 X114.299 Y93.847 E0.01933
G1 X114.537 Y94.139 F10800.000
G1 F1200
G1 X114.764 Y94.057 E0.00795
G1 X135.250 Y94.057 E0.67442
G1 X135.500 Y94.167 E0.00899
G1 X135.843 Y94.510 E0.01598
G1 X135.943 Y94.764 E0.00899
G1 X135.943 Y115.236 E0.67395
G1 X135.843 Y115.490 E0.00899
G1 X135.490 Y115.843 E0.01645
G1 X135.236 Y115.943 E0.00899
G1 X114.764 Y115.943 E0.67395
G1 X114.510 Y115.843 E0.00899
G1 X114.157 Y115.490 E0.01645
G1 X114.057 Y115.236 E0.00899
G1 X114.057 Y94.764 E0.67395
G1 X114.157 Y94.510 E0.00899
G1 X114.491 Y94.176 E0.01554
G1 X114.737 Y94.463 F10800.000
G1 F1200
G1 X114.806 Y94.434 E0.00247
G1 X135.194 Y94.434 E0.67119
G1 X135.263 Y94.463 E0.00247
G1 X135.537 Y94.737 E0.01275
G1 X135.566 Y94.806 E0.00247
G1 X135.566 Y115.194 E0.67119
G1 X135.537 Y115.263 E0.00247
G1 X135.263 Y115.537 E0.01275
G1 X135.194 Y115.566 E0.00247
G1 X114.806 Y115.566 E0.67119
G1 X114.737 Y115.537 E0.00247
G1 X114.463 Y115.263 E0.01275
G1 X114.434 Y115.194 E0.00247
G1 X114.434 Y94.806 E0.67119
G1 X114.463 Y94.737 E0.00247
G1 X114.695 Y94.506 E0.01078
G1 X114.922 Y94.811 F10800.000
G1 F1200
G1 X135.078 Y94.811 E0.66358
G1 X135.189 Y94.922 E0.00514
G1 X135.189 Y115.078 E0.66358
G1 X135.078 Y115.189 E0.00514
G1 X114.922 Y115.189 E0.66358
G1 X114.811 Y115.078 E0.00514
G1 X114.811 Y94.922 E0.66358
G1 X114.879 Y94.854 E0.00317
G1 X115.210 Y95.210 F10800.000
G1 F1200
G1 X134.790 Y95.210 E0.64461
G1 X134.790 Y114.790 E0.64461
G1 X115.210 Y114.790 E0.64461
G1 X115.210 Y95.270 E0.64264
G1 X115.596 Y95.314 F10800.000
G1 X115.590 Y95.590
G1 F1200
G1 X134.410 Y95.590 E0.61959
G1 X134.410 Y114.410 E0.61959
G1 X115.590 Y114.410 E0.61959
G1 X115.590 Y95.650 E0.61762
G1 X115.486 Y95.204 F10800.000
;BEFORE_LAYER_CHANGE
G92 E0.0
;0.5


G1 F8640
G1 X118.881 Y95.640 E-0.76000
G1 E-0.04000 F2100.00000
G1 Z0.800 F10800.000
;AFTER_LAYER_CHANGE
;0.5
M140 S110 ; set bed temperature
G1 X118.881 Y95.500
G1 Z0.500
G1 E0.80000 F2100.00000
M204 S800
G1 F900
G1 X134.500 Y95.500 E1.09558
G1 X134.500 Y114.500 E1.33277
G1 X115.500 Y114.500 E1.33277
G1 X115.500 Y95.500 E1.33277
G1 X118.821 Y95.500 E0.23298
M204 S1000
G1 X118.905 Y95.101 F10800.000
G1 F8640
G1 X122.113 Y95.500 E-0.76000
G1 E-0.04000 F2100.00000
G1 Z1.100 F10800.000
G1 X115.300 Y95.300
G1 Z0.500
G1 E0.80000 F2100.00000
M204 S800
G1 F900
G1 X134.700 Y95.300 E1.36083
G1 X134.700 Y114.700 E1.36083
G1 X115.300 Y114.700 E1.36083
G1 X115.300 Y95.360 E1.35662
M204 S1000
G1 X115.686 Y95.404 F10800.000
;BEFORE_LAYER_CHANGE
G92 E0.0
;0.8


G1 F8640
G1 X118.591 Y95.350 E-0.76000
G1 E-0.04000 F2100.00000
G1 Z1.100 F10800.000
;AFTER_LAYER_CHANGE
;0.8
G1 X115.786 Y95.786
G1 Z0.800
G1 E0.80000 F2100.00000
M204 S800
G1 F3000
G1 X134.214 Y95.786 E1.05135
G1 X134.214 Y114.214 E1.05135
G1 X115.786 Y114.214 E1.05135
G1 X115.786 Y95.846 E1.04793
M204 S1000
G1 X115.300 Y95.300 F10800.000
M204 S800
G1 F2100
G1 X134.700 Y95.300 E1.36083
G1 X134.700 Y114.700 E1.36083
G1 X115.300 Y114.700 E1.36083
G1 X115.300 Y95.360 E1.35662
M204 S1000
G1 X115.686 Y95.404 F10800.000
G1 F8640
G1 X118.591 Y95.350 E-0.76000
G1 E-0.04000 F2100.00000
G1 Z1.400 F10800.000
G1 X115.916 Y113.883
G1 Z0.800
G1 E0.80000 F2100.00000
G1 F1800
G1 X133.886 Y113.883 E0.95721
G1 X133.886 Y113.439 E0.02366
G1 X116.114 Y113.439 E0.94666
G1 X116.114 Y112.995 E0.02366
G1 X133.886 Y112.995 E0.94666
G1 X133.886 Y112.551 E0.02366
G1 X116.114 Y112.551 E0.94666
M73 Q27 S3
M73 P27 R3
G1 X116.114 Y112.107 E0.02366
G1 X133.886 Y112.107 E0.94666
G1 X133.886 Y111.663 E0.02366
G1 X116.114 Y111.663 E0.94666
G1 X116.114 Y111.218 E0.02366
G1 X133.886 Y111.218 E0.94666
G1 X133.886 Y110.774 E0.02366
G1 X116.114 Y110.774 E0.94666
G1 X116.114 Y110.330 E0.02366
G1 X133.886 Y110.330 E0.94666
G1 X133.886 Y109.886 E0.02366
G1 X116.114 Y109.886 E0.94666
G1 X116.114 Y109.442 E0.02366
G1 X133.886 Y109.442 E0.94666
G1 X133.886 Y108.998 E0.02366
G1 X116.114 Y108.998 E0.94666
G1 X116.114 Y108.553 E0.02366
G1 X133.886 Y108.553 E0.94666
G1 X133.886 Y108.109 E0.02366
G1 X116.114 Y108.109 E0.94666
G1 X116.114 Y107.665 E0.02366
G1 X133.886 Y107.665 E0.94666
G1 X133.886 Y107.221 E0.02366
G1 X116.114 Y107.221 E0.94666
G1 X116.114 Y106.777 E0.02366
G1 X133.886 Y106.777 E0.94666
G1 X133.886 Y106.333 E0.02366
G1 X116.114 Y106.333 E0.94666
G1 X116.114 Y105.888 E0.02366
G1 X133.886 Y105.888 E0.94666
G1 X133.886 Y105.444 E0.02366
G1 X116.114 Y105.444 E0.94666
G1 X116.114 Y105.000 E0.02366
G1 X133.886 Y105.000 E0.94666
G1 X133.886 Y104.556 E0.02366
G1 X116.114 Y104.556 E0.94666
G1 X116.114 Y104.112 E0.02366
G1 X133.886 Y104.112 E0.94666
G1 X133.886 Y103.668 E0.02366
G1 X116.114 Y103.668 E0.94666
G1 X116.114 Y103.223 E0.02366
G1 X133.886 Y103.223 E0.94666
G1 X133.886 Y102.779 E0.02366
G1 X116.114 Y102.779 E0.94666
G1 X116.114 Y102.335 E0.02366
G1 X133.886 Y102.335 E0.94666
G1 X133.886 Y101.891 E0.02366
G1 X116.114 Y101.891 E0.94666
G1 X116.114 Y101.447 E0.02366
G1 X133.886 Y101.447 E0.94666
G1 X133.886 Y101.003 E0.02366
G1 X116.114 Y101.003 E0.94666
G1 X116.114 Y100.558 E0.02366
G1 X133.886 Y100.558 E0.94666
G1 X133.886 Y100.114 E0.02366
G1 X116.114 Y100.114 E0.94666
G1 X116.114 Y99.670 E0.02366
G1 X133.886 Y99.670 E0.94666
G1 X133.886 Y99.226 E0.02366
G1 X116.114 Y99.226 E0.94666
G1 X116.114 Y98.782 E0.02366
G1 X133.886 Y98.782 E0.94666
G1 X133.886 Y98.337 E0.02366
G1 X116.114 Y98.337 E0.94666
G1 X116.114 Y97.893 E0.02366
G1 X133.886 Y97.893 E0.94666
G1 X133.886 Y97.449 E0.02366
G1 X116.114 Y97.449 E0.94666
G1 X116.114 Y97.005 E0.02366
G1 X133.886 Y97.005 E0.94666
G1 X133.886 Y96.561 E0.02366
G1 X116.114 Y96.561 E0.94666
G1 X116.114 Y96.117 E0.02366
G1 X134.084 Y96.117 E0.95721
;BEFORE_LAYER_CHANGE
G92 E0.0
;1.1


G1 F8640
G1 X130.792 Y96.117 E-0.76000
G1 E-0.04000 F2100.00000
G1 Z1.400 F10800.000
;AFTER_LAYER_CHANGE
;1.1
G1 X134.214 Y95.786
G1 Z1.100
G1 E0.80000 F2100.00000
M204 S800
G1 F3000
G1 X134.214 Y114.214 E1.05135
G1 X115.786 Y114.214 E1.05135
G1 X115.786 Y95.786 E1.05135
G1 X134.154 Y95.786 E1.04793
M204 S1000
G1 X134.700 Y95.300 F10800.000
M204 S800
G1 F2100
G1 X134.700 Y114.700 E1.36083
G1 X115.300 Y114.700 E1.36083
G1 X115.300 Y95.300 E1.36083
G1 X134.640 Y95.300 E1.35662
M204 S1000
G1 X134.596 Y95.686 F10800.000
G1 F8640
G1 X134.650 Y98.591 E-0.76000
G1 E-0.04000 F2100.00000
G1 Z1.700 F10800.000
G1 X116.799 Y95.916
G1 Z1.100
G1 E0.80000 F2100.00000
M204 S1250
G1 F4129
G1 X116.112 Y96.603 E0.05549
G1 X116.112 Y97.220 E0.03529
G1 X117.220 Y96.112 E0.08955
G1 X117.837 Y96.112 E0.03529
G1 X116.112 Y97.837 E0.13946
G1 X116.112 Y98.455 E0.03529
G1 X118.455 Y96.112 E0.18937
G1 X119.072 Y96.112 E0.03529
G1 X116.112 Y99.072 E0.23927
G1 X116.112 Y99.689 E0.03529
G1 X119.689 Y96.112 E0.28918
G1 X120.307 Y96.112 E0.03529
G1 X116.112 Y100.307 E0.33909
G1 X116.112 Y100.924 E0.03529
G1 X120.924 Y96.112 E0.38900
G1 X121.541 Y96.112 E0.03529
G1 X116.112 Y101.541 E0.43890
G1 X116.112 Y102.159 E0.03529
G1 X122.159 Y96.112 E0.48881
G1 X122.776 Y96.112 E0.03529
G1 X116.112 Y102.776 E0.53872
G1 X116.112 Y103.393 E0.03529
G1 X123.393 Y96.112 E0.58863
G1 X124.011 Y96.112 E0.03529
G1 X116.112 Y104.011 E0.63853
G1 X116.112 Y104.628 E0.03529
G1 X124.628 Y96.112 E0.68844
G1 X125.245 Y96.112 E0.03529
G1 X116.112 Y105.245 E0.73835
G1 X116.112 Y105.862 E0.03529
G1 X125.862 Y96.112 E0.78826
G1 X126.480 Y96.112 E0.03529
G1 X116.112 Y106.480 E0.83816
G1 X116.112 Y107.097 E0.03529
G1 X127.097 Y96.112 E0.88807
G1 X127.714 Y96.112 E0.03529
G1 X116.112 Y107.714 E0.93798
G1 X116.112 Y108.332 E0.03529
G1 X128.332 Y96.112 E0.98788
G1 X128.949 Y96.112 E0.03529
G1 X116.112 Y108.949 E1.03779
G1 X116.112 Y109.566 E0.03529
G1 X129.566 Y96.112 E1.08770
G1 X130.184 Y96.112 E0.03529
G1 X116.112 Y110.184 E1.13761
G1 X116.112 Y110.801 E0.03529
G1 X130.801 Y96.112 E1.18751
G1 X131.418 Y96.112 E0.03529
G1 X116.112 Y111.418 E1.23742
G1 X116.112 Y112.036 E0.03529
G1 X132.036 Y96.112 E1.28733
G1 X132.653 Y96.112 E0.03529
G1 X116.112 Y112.653 E1.33724
G1 X116.112 Y113.270 E0.03529
G1 X133.270 Y96.112 E1.38714
G1 X133.888 Y96.112 E0.03529
G1 X116.112 Y113.888 E1.43705
G1 X116.730 Y113.888 E0.03529
G1 X133.888 Y96.730 E1.38715
G1 X133.888 Y97.347 E0.03529
G1 X117.347 Y113.888 E1.33724
G1 X117.964 Y113.888 E0.03529
G1 X133.888 Y97.964 E1.28733
G1 X133.888 Y98.582 E0.03529
G1 X118.582 Y113.888 E1.23743
G1 X119.199 Y113.888 E0.03529
G1 X133.888 Y99.199 E1.18752
G1 X133.888 Y99.816 E0.03529
G1 X119.816 Y113.888 E1.13761
G1 X120.434 Y113.888 E0.03529
G1 X133.888 Y100.434 E1.08770
G1 X133.888 Y101.051 E0.03529
G1 X121.051 Y113.888 E1.03780
G1 X121.668 Y113.888 E0.03529
G1 X133.888 Y101.668 E0.98789
G1 X133.888 Y102.285 E0.03529
G1 X122.285 Y113.888 E0.93798
G1 X122.903 Y113.888 E0.03529
G1 X133.888 Y102.903 E0.88808
G1 X133.888 Y103.520 E0.03529
G1 X123.520 Y113.888 E0.83817
G1 X124.137 Y113.888 E0.03529
G1 X133.888 Y104.137 E0.78826
G1 X133.888 Y104.755 E0.03529
G1 X124.755 Y113.888 E0.73835
G1 X125.372 Y113.888 E0.03529
G1 X133.888 Y105.372 E0.68845
G1 X133.888 Y105.989 E0.03529
G1 X125.989 Y113.888 E0.63854
G1 X126.607 Y113.888 E0.03529
G1 X133.888 Y106.607 E0.58863
G1 X133.888 Y107.224 E0.03529
G1 X127.224 Y113.888 E0.53872
G1 X127.841 Y113.888 E0.03529
G1 X133.888 Y107.841 E0.48882
G1 X133.888 Y108.459 E0.03529
G1 X128.459 Y113.888 E0.43891
G1 X129.076 Y113.888 E0.03529
G1 X133.888 Y109.076 E0.38900
G1 X133.888 Y109.693 E0.03529
G1 X129.693 Y113.888 E0.33909
G1 X130.311 Y113.888 E0.03529
G1 X133.888 Y110.311 E0.28919
G1 X133.888 Y110.928 E0.03529
G1 X130.928 Y113.888 E0.23928
G1 X131.545 Y113.888 E0.03529
G1 X133.888 Y111.545 E0.18937
G1 X133.888 Y112.163 E0.03529
G1 X132.163 Y113.888 E0.13946
G1 X132.780 Y113.888 E0.03529
G1 X133.888 Y112.780 E0.08956
G1 X133.888 Y113.397 E0.03529
G1 X133.201 Y114.084 E0.05550
M204 S1000
M106 S51
;BEFORE_LAYER_CHANGE
G92 E0.0
;1.4


G1 F8640
G1 X133.888 Y113.397 E-0.22416
G1 X133.888 Y112.780 E-0.14254
G1 X132.780 Y113.888 E-0.36173
G1 X132.643 Y113.888 E-0.03157
G1 E-0.04000 F2100.00000
G1 Z1.700 F10800.000
;AFTER_LAYER_CHANGE
;1.4
G1 X134.214 Y114.214
G1 Z1.400
G1 E0.80000 F2100.00000
M204 S800
G1 F3000
G1 X115.786 Y114.214 E1.05135
G1 X115.786 Y95.786 E1.05135
G1 X134.214 Y95.786 E1.05135
G1 X134.214 Y114.154 E1.04793
M204 S1000
G1 X134.700 Y114.700 F10800.000
M204 S800
G1 F2100
G1 X115.300 Y114.700 E1.36083
G1 X115.300 Y95.300 E1.36083
G1 X134.700 Y95.300 E1.36083
G1 X134.700 Y114.640 E1.35662
M204 S1000
G1 X134.314 Y114.596 F10800.000
G1 F8640
G1 X131.409 Y114.650 E-0.76000
G1 E-0.04000 F2100.00000
G1 Z2.000 F10800.000
G1 X134.084 Y96.799
G1 Z1.400
G1 E0.80000 F2100.00000
M204 S1250
G1 F4127
G1 X133.397 Y96.112 E0.05550
G1 X132.780 Y96.112 E0.03529
G1 X133.888 Y97.220 E0.08956
G1 X133.888 Y97.837 E0.03529
G1 X132.163 Y96.112 E0.13946
G1 X131.545 Y96.112 E0.03529
G1 X133.888 Y98.455 E0.18937
G1 X133.888 Y99.072 E0.03529
G1 X130.928 Y96.112 E0.23928
G1 X130.311 Y96.112 E0.03529
G1 X133.888 Y99.689 E0.28919
G1 X133.888 Y100.307 E0.03529
G1 X129.693 Y96.112 E0.33909
G1 X129.076 Y96.112 E0.03529
G1 X133.888 Y100.924 E0.38900
G1 X133.888 Y101.541 E0.03529
G1 X128.459 Y96.112 E0.43891
G1 X127.841 Y96.112 E0.03529
G1 X133.888 Y102.159 E0.48882
G1 X133.888 Y102.776 E0.03529
G1 X127.224 Y96.112 E0.53872
G1 X126.607 Y96.112 E0.03529
G1 X133.888 Y103.393 E0.58863
G1 X133.888 Y104.011 E0.03529
G1 X125.989 Y96.112 E0.63854
G1 X125.372 Y96.112 E0.03529
G1 X133.888 Y104.628 E0.68845
G1 X133.888 Y105.245 E0.03529
G1 X124.755 Y96.112 E0.73835
G1 X124.137 Y96.112 E0.03529
G1 X133.888 Y105.863 E0.78826
G1 X133.888 Y106.480 E0.03529
G1 X123.520 Y96.112 E0.83817
G1 X122.903 Y96.112 E0.03529
G1 X133.888 Y107.097 E0.88808
G1 X133.888 Y107.715 E0.03529
G1 X122.285 Y96.112 E0.93798
G1 X121.668 Y96.112 E0.03529
G1 X133.888 Y108.332 E0.98789
G1 X133.888 Y108.949 E0.03529
G1 X121.051 Y96.112 E1.03780
G1 X120.434 Y96.112 E0.03529
G1 X133.888 Y109.566 E1.08770
G1 X133.888 Y110.184 E0.03529
G1 X119.816 Y96.112 E1.13761
G1 X119.199 Y96.112 E0.03529
G1 X133.888 Y110.801 E1.18752
G1 X133.888 Y111.418 E0.03529
G1 X118.582 Y96.112 E1.23743
G1 X117.964 Y96.112 E0.03529
G1 X133.888 Y112.036 E1.28733
G1 X133.888 Y112.653 E0.03529
G1 X117.347 Y96.112 E1.33724
G1 X116.730 Y96.112 E0.03529
G1 X133.888 Y113.270 E1.38715
G1 X133.888 Y113.888 E0.03529
G1 X116.112 Y96.112 E1.43705
G1 X116.112 Y96.730 E0.03529
G1 X133.270 Y113.888 E1.38714
G1 X132.653 Y113.888 E0.03529
G1 X116.112 Y97.347 E1.33724
G1 X116.112 Y97.964 E0.03529
G1 X132.036 Y113.888 E1.28733
G1 X131.418 Y113.888 E0.03529
G1 X116.112 Y98.582 E1.23742
G1 X116.112 Y99.199 E0.03529
G1 X130.801 Y113.888 E1.18751
G1 X130.184 Y113.888 E0.03529
G1 X116.112 Y99.816 E1.13761
G1 X116.112 Y100.434 E0.03529
G1 X129.566 Y113.888 E1.08770
G1 X128.949 Y113.888 E0.03529
G1 X116.112 Y101.051 E1.03779
G1 X116.112 Y101.668 E0.03529
G1 X128.332 Y113.888 E0.98788
G1 X127.714 Y113.888 E0.03529
G1 X116.112 Y102.286 E0.93798
G1 X116.112 Y102.903 E0.03529
G1 X127.097 Y113.888 E0.88807
G1 X126.480 Y113.888 E0.03529
M73 Q52 S2
G1 X116.112 Y103.520 E0.83816
M73 P52 R2
