; generated by PrusaSlicer 2.1.0+win64 on 2019-12-18 at 11:07:48 UTC

; 

; external perimeters extrusion width = 0.60mm
; perimeters extrusion width = 0.50mm
; infill extrusion width = 0.50mm
; solid infill extrusion width = 0.50mm
; top infill extrusion width = 0.45mm
; first layer extrusion width = 0.42mm

M73 P0 R3
M73 Q0 S3
M201 X1000 Y1000 Z1000 E5000 ; sets maximum accelerations, mm/sec^2
M203 X200 Y200 Z12 E120 ; sets maximum feedrates, mm/sec
M204 P1250 R1250 T1250 ; sets acceleration (P, T) and retract acceleration (R), mm/sec^2
M205 X8.00 Y8.00 Z0.40 E1.50 ; sets the jerk limits, mm/sec
M205 S0 T0 ; sets the minimum extruding and travel feed rate, mm/sec
M107
M862.3 P "MK3SMMU2S" ; printer model check
M862.1 P0.4 ; nozzle diameter check
M115 U3.8.1 ; tell printer latest fw version
G90 ; use absolute coordinates
M83 ; extruder relative mode
M104 S260 ; set extruder temp
M140 S105 ; set bed temp
Tx
M190 S105 ; wait for bed temp
M109 S260 ; wait for extruder temp
G28 W ; home all without mesh bed level
G80 ; mesh bed leveling

G21 ; set units to millimeters

;go outside print area
G1 Y-3.0 F1000.0
G1 Z0.4 F1000.0
; select extruder
Tc
; purge line
G1 X55.0 F2000.0
G1 Z0.3 F1000.0
G92 E0.0
G1 X240.0 E25.0 F2200.0
M73 Q3 S3
M73 P3 R3
G1 Y-2.0 F1000.0
G1 X55.0 E25 F1400.0
G1 Z0.20 F1000.0
G1 X5.0 E4.0 F1000.0

M221 S95
G92 E0.0
G21 ; set units to millimeters
G90 ; use absolute coordinates
M83 ; use relative distances for extrusion
M900 K20 ; Filament gcode
;BEFORE_LAYER_CHANGE
G92 E0.0
;0.2


G1 E-0.80000 F2100.00000
G1 Z0.600 F10800.000
;AFTER_LAYER_CHANGE
;0.2
G1 X113.527 Y91.917
G1 Z0.200
G1 E0.80000 F2100.00000
M204 S1000
G1 F1200
G1 X115.441 Y91.274 E0.06648
G1 X134.499 Y91.278 E0.62742
G1 X135.447 Y91.462 E0.03179
G1 X136.356 Y91.852 E0.03256
G1 X137.574 Y92.876 E0.05240
G1 X138.365 Y94.093 E0.04779
G1 X138.726 Y95.476 E0.04705
G1 X138.726 Y114.522 E0.62705
G1 X138.394 Y115.839 E0.04470
G1 X137.668 Y117.023 E0.04573
G1 X137.064 Y117.627 E0.02812
G1 X136.473 Y118.083 E0.02457
G1 X134.559 Y118.726 E0.06647
G1 X115.478 Y118.726 E0.62820
G1 X114.161 Y118.394 E0.04470
G1 X112.977 Y117.668 E0.04573
G1 X112.373 Y117.064 E0.02812
G1 X111.917 Y116.473 E0.02457
G1 X111.274 Y114.559 E0.06647
G1 X111.274 Y95.478 E0.62820
G1 X111.606 Y94.161 E0.04470
G1 X112.332 Y92.977 E0.04573
G1 X112.936 Y92.373 E0.02812
G1 X113.480 Y91.954 E0.02260
G1 X113.709 Y92.252 F10800.000
G1 F1200
G1 X115.472 Y91.651 E0.06132
G1 X134.480 Y91.655 E0.62580
G1 X135.353 Y91.827 E0.02930
G1 X136.179 Y92.187 E0.02964
G1 X137.309 Y93.145 E0.04880
G1 X138.009 Y94.219 E0.04219
G1 X138.349 Y95.501 E0.04365
G1 X138.349 Y114.498 E0.62543
G1 X138.036 Y115.717 E0.04143
G1 X137.386 Y116.772 E0.04079
G1 X136.806 Y117.352 E0.02700
G1 X136.268 Y117.765 E0.02233
G1 X134.529 Y118.349 E0.06041
G1 X115.502 Y118.349 E0.62640
G1 X114.283 Y118.036 E0.04143
G1 X113.228 Y117.386 E0.04079
G1 X112.648 Y116.806 E0.02700
G1 X112.235 Y116.268 E0.02233
G1 X111.651 Y114.529 E0.06041
G1 X111.651 Y95.502 E0.62640
G1 X111.964 Y94.283 E0.04143
G1 X112.614 Y93.228 E0.04079
G1 X113.194 Y92.648 E0.02700
G1 X113.662 Y92.289 E0.01942
G1 X113.891 Y92.588 F10800.000
G1 F1200
G1 X113.936 Y92.554 E0.00188
G1 X115.502 Y92.028 E0.05439
G1 X134.461 Y92.032 E0.62416
G1 X135.258 Y92.193 E0.02677
G1 X136.001 Y92.520 E0.02672
G1 X137.042 Y93.413 E0.04517
G1 X137.675 Y94.398 E0.03853
G1 X137.972 Y95.525 E0.03838
G1 X137.972 Y114.475 E0.62387
G1 X137.699 Y115.545 E0.03636
G1 X137.103 Y116.521 E0.03765
G1 X136.548 Y117.076 E0.02583
G1 X136.064 Y117.446 E0.02007
G1 X134.498 Y117.972 E0.05438
G1 X115.525 Y117.972 E0.62463
G1 X114.455 Y117.699 E0.03636
G1 X113.479 Y117.103 E0.03765
G1 X112.924 Y116.548 E0.02583
G1 X112.554 Y116.064 E0.02007
G1 X112.028 Y114.498 E0.05438
G1 X112.028 Y95.525 E0.62463
G1 X112.301 Y94.455 E0.03636
G1 X112.897 Y93.479 E0.03765
G1 X113.452 Y92.924 E0.02583
G1 X113.843 Y92.625 E0.01622
G1 X114.139 Y92.873 F10800.000
G1 F1200
G1 X115.533 Y92.405 E0.04839
G1 X134.441 Y92.409 E0.62251
G1 X135.161 Y92.558 E0.02419
G1 X135.821 Y92.852 E0.02379
G1 X136.775 Y93.680 E0.04158
G1 X137.319 Y94.524 E0.03307
G1 X137.595 Y95.550 E0.03498
G1 X137.595 Y114.450 E0.62223
G1 X137.342 Y115.423 E0.03307
G1 X136.821 Y116.270 E0.03275
G1 X136.291 Y116.800 E0.02468
G1 X135.861 Y117.127 E0.01780
G1 X134.467 Y117.595 E0.04838
G1 X115.550 Y117.595 E0.62281
G1 X114.577 Y117.342 E0.03307
G1 X113.730 Y116.821 E0.03275
G1 X113.200 Y116.291 E0.02468
G1 X112.873 Y115.861 E0.01780
G1 X112.405 Y114.467 E0.04838
G1 X112.405 Y95.550 E0.62281
G1 X112.658 Y94.577 E0.03307
G1 X113.179 Y93.730 E0.03275
G1 X113.709 Y93.200 E0.02468
G1 X114.092 Y92.909 E0.01583
G1 X114.319 Y93.209 F10800.000
G1 F1200
G1 X115.563 Y92.782 E0.04332
G1 X134.422 Y92.786 E0.62087
G1 X135.026 Y92.910 E0.02029
G1 X135.640 Y93.185 E0.02216
G1 X136.505 Y93.945 E0.03789
G1 X136.985 Y94.701 E0.02950
G1 X137.218 Y95.575 E0.02977
G1 X137.218 Y114.425 E0.62060
G1 X136.985 Y115.298 E0.02973
G1 X136.539 Y116.019 E0.02791
G1 X136.034 Y116.524 E0.02353
G1 X135.658 Y116.808 E0.01551
G1 X134.437 Y117.218 E0.04240
G1 X115.575 Y117.218 E0.62098
G1 X114.702 Y116.985 E0.02973
G1 X113.981 Y116.539 E0.02791
G1 X113.476 Y116.034 E0.02353
G1 X113.192 Y115.658 E0.01551
G1 X112.782 Y114.437 E0.04240
G1 X112.782 Y95.575 E0.62098
G1 X113.015 Y94.702 E0.02973
G1 X113.461 Y93.981 E0.02791
G1 X113.966 Y93.476 E0.02353
G1 X114.271 Y93.246 E0.01257
G1 F8640
G1 X115.563 Y92.782 E-0.31702
G1 X117.482 Y92.783 E-0.44298
G1 E-0.04000 F2100.00000
G1 Z0.800 F10800.000
G1 X115.594 Y93.159
G1 Z0.200
G1 E0.80000 F2100.00000
G1 F1200
G1 X134.402 Y93.163 E0.61919
G1 X134.926 Y93.274 E0.01765
G1 X135.457 Y93.516 E0.01920
G1 X136.234 Y94.208 E0.03426
G1 X136.629 Y94.829 E0.02421
G1 X136.841 Y95.601 E0.02635
G1 X136.841 Y114.399 E0.61889
G1 X136.629 Y115.171 E0.02634
G1 X136.257 Y115.767 E0.02313
G1 X135.777 Y116.248 E0.02238
G1 X135.456 Y116.488 E0.01320
G1 X134.406 Y116.841 E0.03646
G1 X115.601 Y116.841 E0.61912
G1 X114.829 Y116.629 E0.02634
G1 X114.233 Y116.257 E0.02313
G1 X113.752 Y115.777 E0.02238
G1 X113.512 Y115.456 E0.01320
G1 X113.159 Y114.406 E0.03646
G1 X113.159 Y95.601 E0.61912
G1 X113.371 Y94.829 E0.02634
G1 X113.743 Y94.233 E0.02313
G1 X114.223 Y93.752 E0.02238
G1 X114.544 Y93.512 E0.01320
G1 X115.537 Y93.178 E0.03449
G1 X115.625 Y93.536 F10800.000
G1 F1200
G1 X134.381 Y93.540 E0.61749
G1 X134.824 Y93.638 E0.01494
G1 X135.272 Y93.845 E0.01625
G1 X135.962 Y94.470 E0.03066
G1 X136.274 Y94.959 E0.01909
G1 X136.464 Y95.628 E0.02288
G1 X136.464 Y114.372 E0.61712
G1 X136.274 Y115.041 E0.02288
G1 X135.976 Y115.515 E0.01843
G1 X135.520 Y115.971 E0.02123
G1 X135.255 Y116.168 E0.01086
G1 X134.376 Y116.464 E0.03056
G1 X115.628 Y116.464 E0.61722
G1 X114.959 Y116.274 E0.02288
G1 X114.485 Y115.976 E0.01843
G1 X114.029 Y115.520 E0.02123
G1 X113.832 Y115.255 E0.01086
G1 X113.536 Y114.376 E0.03056
G1 X113.536 Y95.628 E0.61722
G1 X113.726 Y94.959 E0.02288
G1 X114.024 Y94.485 E0.01843
G1 X114.480 Y94.029 E0.02123
G1 X114.745 Y93.832 E0.01086
G1 X115.568 Y93.556 E0.02859
G1 X115.655 Y93.914 F10800.000
G1 F1200
G1 X134.358 Y93.917 E0.61574
G1 X134.718 Y94.000 E0.01215
G1 X135.083 Y94.173 E0.01332
G1 X135.689 Y94.731 E0.02709
G1 X135.921 Y95.092 E0.01414
G1 X136.086 Y95.656 E0.01934
G1 X136.086 Y114.344 E0.61527
G1 X135.920 Y114.908 E0.01934
G1 X135.695 Y115.263 E0.01384
G1 X135.264 Y115.694 E0.02007
G1 X135.056 Y115.846 E0.00849
G1 X134.345 Y116.086 E0.02472
G1 X115.656 Y116.086 E0.61528
G1 X115.092 Y115.920 E0.01934
G1 X114.737 Y115.695 E0.01384
G1 X114.306 Y115.264 E0.02007
G1 X114.154 Y115.056 E0.00849
G1 X113.914 Y114.345 E0.02472
G1 X113.914 Y95.656 E0.61528
G1 X114.080 Y95.092 E0.01934
G1 X114.305 Y94.737 E0.01384
G1 X114.736 Y94.306 E0.02007
G1 X114.944 Y94.154 E0.00849
G1 X115.599 Y93.933 E0.02275
G1 X115.141 Y94.476 F10800.000
G1 F1200
G1 X115.686 Y94.291 E0.01896
G1 X134.336 Y94.294 E0.61400
G1 X134.575 Y94.350 E0.00805
G1 X134.895 Y94.501 E0.01165
G1 X135.413 Y94.989 E0.02344
G1 X135.569 Y95.230 E0.00943
G1 X135.709 Y95.685 E0.01570
G1 X135.709 Y114.315 E0.61333
G1 X135.569 Y114.771 E0.01570
G1 X135.415 Y115.010 E0.00937
G1 X135.009 Y115.416 E0.01890
G1 X134.859 Y115.524 E0.00608
G1 X134.314 Y115.709 E0.01896
G1 X115.685 Y115.709 E0.61329
G1 X115.229 Y115.569 E0.01570
G1 X114.990 Y115.415 E0.00937
G1 X114.584 Y115.009 E0.01890
G1 X114.476 Y114.859 E0.00608
G1 X114.291 Y114.314 E0.01896
G1 X114.291 Y95.685 E0.61329
G1 X114.431 Y95.229 E0.01570
G1 X114.585 Y94.990 E0.00937
G1 X114.991 Y94.584 E0.01890
G1 X115.092 Y94.511 E0.00410
G1 X115.335 Y94.800 F10800.000
G1 F1200
G1 X115.718 Y94.668 E0.01333
G1 X134.314 Y94.671 E0.61222
G1 X134.431 Y94.699 E0.00396
G1 X134.704 Y94.828 E0.00995
G1 X135.136 Y95.245 E0.01974
G1 X135.219 Y95.373 E0.00503
G1 X135.332 Y95.717 E0.01193
G1 X135.332 Y114.283 E0.61124
G1 X135.219 Y114.627 E0.01193
G1 X135.135 Y114.757 E0.00508
G1 X134.754 Y115.137 E0.01771
G1 X134.665 Y115.200 E0.00362
G1 X134.282 Y115.332 E0.01333
G1 X115.717 Y115.332 E0.61119
G1 X115.373 Y115.219 E0.01193
G1 X115.243 Y115.135 E0.00508
G1 X114.863 Y114.754 E0.01771
G1 X114.800 Y114.665 E0.00362
G1 X114.668 Y114.282 E0.01333
G1 X114.668 Y95.717 E0.61119
G1 X114.781 Y95.373 E0.01193
G1 X114.865 Y95.243 E0.00508
G1 X115.286 Y94.834 E0.01933
G1 X115.525 Y95.126 F10800.000
G1 F1200
G1 X115.752 Y95.045 E0.00795
G1 X134.262 Y95.045 E0.60940
G1 X134.513 Y95.154 E0.00899
G1 X134.856 Y95.498 E0.01598
G1 X134.955 Y95.752 E0.00899
G1 X134.955 Y114.248 E0.60893
M73 Q35 S2
M73 P35 R2
G1 X134.856 Y114.502 E0.00899
G1 X134.502 Y114.856 E0.01645
G1 X134.248 Y114.955 E0.00899
G1 X115.752 Y114.955 E0.60893
G1 X115.498 Y114.856 E0.00899
G1 X115.144 Y114.502 E0.01645
G1 X115.045 Y114.248 E0.00899
G1 X115.045 Y95.752 E0.60893
G1 X115.144 Y95.498 E0.00899
G1 X115.478 Y95.164 E0.01554
G1 X115.725 Y95.451 F10800.000
G1 F1200
G1 X115.794 Y95.422 E0.00247
G1 X134.206 Y95.422 E0.60617
G1 X134.275 Y95.451 E0.00247
G1 X134.549 Y95.725 E0.01275
G1 X134.578 Y95.794 E0.00247
G1 X134.578 Y114.206 E0.60617
G1 X134.549 Y114.275 E0.00247
G1 X134.275 Y114.549 E0.01275
G1 X134.206 Y114.578 E0.00247
G1 X115.794 Y114.578 E0.60617
G1 X115.725 Y114.549 E0.00247
G1 X115.451 Y114.275 E0.01275
G1 X115.422 Y114.206 E0.00247
G1 X115.422 Y95.794 E0.60617
G1 X115.451 Y95.725 E0.00247
G1 X115.682 Y95.493 E0.01078
G1 X115.909 Y95.799 F10800.000
G1 F1200
G1 X134.091 Y95.799 E0.59856
G1 X134.201 Y95.909 E0.00514
G1 X134.201 Y114.091 E0.59856
G1 X134.091 Y114.201 E0.00514
G1 X115.909 Y114.201 E0.59856
G1 X115.799 Y114.091 E0.00514
G1 X115.799 Y95.909 E0.59856
G1 X115.867 Y95.841 E0.00317
G1 X116.197 Y96.197 F10800.000
G1 F1200
G1 X133.803 Y96.197 E0.57959
G1 X133.803 Y113.803 E0.57959
G1 X116.197 Y113.803 E0.57959
G1 X116.197 Y96.257 E0.57762
G1 X116.584 Y96.301 F10800.000
G1 X116.575 Y96.575
G1 F1200
G1 X133.425 Y96.575 E0.55476
G1 X133.425 Y113.425 E0.55476
G1 X116.575 Y113.425 E0.55476
G1 X116.575 Y96.635 E0.55279
G1 F8640
G1 X119.866 Y96.623 E-0.76000
G1 E-0.04000 F2100.00000
G1 Z0.800 F10800.000
G1 X125.408 Y105.408
G1 Z0.200
G1 E0.80000 F2100.00000
G1 F1200
G1 X132.986 Y105.408 E0.24950
G1 X132.986 Y112.986 E0.24950
G1 X125.408 Y112.986 E0.24950
G1 X125.408 Y105.468 E0.24752
G1 X125.304 Y105.022 F10800.000
G1 X125.031 Y105.031
G1 F1200
G1 X133.364 Y105.031 E0.27433
G1 X133.364 Y113.364 E0.27433
G1 X125.031 Y113.364 E0.27433
G1 X125.031 Y105.091 E0.27235
G1 X125.408 Y104.592 F10800.000
G1 F1200
G1 X125.408 Y97.014 E0.24950
G1 X132.986 Y97.014 E0.24950
G1 X132.986 Y104.592 E0.24950
G1 X125.468 Y104.592 E0.24752
G1 X125.022 Y104.696 F10800.000
G1 F8640
G1 X125.442 Y101.301 E-0.76000
G1 E-0.04000 F2100.00000
G1 Z0.800 F10800.000
G1 X125.031 Y96.636
G1 Z0.200
G1 E0.80000 F2100.00000
G1 F1200
G1 X133.364 Y96.636 E0.27433
G1 X133.364 Y104.969 E0.27433
G1 X125.031 Y104.969 E0.27433
G1 X125.031 Y96.696 E0.27235
G1 X124.592 Y97.014 F10800.000
G1 F1200
G1 X124.592 Y104.592 E0.24950
G1 X117.014 Y104.592 E0.24950
G1 X117.014 Y97.014 E0.24950
G1 X124.532 Y97.014 E0.24752
G1 X124.978 Y96.910 F10800.000
G1 F8640
G1 X124.558 Y100.305 E-0.76000
G1 E-0.04000 F2100.00000
G1 Z0.800 F10800.000
G1 X116.636 Y96.636
G1 Z0.200
G1 E0.80000 F2100.00000
G1 F1200
G1 X124.969 Y96.636 E0.27433
G1 X124.969 Y104.969 E0.27433
G1 X116.636 Y104.969 E0.27433
G1 X116.636 Y96.696 E0.27235
G1 F8640
G1 X119.928 Y96.673 E-0.76000
G1 E-0.04000 F2100.00000
G1 Z0.800 F10800.000
G1 X117.014 Y105.408
G1 Z0.200
G1 E0.80000 F2100.00000
G1 F1200
G1 X124.592 Y105.408 E0.24950
G1 X124.592 Y112.986 E0.24950
G1 X117.014 Y112.986 E0.24950
G1 X117.014 Y105.468 E0.24752
G1 X116.910 Y105.022 F10800.000
G1 X116.636 Y105.031
G1 F1200
G1 X124.969 Y105.031 E0.27433
G1 X124.969 Y113.364 E0.27433
G1 X116.636 Y113.364 E0.27433
G1 X116.636 Y105.091 E0.27235
;BEFORE_LAYER_CHANGE
G92 E0.0
;0.5


G1 F8640
G1 X119.928 Y105.067 E-0.76000
G1 E-0.04000 F2100.00000
G1 Z0.800 F10800.000
;AFTER_LAYER_CHANGE
;0.5
M140 S110 ; set bed temperature
G1 X116.923 Y105.318
G1 Z0.500
G1 E0.80000 F2100.00000
M204 S800
G1 F1259
G1 X124.682 Y105.318 E0.54423
G1 X124.682 Y113.076 E0.54423
G1 X116.923 Y113.076 E0.54423
G1 X116.923 Y105.378 E0.54002
M204 S1000
G1 X116.820 Y104.932 F10800.000
G1 X116.923 Y104.682
M204 S800
G1 F1259
G1 X116.923 Y96.924 E0.54423
G1 X124.682 Y96.924 E0.54423
G1 X124.682 Y104.682 E0.54423
G1 X116.983 Y104.682 E0.54002
M204 S1000
G1 X116.537 Y104.786 F10800.000
G1 F8640
G1 X116.958 Y101.391 E-0.76000
G1 E-0.04000 F2100.00000
G1 Z1.100 F10800.000
G1 X125.318 Y104.682
G1 Z0.500
G1 E0.80000 F2100.00000
M204 S800
G1 F1259
G1 X125.318 Y96.924 E0.54423
G1 X133.077 Y96.924 E0.54423
G1 X133.077 Y104.682 E0.54423
G1 X125.378 Y104.682 E0.54002
M204 S1000
G1 X124.932 Y104.786 F10800.000
G1 X125.378 Y105.318
M204 S800
G1 F1259
G1 X133.077 Y105.318 E0.54002
G1 X133.077 Y113.076 E0.54423
G1 X125.318 Y113.076 E0.54423
G1 X125.318 Y105.318 E0.54423
M204 S1000
G1 X125.275 Y104.931 F10800.000
G1 F8640
G1 X128.609 Y105.318 E-0.76000
G1 E-0.04000 F2100.00000
G1 Z1.100 F10800.000
G1 X133.713 Y113.712
G1 Z0.500
G1 E0.80000 F2100.00000
M204 S800
G1 F1259
G1 X116.287 Y113.712 E1.22229
G1 X116.287 Y96.287 E1.22229
G1 X133.713 Y96.287 E1.22229
G1 X133.713 Y113.653 E1.21808
M204 S1000
G1 X133.326 Y113.609 F10800.000
G1 X133.319 Y113.394
G1 F1259
G1 X125.075 Y113.394 E0.16236
G1 X125.000 Y113.376 E0.00153
G1
G1 X124.925 Y113.394 E0.00153
G1 X116.681 Y113.394 E0.16236
G1
G1 X116.618 Y113.382 E0.00125
G1 X116.605 Y113.319 E0.00125
G1 X116.605 Y105.075 E0.16236
G1
G1 X116.624 Y105.000 E0.00191
G1
G1 X116.605 Y104.925 E0.00153
G1 X116.605 Y96.681 E0.16236
G1
G1 X116.618 Y96.618 E0.00125
G1 X116.681 Y96.605 E0.00125
G1 X124.925 Y96.605 E0.16236
G1
G1 X125.000 Y96.624 E0.00191
G1
G1 X125.000 Y96.681 E0.00139
G1
G1 X125.000 Y105.000 E0.16384
G1
G1 X124.962 Y105.000 E0.00105
G1
G1 X124.925 Y105.000 E0.00089
G1
G1 X116.624 Y105.000 E0.16347
G1 F8640
G1 X119.916 Y105.000 E-0.76000
G1 E-0.04000 F2100.00000
G1 Z1.100 F10800.000
G1 X125.000 Y105.000
G1 Z0.500
G1 E0.80000 F2100.00000
G1 F1259
G1 X133.319 Y105.000 E0.16384
G1
G1 X133.376 Y105.000 E0.00139
G1
G1 X133.394 Y105.075 E0.00191
G1
G1 X133.394 Y113.319 E0.16236
G1 X133.382 Y113.382 E0.00125
G1 X133.319 Y113.394 E0.00125
G1 F8640
G1 X133.382 Y113.382 E-0.01469
G1 X133.394 Y113.319 E-0.01469
G1 X133.394 Y110.155 E-0.73062
G1 E-0.04000 F2100.00000
G1 Z1.100 F10800.000
G1 X125.000 Y113.376
G1 Z0.500
G1 E0.80000 F2100.00000
G1 F1259
G1 X125.000 Y105.075 E0.16347
G1
G1 X125.000 Y105.038 E0.00089
G1
G1 X125.000 Y105.000 E0.00105
G1 F8640
G1 X125.000 Y105.038 E-0.00868
G1 E-0.79132 F2100.00000
G1 Z1.100 F10800.000
G1 X125.000 Y96.624
G1 Z0.500
G1 E0.80000 F2100.00000
G1 F1259
G1 X125.075 Y96.605 E0.00153
G1 X133.319 Y96.605 E0.16236
G1
G1 X133.382 Y96.618 E0.00125
G1 X133.394 Y96.681 E0.00125
G1 X133.394 Y104.925 E0.16236
G1
G1 X133.376 Y105.000 E0.00191
;BEFORE_LAYER_CHANGE
G92 E0.0
;0.8


G1 F8640
G1 X133.394 Y104.925 E-0.01790
G1 E-0.78210 F2100.00000
G1 Z1.100 F10800.000
;AFTER_LAYER_CHANGE
;0.8
G1 X133.227 Y96.773
G1 Z0.800
G1 E0.80000 F2100.00000
M204 S800
