; generated by PrusaSlicer 2.4.0+win64 on 2022-02-20 at 13:03:23 UTC

; 

; external perimeters extrusion width = 0.90mm
; perimeters extrusion width = 0.65mm
; infill extrusion width = 0.65mm
; solid infill extrusion width = 0.65mm
; top infill extrusion width = 0.60mm
; first layer extrusion width = 0.65mm

M73 P0 R53
M73 Q0 S53
M201 X1000 Y1000 Z200 E5000 ; sets maximum accelerations, mm/sec^2
M203 X200 Y200 Z12 E120 ; sets maximum feedrates, mm/sec
M204 P1250 R1250 T1250 ; sets acceleration (P, T) and retract acceleration (R), mm/sec^2
M205 X8.00 Y8.00 Z0.40 E4.50 ; sets the jerk limits, mm/sec
M205 S0 T0 ; sets the minimum extruding and travel feed rate, mm/sec
M107
;TYPE:Custom
M862.3 P "MK3" ; printer model check
M862.1 P0.6 ; nozzle diameter check
M115 U3.10.1 ; tell printer latest fw version
G90 ; use absolute coordinates
M83 ; extruder relative mode
M104 S215 ; set extruder temp
M140 S60 ; set bed temp
M190 S60 ; wait for bed temp
M109 S215 ; wait for extruder temp
G28 W ; home all without mesh bed level
G80 ; mesh bed leveling
G1 Z0.2 F720
G1 Y-3 F1000 ; go outside print area
G92 E0
G1 X60 E9 F1000 ; intro line
G1 X100 E12.5 F1000 ; intro line
G92 E0
M221 S95
G21 ; set units to millimeters
G90 ; use absolute coordinates
M83 ; use relative distances for extrusion
M900 K0.04 ; Filament gcode LA 1.5
M900 K18 ; Filament gcode LA 1.0
M107
;LAYER_CHANGE
;Z:0.25
;HEIGHT:0.25
;BEFORE_LAYER_CHANGE
G92 E0.0
;0.25


G1 Z.25 F720
;AFTER_LAYER_CHANGE
;0.25
G1 E-.8 F2100
G1 Z.65 F720
G1 X92.122 Y73.548 F10800
G1 Z.25 F720
G1 E.8 F2100
M204 S800
;TYPE:Skirt/Brim
;WIDTH:0.65
G1 F1200
G1 X93.549 Y72.122 E.12501
G1 X94.889 Y71.15 E.10262
G1 X96.017 Y70.534 E.07966
G1 X97.911 Y69.828 E.12529
G1 X99.537 Y69.501 E.10282
G1 X100.999 Y69.405 E.09082
G1 X149.183 Y69.411 E2.98661
G1 X150.835 Y69.554 E.10279
G1 X152.44 Y69.932 E.1022
G1 X153.644 Y70.38 E.07963
G1 X155.111 Y71.151 E.10272
G1 X156.729 Y72.363 E.12529
G1 X157.637 Y73.271 E.07959
G1 X158.648 Y74.575 E.10223
G1 X159.462 Y76.01 E.1023
G1 X160.068 Y77.56 E.10315
G1 X160.497 Y79.533 E.12515
G1 X160.595 Y80.999 E.09108
G1 X160.589 Y129.187 E2.98686
G1 X160.497 Y130.467 E.07954
G1 X160.172 Y132.085 E.1023
G1 X159.62 Y133.644 E.10251
G1 X158.849 Y135.111 E.10272
G1 X157.879 Y136.45 E.10245
G1 X156.45 Y137.879 E.12531
G1 X155.422 Y138.649 E.07961
G1 X153.985 Y139.465 E.10239
G1 X152.085 Y140.172 E.12565
G1 X150.467 Y140.497 E.1023
G1 X149.001 Y140.595 E.09108
G1 X100.813 Y140.589 E2.98686
G1 X99.533 Y140.497 E.07954
G1 X97.915 Y140.172 E.1023
G1 X96.363 Y139.623 E.10204
G1 X94.897 Y138.854 E.10257
G1 X93.549 Y137.878 E.10322
G1 X92.121 Y136.45 E.12516
G1 X91.351 Y135.422 E.07961
G1 X90.535 Y133.985 E.10239
G1 X89.828 Y132.089 E.12541
G1 X89.501 Y130.463 E.10282
G1 X89.405 Y129.001 E.09082
G1 X89.411 Y80.817 E2.98661
G1 X89.554 Y79.165 E.10279
G1 X89.929 Y77.569 E.1016
G1 X90.379 Y76.358 E.08009
G1 X91.15 Y74.889 E.10284
G1 X92.07 Y73.621 E.09704
M204 S1000
; printing object 16 x AA id:0 copy 0
;WIPE_START
G1 F8640
G1 X93.549 Y72.122 E-.48621
G1 X94.508 Y71.426 E-.27379
;WIPE_END
G1 E-.04 F2100
G1 Z.65 F720
G1 X94.565 Y75.494 F10800
G1 Z.25 F720
G1 E.8 F2100
M204 S800
;TYPE:External perimeter
G1 F1200
G1 X95.452 Y74.597 E.07821
G1 X96.418 Y73.872 E.07486
G1 X97.479 Y73.292 E.07498
G1 X98.613 Y72.87 E.07499
G1 X99.794 Y72.612 E.0749
G1 X101.017 Y72.526 E.07603
G1 X148.983 Y72.526 E2.97304
G1 X150.206 Y72.612 E.07603
G1 X151.387 Y72.87 E.0749
G1 X152.52 Y73.292 E.07497
G1 X153.58 Y73.872 E.07488
G1 X154.548 Y74.597 E.07497
G1 X155.403 Y75.452 E.07496
G1 X156.128 Y76.418 E.07486
G1 X156.708 Y77.479 E.07498
G1 X157.13 Y78.613 E.07496
G1 X157.386 Y79.794 E.0749
G1 X157.474 Y81.018 E.07606
G1 X157.474 Y128.982 E2.97299
G1 X157.386 Y130.206 E.07606
G1 X157.13 Y131.387 E.0749
G1 X156.708 Y132.52 E.07495
G1 X156.128 Y133.58 E.07488
G1 X155.403 Y134.548 E.07497
G1 X154.548 Y135.403 E.07495
G1 X153.58 Y136.128 E.07497
G1 X152.52 Y136.708 E.07488
G1 X151.387 Y137.13 E.07495
G1 X150.206 Y137.386 E.0749
G1 X148.982 Y137.474 E.07606
G1 X101.018 Y137.474 E2.97299
G1 X99.794 Y137.386 E.07606
G1 X98.613 Y137.13 E.0749
G1 X97.479 Y136.708 E.07496
G1 X96.418 Y136.128 E.07498
G1 X95.452 Y135.403 E.07486
G1 X94.597 Y134.548 E.07496
G1 X93.872 Y133.58 E.07497
G1 X93.292 Y132.52 E.07488
G1 X92.87 Y131.387 E.07497
G1 X92.612 Y130.206 E.0749
G1 X92.526 Y128.983 E.07603
G1 X92.526 Y81.017 E2.97304
G1 X92.612 Y79.794 E.07603
M73 P1 R53
M73 Q1 S53
G1 X92.87 Y78.613 E.0749
G1 X93.292 Y77.479 E.07499
G1 X93.872 Y76.418 E.07498
G1 X94.511 Y75.566 E.06601
M204 S1000
;WIPE_START
G1 F8640
G1 X95.452 Y74.597 E-.31196
G1 X96.418 Y73.872 E-.27886
G1 X97.061 Y73.52 E-.16917
;WIPE_END
G1 E-.04 F2100
G1 Z.65 F720
G1 X156.153 Y76.836 F10800
G1 Z.25 F720
G1 E.8 F2100
M204 S800
;TYPE:Solid infill
;WIDTH:0.652842
G1 F1200
G1 X154.246 Y74.929 E.16792
G1 X153.338 Y74.249 E.07071
G1 X152.334 Y73.7 E.07124
G1 X152.072 Y73.602 E.01744
G1 X156.398 Y77.928 E.38105
G1 X156.7 Y78.739 E.05386
G1 X156.793 Y79.171 E.02754
G1 X150.828 Y73.206 E.52541
G1 X150.142 Y73.056 E.0437
G1 X149.807 Y73.032 E.02093
G1 X156.966 Y80.191 E.63054
G1 X157.027 Y81.099 E.05667
G1 X148.901 Y72.973 E.71571
G1 X148.053 Y72.973 E.05277
G1 X157.027 Y81.947 E.79034
G1 X157.027 Y82.794 E.05277
G1 X147.206 Y72.973 E.86498
G1 X146.359 Y72.973 E.05277
G1 X157.027 Y83.642 E.93961
G1 X157.027 Y84.489 E.05277
G1 X145.511 Y72.973 E1.01425
G1 X144.664 Y72.973 E.05277
G1 X157.027 Y85.336 E1.08888
G1 X157.027 Y86.184 E.05277
G1 X143.816 Y72.973 E1.16351
G1 X142.969 Y72.973 E.05277
G1 X157.027 Y87.031 E1.23815
G1 X157.027 Y87.878 E.05277
G1 X142.122 Y72.973 E1.31278
G1 X141.274 Y72.973 E.05277
G1 X157.027 Y88.726 E1.38741
G1 X157.027 Y89.573 E.05277
G1 X140.427 Y72.973 E1.46205
G1 X139.579 Y72.973 E.05277
G1 X157.027 Y90.421 E1.53668
G1 X157.027 Y91.268 E.05277
G1 X138.732 Y72.973 E1.61132
G1 X137.885 Y72.973 E.05277
G1 X157.027 Y92.115 E1.68595
G1 X157.027 Y92.963 E.05277
G1 X137.037 Y72.973 E1.76058
G1 X136.19 Y72.973 E.05277
M73 P1 R52
M73 Q1 S52
G1 X157.027 Y93.81 E1.83522
G1 X157.027 Y94.658 E.05277
G1 X135.342 Y72.973 E1.90985
G1 X134.495 Y72.973 E.05277
G1 X157.027 Y95.505 E1.98449
G1 X157.027 Y96.352 E.05277
G1 X133.648 Y72.973 E2.05912
G1 X132.8 Y72.973 E.05277
G1 X157.027 Y97.2 E2.13375
G1 X157.027 Y98.047 E.05277
G1 X131.953 Y72.973 E2.20839
G1 X131.106 Y72.973 E.05277
G1 X157.027 Y98.894 E2.28302
G1 X157.027 Y99.742 E.05277
G1 X130.258 Y72.973 E2.35766
G1 X129.411 Y72.973 E.05277
M73 P2 R52
M73 Q2 S52
G1 X157.027 Y100.589 E2.43229
G1 X157.027 Y101.437 E.05277
G1 X128.563 Y72.973 E2.50692
G1 X127.716 Y72.973 E.05277
G1 X157.027 Y102.284 E2.58156
G1 X157.027 Y103.131 E.05277
G1 X126.869 Y72.973 E2.65619
G1 X126.021 Y72.973 E.05277
G1 X157.027 Y103.979 E2.73082
G1 X157.027 Y104.826 E.05277
G1 X125.174 Y72.973 E2.80546
G1 X124.326 Y72.973 E.05277
G1 X157.027 Y105.674 E2.88009
G1 X157.027 Y106.521 E.05277
G1 X123.479 Y72.973 E2.95473
G1 X122.632 Y72.973 E.05277
G1 X157.027 Y107.368 E3.02936
G1 X157.027 Y108.216 E.05277
G1 X121.784 Y72.973 E3.10399
G1 X120.937 Y72.973 E.05277
G1 X157.027 Y109.063 E3.17863
G1 X157.027 Y109.91 E.05277
G1 X120.09 Y72.973 E3.25326
G1 X119.242 Y72.973 E.05277
G1 X157.027 Y110.758 E3.3279
G1 X157.027 Y111.605 E.05277
G1 X118.395 Y72.973 E3.40253
G1 X117.547 Y72.973 E.05277
M73 P3 R52
M73 Q3 S52
G1 X157.027 Y112.453 E3.47716
G1 X157.027 Y113.3 E.05277
G1 X116.7 Y72.973 E3.5518
G1 X115.853 Y72.973 E.05277
G1 X157.027 Y114.147 E3.62643
G1 X157.027 Y114.995 E.05277
G1 X115.005 Y72.973 E3.70107
G1 X114.158 Y72.973 E.05277
M73 P3 R51
G1 X157.027 Y115.842 E3.7757
G1 X157.027 Y116.69 E.05277
M73 Q3 S51
G1 X113.31 Y72.973 E3.85033
G1 X112.463 Y72.973 E.05277
G1 X157.027 Y117.537 E3.92497
G1 X157.027 Y118.384 E.05277
G1 X111.616 Y72.973 E3.9996
G1 X110.768 Y72.973 E.05277
G1 X157.027 Y119.232 E4.07423
G1 X157.027 Y120.079 E.05277
G1 X109.921 Y72.973 E4.14887
G1 X109.074 Y72.973 E.05277
M73 P4 R51
M73 Q4 S51
G1 X157.027 Y120.926 E4.2235
G1 X157.027 Y121.774 E.05277
G1 X108.226 Y72.973 E4.29814
G1 X107.379 Y72.973 E.05277
G1 X157.027 Y122.621 E4.37277
G1 X157.027 Y123.469 E.05277
G1 X106.531 Y72.973 E4.4474
G1 X105.684 Y72.973 E.05277
G1 X157.027 Y124.316 E4.52204
G1 X157.027 Y125.163 E.05277
G1 X104.837 Y72.973 E4.59667
G1 X103.989 Y72.973 E.05277
G1 X157.027 Y126.011 E4.67131
G1 X157.027 Y126.858 E.05277
G1 X103.142 Y72.973 E4.74594
G1 X102.294 Y72.973 E.05277
G1 X157.027 Y127.706 E4.82057
G1 X157.027 Y128.553 E.05277
M73 P5 R51
M73 Q5 S51
G1 X101.447 Y72.973 E4.89521
G1 X101.033 Y72.973 E.02578
G1 X100.628 Y73.002 E.02528
G1 X156.998 Y129.371 E4.96477
G1 X156.939 Y130.159 E.04923
M73 P5 R50
M73 Q5 S50
G1 X99.839 Y73.06 E5.02907
G1 X99.144 Y73.212 E.04433
G1 X156.787 Y130.856 E5.07701
G1 X156.7 Y131.261 E.02582
G1 X156.603 Y131.519 E.01716
G1 X98.481 Y73.397 E5.11919
G1 X97.863 Y73.626 E.04104
G1 X156.374 Y132.137 E5.15334
G1 X156.3 Y132.334 E.01311
G1 X156.096 Y132.707 E.02646
G1 X97.293 Y73.903 E5.17914
G1 X96.745 Y74.203 E.03889
G1 X155.797 Y133.255 E5.20103
G1 X155.443 Y133.749 E.03783
M73 P6 R50
M73 Q6 S50
G1 X96.251 Y74.556 E5.21341
G1 X95.767 Y74.919 E.03769
G1 X155.081 Y134.233 E5.22408
G1 X154.659 Y134.66 E.03732
G1 X95.34 Y75.341 E5.22455
G1 X94.919 Y75.767 E.03732
G1 X154.233 Y135.081 E5.22408
G1 X153.749 Y135.443 E.0377
G1 X94.556 Y76.251 E5.21341
G1 X94.203 Y76.745 E.03783
G1 X153.255 Y135.797 E5.20102
G1 X152.707 Y136.096 E.03888
G1 X93.903 Y77.293 E5.17914
G1 X93.7 Y77.666 E.02645
G1 X93.626 Y77.863 E.01313
G1 X152.137 Y136.374 E5.15334
G1 X151.519 Y136.604 E.04104
M73 P7 R50
M73 Q7 S50
G1 X93.396 Y78.481 E5.11918
G1 X93.3 Y78.74 E.0172
M73 P7 R49
M73 Q7 S49
G1 X93.212 Y79.144 E.02575
G1 X150.856 Y136.787 E5.07701
G1 X150.159 Y136.939 E.04438
G1 X93.06 Y79.839 E5.02906
G1 X93.002 Y80.628 E.04928
G1 X149.371 Y136.998 E4.96476
G1 X148.966 Y137.027 E.02529
G1 X148.553 Y137.027 E.02574
G1 X92.973 Y81.447 E4.8952
G1 X92.973 Y82.295 E.05277
G1 X147.705 Y137.027 E4.82057
G1 X146.858 Y137.027 E.05277
G1 X92.973 Y83.142 E4.74593
G1 X92.973 Y83.989 E.05277
G1 X146.011 Y137.027 E4.6713
M73 Q8 S49
G1 X145.163 Y137.027 E.05277
M73 P8 R49
G1 X92.973 Y84.837 E4.59667
G1 X92.973 Y85.684 E.05277
G1 X144.316 Y137.027 E4.52203
G1 X143.469 Y137.027 E.05277
G1 X92.973 Y86.531 E4.4474
G1 X92.973 Y87.379 E.05277
G1 X142.621 Y137.027 E4.37276
G1 X141.774 Y137.027 E.05277
G1 X92.973 Y88.226 E4.29813
G1 X92.973 Y89.074 E.05277
G1 X140.926 Y137.027 E4.2235
G1 X140.079 Y137.027 E.05277
G1 X92.973 Y89.921 E4.14886
G1 X92.973 Y90.768 E.05277
G1 X139.232 Y137.027 E4.07423
G1 X138.384 Y137.027 E.05277
G1 X92.973 Y91.616 E3.99959
M73 P8 R48
G1 X92.973 Y92.463 E.05277
M73 P9 R48
M73 Q9 S48
G1 X137.537 Y137.027 E3.92496
G1 X136.689 Y137.027 E.05277
G1 X92.973 Y93.311 E3.85033
G1 X92.973 Y94.158 E.05277
G1 X135.842 Y137.027 E3.77569
G1 X134.995 Y137.027 E.05277
G1 X92.973 Y95.005 E3.70106
G1 X92.973 Y95.853 E.05277
G1 X134.147 Y137.027 E3.62643
G1 X133.3 Y137.027 E.05277
G1 X92.973 Y96.7 E3.55179
G1 X92.973 Y97.547 E.05277
G1 X132.453 Y137.027 E3.47716
G1 X131.605 Y137.027 E.05277
G1 X92.973 Y98.395 E3.40252
G1 X92.973 Y99.242 E.05277
G1 X130.758 Y137.027 E3.32789
G1 X129.91 Y137.027 E.05277
G1 X92.973 Y100.09 E3.25326
G1 X92.973 Y100.937 E.05277
M73 Q10 S48
G1 X129.063 Y137.027 E3.17862
G1 X128.216 Y137.027 E.05277
M73 P10 R48
G1 X92.973 Y101.784 E3.10399
G1 X92.973 Y102.632 E.05277
G1 X127.368 Y137.027 E3.02935
G1 X126.521 Y137.027 E.05277
G1 X92.973 Y103.479 E2.95472
G1 X92.973 Y104.327 E.05277
G1 X125.673 Y137.027 E2.88009
G1 X124.826 Y137.027 E.05277
G1 X92.973 Y105.174 E2.80545
G1 X92.973 Y106.021 E.05277
G1 X123.979 Y137.027 E2.73082
G1 X123.131 Y137.027 E.05277
G1 X92.973 Y106.869 E2.65619
G1 X92.973 Y107.716 E.05277
G1 X122.284 Y137.027 E2.58155
G1 X121.437 Y137.027 E.05277
G1 X92.973 Y108.563 E2.50692
G1 X92.973 Y109.411 E.05277
G1 X120.589 Y137.027 E2.43228
G1 X119.742 Y137.027 E.05277
G1 X92.973 Y110.258 E2.35765
G1 X92.973 Y111.106 E.05277
G1 X118.894 Y137.027 E2.28302
M73 P10 R47
G1 X118.047 Y137.027 E.05277
M73 Q10 S47
G1 X92.973 Y111.953 E2.20838
G1 X92.973 Y112.8 E.05277
G1 X117.2 Y137.027 E2.13375
G1 X116.352 Y137.027 E.05277
M73 P11 R47
M73 Q11 S47
G1 X92.973 Y113.648 E2.05911
G1 X92.973 Y114.495 E.05277
G1 X115.505 Y137.027 E1.98448
G1 X114.657 Y137.027 E.05277
G1 X92.973 Y115.343 E1.90985
G1 X92.973 Y116.19 E.05277
G1 X113.81 Y137.027 E1.83521
G1 X112.963 Y137.027 E.05277
G1 X92.973 Y117.037 E1.76058
G1 X92.973 Y117.885 E.05277
G1 X112.115 Y137.027 E1.68594
G1 X111.268 Y137.027 E.05277
G1 X92.973 Y118.732 E1.61131
G1 X92.973 Y119.579 E.05277
G1 X110.421 Y137.027 E1.53668
G1 X109.573 Y137.027 E.05277
G1 X92.973 Y120.427 E1.46204
G1 X92.973 Y121.274 E.05277
G1 X108.726 Y137.027 E1.38741
G1 X107.878 Y137.027 E.05277
G1 X92.973 Y122.122 E1.31278
G1 X92.973 Y122.969 E.05277
G1 X107.031 Y137.027 E1.23814
G1 X106.184 Y137.027 E.05277
G1 X92.973 Y123.816 E1.16351
G1 X92.973 Y124.664 E.05277
G1 X105.336 Y137.027 E1.08887
G1 X104.489 Y137.027 E.05277
G1 X92.973 Y125.511 E1.01424
G1 X92.973 Y126.359 E.05277
G1 X103.641 Y137.027 E.93961
G1 X102.794 Y137.027 E.05277
G1 X92.973 Y127.206 E.86497
G1 X92.973 Y128.053 E.05277
G1 X101.947 Y137.027 E.79034
G1 X101.099 Y137.027 E.05277
G1 X92.973 Y128.901 E.7157
G1 X93.032 Y129.807 E.05657
G1 X100.191 Y136.966 E.63053
G1 X99.858 Y136.942 E.02084
G1 X99.171 Y136.793 E.04375
G1 X93.206 Y130.828 E.5254
G1 X93.3 Y131.26 E.02756
G1 X93.602 Y132.072 E.05392
G1 X97.928 Y136.398 E.38103
G1 X97.666 Y136.3 E.01746
G1 X96.661 Y135.751 E.07132
G1 X95.754 Y135.071 E.0706
G1 X93.849 Y133.166 E.16778
M204 S1000
; stop printing object 16 x AA id:0 copy 0
M106 S84.15
;LAYER_CHANGE
;Z:0.5
;HEIGHT:0.25
;BEFORE_LAYER_CHANGE
G92 E0.0
;0.5


G1 Z.5 F720
;AFTER_LAYER_CHANGE
;0.5
G1 E-.8 F2100
G1 Z.9 F720
G1 X90.992 Y134.789 F10800
G1 Z.5 F720
G1 E.8 F2100
;TYPE:Skirt/Brim
;WIDTH:0.65
G1 F3000
G1 X90.535 Y133.985 E.05727
G1 X89.828 Y132.089 E.12541
G1 X89.501 Y130.463 E.10282
G1 X89.405 Y129.001 E.09082
G1 X89.411 Y80.817 E2.98661
G1 X89.554 Y79.165 E.10279
G1 X89.929 Y77.569 E.1016
G1 X90.379 Y76.358 E.08009
G1 X91.15 Y74.889 E.10284
G1 X92.122 Y73.548 E.10262
G1 X93.549 Y72.122 E.12501
G1 X94.889 Y71.15 E.10262
G1 X96.017 Y70.534 E.07966
G1 X97.911 Y69.828 E.12529
G1 X99.537 Y69.501 E.10282
G1 X100.999 Y69.405 E.09082
G1 X149.183 Y69.411 E2.98661
G1 X150.835 Y69.554 E.10279
G1 X152.44 Y69.932 E.1022
G1 X153.644 Y70.38 E.07963
G1 X155.111 Y71.151 E.10272
G1 X156.729 Y72.363 E.12529
G1 X157.637 Y73.271 E.07959
G1 X158.648 Y74.575 E.10223
G1 X159.462 Y76.01 E.1023
G1 X160.068 Y77.56 E.10315
G1 X160.497 Y79.533 E.12515
G1 X160.595 Y80.999 E.09108
G1 X160.589 Y129.187 E2.98686
G1 X160.497 Y130.467 E.07954
G1 X160.172 Y132.085 E.1023
G1 X159.62 Y133.644 E.10251
G1 X158.849 Y135.111 E.10272
G1 X157.879 Y136.45 E.10245
G1 X156.45 Y137.879 E.12531
G1 X155.422 Y138.649 E.07961
G1 X153.985 Y139.465 E.10239
G1 X152.085 Y140.172 E.12565
G1 X150.467 Y140.497 E.1023
G1 X149.001 Y140.595 E.09108
G1 X100.813 Y140.589 E2.98686
G1 X99.533 Y140.497 E.07954
G1 X97.915 Y140.172 E.1023
G1 X96.363 Y139.623 E.10204
G1 X94.897 Y138.854 E.10257
G1 X93.549 Y137.878 E.10322
G1 X92.121 Y136.45 E.12516
G1 X91.351 Y135.422 E.07961
G1 X91.036 Y134.867 E.03954
; printing object 16 x AA id:0 copy 0
;WIPE_START
G1 F8640
G1 X90.535 Y133.985 E-.23413
G1 X89.828 Y132.089 E-.46719
G1 X89.778 Y131.84 E-.05868
;WIPE_END
G1 E-.04 F2100
G1 Z.9 F720
G1 X93.694 Y133.412 F10800
G1 Z.5 F720
G1 E.8 F2100
M204 S800
;TYPE:External perimeter
;WIDTH:0.9
G1 X93.223 Y132.552 E.08633
G1 X92.798 Y131.408 E.10735
G1 X92.538 Y130.217 E.10724
G1 X92.451 Y128.985 E.10861
G1 X92.451 Y81.015 E4.21985
G1 X92.538 Y79.783 E.10861
G1 X92.798 Y78.592 E.10724
G1 X93.223 Y77.448 E.10736
G1 X93.808 Y76.377 E.10736
M73 Q12 S47
G1 X94.54 Y75.403 E.10718
G1 X95.403 Y74.54 E.10735
G1 X96.377 Y73.808 E.10718
G1 X97.448 Y73.223 E.10736
G1 X98.592 Y72.798 E.10736
G1 X99.783 Y72.538 E.10724
G1 X101.015 Y72.451 E.10861
G1 X148.985 Y72.451 E4.21985
G1 X150.195 Y72.536 E.10665
M73 P12 R47
