; generated by PrusaSlicer 2.4.0+win64 on 2022-02-20 at 13:04:03 UTC

; 

; external perimeters extrusion width = 0.90mm
; perimeters extrusion width = 0.65mm
; infill extrusion width = 0.65mm
; solid infill extrusion width = 0.65mm
; top infill extrusion width = 0.60mm
; first layer extrusion width = 0.65mm

M73 P0 R25
M73 Q0 S25
M201 X1000 Y1000 Z200 E5000 ; sets maximum accelerations, mm/sec^2
M203 X200 Y200 Z12 E120 ; sets maximum feedrates, mm/sec
M204 P1250 R1250 T1250 ; sets acceleration (P, T) and retract acceleration (R), mm/sec^2
M205 X8.00 Y8.00 Z0.40 E4.50 ; sets the jerk limits, mm/sec
M205 S0 T0 ; sets the minimum extruding and travel feed rate, mm/sec
M107
;TYPE:Custom
M862.3 P "MK3" ; printer model check
M862.1 P0.6 ; nozzle diameter check
M115 U3.10.1 ; tell printer latest fw version
G90 ; use absolute coordinates
M83 ; extruder relative mode
M104 S215 ; set extruder temp
M140 S60 ; set bed temp
M190 S60 ; wait for bed temp
M109 S215 ; wait for extruder temp
G28 W ; home all without mesh bed level
G80 ; mesh bed leveling
G1 Z0.2 F720
G1 Y-3 F1000 ; go outside print area
G92 E0
G1 X60 E9 F1000 ; intro line
G1 X100 E12.5 F1000 ; intro line
G92 E0
M221 S95
G21 ; set units to millimeters
G90 ; use absolute coordinates
M83 ; use relative distances for extrusion
M900 K0.04 ; Filament gcode LA 1.5
M900 K18 ; Filament gcode LA 1.0
M107
;LAYER_CHANGE
;Z:0.25
;HEIGHT:0.25
;BEFORE_LAYER_CHANGE
G92 E0.0
;0.25


G1 Z.25 F720
;AFTER_LAYER_CHANGE
;0.25
G1 E-.8 F2100
G1 Z.65 F720
G1 X98.838 Y91.598 F10800
G1 Z.25 F720
G1 E.8 F2100
M204 S800
;TYPE:Skirt/Brim
;WIDTH:0.65
G1 F1200
G1 X99.796 Y90.788 E.07778
G1 X100.852 Y90.109 E.07777
G1 X101.987 Y89.574 E.07777
G1 X103.182 Y89.192 E.07777
G1 X104.409 Y88.97 E.07731
G1 X105.495 Y88.904 E.0674
G1 X144.668 Y88.909 E2.4281
G1 X145.936 Y89.017 E.07887
G1 X147.137 Y89.277 E.07615
G1 X148.013 Y89.574 E.05733
G1 X149.427 Y90.269 E.09768
G1 X150.485 Y91.004 E.07986
G1 X151.379 Y91.813 E.07473
G1 X152.004 Y92.525 E.05872
G1 X152.871 Y93.812 E.09618
G1 X153.434 Y95.009 E.082
G1 X153.799 Y96.139 E.07358
G1 X153.986 Y97.076 E.05926
G1 X154.096 Y98.451 E.08547
G1 X154.096 Y111.5 E.80882
G1 X154.031 Y112.583 E.06728
G1 X153.808 Y113.818 E.07777
G1 X153.296 Y115.327 E.09877
G1 X152.754 Y116.39 E.07395
G1 X152.006 Y117.473 E.08161
G1 X151.162 Y118.402 E.07778
G1 X150.473 Y119.006 E.05676
G1 X149.148 Y119.891 E.09877
G1 X148.013 Y120.426 E.07777
G1 X146.818 Y120.808 E.07777
G1 X145.583 Y121.031 E.07777
G1 X144.505 Y121.096 E.06694
G1 X105.5 Y121.096 E2.41769
G1 X104.417 Y121.031 E.06728
G1 X103.182 Y120.808 E.07777
G1 X102.012 Y120.434 E.07608
G1 X100.558 Y119.721 E.10044
G1 X99.527 Y119.006 E.07777
G1 X98.598 Y118.162 E.07777
G1 X97.788 Y117.204 E.07777
G1 X97.109 Y116.148 E.07777
G1 X96.704 Y115.327 E.05675
G1 X96.28 Y114.146 E.07777
G1 X96.014 Y112.925 E.07744
G1 X95.91 Y111.677 E.07764
G1 X95.904 Y98.5 E.81677
G1 X96.013 Y97.08 E.0883
G1 X96.28 Y95.854 E.07777
G1 X96.574 Y94.987 E.05676
M73 Q1 S25
G1 X97.107 Y93.857 E.07743
G1 X97.787 Y92.798 E.07798
G1 X98.779 Y91.666 E.0933
M204 S1000
; printing object 8 x AAA id:0 copy 0
;WIPE_START
G1 F8640
G1 X99.796 Y90.788 E-.31031
G1 X100.852 Y90.109 E-.28972
M73 P1 R25
G1 X101.478 Y89.814 E-.15997
;WIPE_END
G1 E-.04 F2100
G1 Z.65 F720
G1 X100.922 Y93.922 F10800
G1 Z.25 F720
G1 E.8 F2100
M204 S800
;TYPE:External perimeter
G1 F1200
G1 X101.559 Y93.364 E.05249
G1 X102.263 Y92.893 E.05249
G1 X103.023 Y92.519 E.05249
G1 X103.824 Y92.247 E.05249
G1 X104.655 Y92.082 E.05249
G1 X105.517 Y92.025 E.05356
G1 X144.483 Y92.025 E2.41522
G1 X145.345 Y92.082 E.05355
G1 X146.175 Y92.247 E.05249
G1 X146.977 Y92.519 E.05249
G1 X147.737 Y92.893 E.0525
G1 X148.441 Y93.364 E.05247
G1 X149.077 Y93.922 E.05249
G1 X149.636 Y94.559 E.05248
G1 X150.107 Y95.263 E.05252
G1 X150.481 Y96.022 E.05245
G1 X150.753 Y96.824 E.05249
G1 X150.919 Y97.655 E.05255
G1 X150.975 Y98.512 E.05318
G1 X150.975 Y111.483 E.804
G1 X150.918 Y112.345 E.05356
G1 X150.753 Y113.176 E.05249
G1 X150.481 Y113.977 E.05249
G1 X150.107 Y114.737 E.05249
G1 X149.636 Y115.441 E.05249
G1 X149.078 Y116.078 E.05249
G1 X148.441 Y116.636 E.05249
G1 X147.737 Y117.107 E.05249
G1 X146.977 Y117.481 E.05249
G1 X146.176 Y117.753 E.05249
G1 X145.345 Y117.918 E.05249
G1 X144.483 Y117.975 E.05356
G1 X105.517 Y117.975 E2.41522
G1 X104.655 Y117.918 E.05356
G1 X103.824 Y117.753 E.05249
G1 X103.023 Y117.481 E.05249
G1 X102.263 Y117.107 E.05249
G1 X101.559 Y116.636 E.05249
G1 X100.922 Y116.078 E.05249
G1 X100.364 Y115.441 E.05249
G1 X99.893 Y114.737 E.05249
G1 X99.519 Y113.977 E.05249
G1 X99.247 Y113.176 E.05249
G1 X99.082 Y112.345 E.05249
G1 X99.025 Y111.483 E.05356
G1 X99.025 Y98.517 E.80365
G1 X99.082 Y97.655 E.05356
G1 X99.247 Y96.824 E.05249
G1 X99.519 Y96.023 E.05249
G1 X99.893 Y95.263 E.05249
G1 X100.364 Y94.559 E.05249
G1 X100.863 Y93.99 E.04691
M204 S1000
;WIPE_START
G1 F8640
G1 X101.559 Y93.364 E-.21616
G1 X102.263 Y92.893 E-.19553
G1 X103.023 Y92.519 E-.19553
G1 X103.649 Y92.306 E-.15278
;WIPE_END
G1 E-.04 F2100
G1 Z.65 F720
G1 X150.03 Y95.512 F10800
G1 Z.25 F720
G1 E.8 F2100
M204 S800
;TYPE:Solid infill
;WIDTH:0.656314
G1 F1200
G1 X148.731 Y94.213 E.11505
G1 X148.168 Y93.719 E.04691
G1 X147.513 Y93.282 E.04935
G1 X146.806 Y92.933 E.04938
G1 X146.492 Y92.826 E.02075
G1 X150.173 Y96.508 E.32612
G1 X150.32 Y96.94 E.02858
G1 X150.461 Y97.648 E.0452
G1 X145.352 Y92.539 E.45256
G1 X144.433 Y92.472 E.05772
G1 X150.528 Y98.567 E.53988
G1 X150.528 Y99.419 E.05339
G1 X143.581 Y92.472 E.61538
G1 X142.729 Y92.472 E.05339
G1 X150.528 Y100.271 E.69088
G1 X150.528 Y101.124 E.05339
G1 X141.876 Y92.472 E.76639
G1 X141.024 Y92.472 E.05339
G1 X150.528 Y101.976 E.84189
G1 X150.528 Y102.828 E.05339
G1 X140.172 Y92.472 E.91739
G1 X139.32 Y92.472 E.05339
G1 X150.528 Y103.68 E.99289
G1 X150.528 Y104.533 E.05339
G1 X138.467 Y92.472 E1.06839
G1 X137.615 Y92.472 E.05339
G1 X150.528 Y105.385 E1.14389
G1 X150.528 Y106.237 E.05339
M73 P2 R25
M73 Q2 S25
G1 X136.763 Y92.472 E1.21939
G1 X135.91 Y92.472 E.05339
G1 X150.528 Y107.09 E1.29489
G1 X150.528 Y107.942 E.05339
G1 X135.058 Y92.472 E1.3704
G1 X134.206 Y92.472 E.05339
G1 X150.528 Y108.794 E1.4459
G1 X150.528 Y109.647 E.05339
G1 X133.353 Y92.472 E1.5214
G1 X132.501 Y92.472 E.05339
G1 X150.528 Y110.499 E1.5969
G1 X150.528 Y111.351 E.05339
G1 X131.649 Y92.472 E1.6724
G1 X130.797 Y92.472 E.05339
G1 X150.483 Y112.158 E1.7439
G1 X150.474 Y112.287 E.00806
G1 X150.355 Y112.883 E.03812
G1 X129.944 Y92.472 E1.80814
G1 X129.092 Y92.472 E.05339
G1 X150.158 Y113.538 E1.86614
G1 X150.067 Y113.806 E.01771
M73 P2 R24
M73 Q2 S24
G1 X149.904 Y114.137 E.02309
G1 X128.24 Y92.472 E1.91915
G1 X127.387 Y92.472 E.05339
G1 X149.602 Y114.687 E1.9679
M73 Q3 S24
G1 X149.257 Y115.195 E.03843
M73 P3 R24
G1 X126.535 Y92.472 E2.01287
G1 X125.683 Y92.472 E.05339
G1 X148.859 Y115.649 E2.0531
G1 X148.761 Y115.761 E.00935
G1 X148.419 Y116.061 E.02849
G1 X124.831 Y92.472 E2.0896
G1 X123.978 Y92.472 E.05339
G1 X147.939 Y116.433 E2.12262
G1 X147.419 Y116.765 E.03867
G1 X123.126 Y92.472 E2.15198
G1 X122.274 Y92.472 E.05339
G1 X146.848 Y117.046 E2.17692
G1 X146.216 Y117.267 E.04191
G1 X121.421 Y92.472 E2.19648
G1 X120.569 Y92.472 E.05339
G1 X145.524 Y117.427 E2.21063
G1 X145.287 Y117.474 E.01515
M73 Q4 S24
G1 X144.754 Y117.509 E.03346
G1 X119.717 Y92.472 E2.21791
G1 X118.864 Y92.472 E.05339
M73 P4 R24
G1 X143.92 Y117.528 E2.21956
G1 X143.068 Y117.528 E.05339
G1 X118.012 Y92.472 E2.21956
G1 X117.16 Y92.472 E.05339
G1 X142.215 Y117.528 E2.21956
G1 X141.363 Y117.528 E.05339
G1 X116.308 Y92.472 E2.21956
G1 X115.455 Y92.472 E.05339
G1 X140.511 Y117.528 E2.21956
G1 X139.658 Y117.528 E.05339
G1 X114.603 Y92.472 E2.21956
G1 X113.751 Y92.472 E.05339
G1 X138.806 Y117.528 E2.21956
G1 X137.954 Y117.528 E.05339
G1 X112.898 Y92.472 E2.21956
G1 X112.046 Y92.472 E.05339
M73 P5 R24
M73 Q5 S24
G1 X137.102 Y117.528 E2.21956
G1 X136.249 Y117.528 E.05339
G1 X111.194 Y92.472 E2.21956
G1 X110.341 Y92.472 E.05339
G1 X135.397 Y117.528 E2.21956
G1 X134.545 Y117.528 E.05339
G1 X109.489 Y92.472 E2.21956
G1 X108.637 Y92.472 E.05339
G1 X133.692 Y117.528 E2.21956
G1 X132.84 Y117.528 E.05339
G1 X107.785 Y92.472 E2.21956
G1 X106.932 Y92.472 E.05339
G1 X131.988 Y117.528 E2.21956
G1 X131.136 Y117.528 E.05339
G1 X106.08 Y92.472 E2.21956
G1 X105.246 Y92.491 E.05223
M73 Q6 S24
G1 X130.283 Y117.528 E2.21791
G1 X129.431 Y117.528 E.05339
M73 P6 R24
G1 X104.476 Y92.573 E2.21063
G1 X103.94 Y92.68 E.03422
G1 X103.784 Y92.733 E.01037
G1 X128.579 Y117.528 E2.19648
G1 X127.726 Y117.528 E.05339
G1 X103.152 Y92.954 E2.17692
G1 X102.581 Y93.235 E.03987
G1 X126.874 Y117.528 E2.15198
G1 X126.022 Y117.528 E.05339
G1 X102.061 Y93.567 E2.12262
G1 X101.832 Y93.72 E.01724
M73 P6 R23
G1 X101.581 Y93.939 E.02089
G1 X125.169 Y117.528 E2.08959
G1 X124.317 Y117.528 E.05339
M73 Q6 S23
G1 X101.141 Y94.351 E2.05309
G1 X100.743 Y94.806 E.03783
G1 X123.465 Y117.528 E2.01287
G1 X122.613 Y117.528 E.05339
M73 P7 R23
M73 Q7 S23
G1 X100.398 Y95.313 E1.9679
G1 X100.282 Y95.487 E.01311
G1 X100.096 Y95.864 E.02629
G1 X121.76 Y117.528 E1.91914
G1 X120.908 Y117.528 E.05339
G1 X99.842 Y96.462 E1.86614
G1 X99.68 Y96.94 E.03166
G1 X99.645 Y97.117 E.01126
G1 X120.056 Y117.528 E1.80813
G1 X119.203 Y117.528 E.05339
G1 X99.517 Y97.842 E1.74389
G1 X99.472 Y98.649 E.05063
G1 X118.351 Y117.528 E1.6724
G1 X117.499 Y117.528 E.05339
G1 X99.472 Y99.501 E1.59689
G1 X99.472 Y100.354 E.05339
G1 X116.646 Y117.528 E1.52139
G1 X115.794 Y117.528 E.05339
G1 X99.472 Y101.206 E1.44589
G1 X99.472 Y102.058 E.05339
G1 X114.942 Y117.528 E1.37039
G1 X114.09 Y117.528 E.05339
G1 X99.472 Y102.91 E1.29489
G1 X99.472 Y103.763 E.05339
M73 P8 R23
M73 Q8 S23
G1 X113.237 Y117.528 E1.21939
G1 X112.385 Y117.528 E.05339
G1 X99.472 Y104.615 E1.14389
G1 X99.472 Y105.467 E.05339
G1 X111.533 Y117.528 E1.06839
G1 X110.68 Y117.528 E.05339
G1 X99.472 Y106.32 E.99288
G1 X99.472 Y107.172 E.05339
G1 X109.828 Y117.528 E.91738
G1 X108.976 Y117.528 E.05339
G1 X99.472 Y108.024 E.84188
G1 X99.472 Y108.876 E.05339
G1 X108.124 Y117.528 E.76638
G1 X107.271 Y117.528 E.05339
G1 X99.472 Y109.729 E.69088
G1 X99.472 Y110.581 E.05339
G1 X106.419 Y117.528 E.61538
G1 X105.567 Y117.528 E.05339
G1 X99.472 Y111.433 E.53988
G1 X99.539 Y112.352 E.05772
G1 X104.648 Y117.461 E.45255
G1 X103.94 Y117.32 E.04516
G1 X103.508 Y117.173 E.02862
G1 X99.827 Y113.492 E.3261
G1 X99.933 Y113.806 E.02075
G1 X100.282 Y114.513 E.04937
G1 X100.72 Y115.168 E.04937
G1 X101.214 Y115.732 E.04695
G1 X102.512 Y117.03 E.11498
M204 S1000
; stop printing object 8 x AAA id:0 copy 0
M106 S84.15
;LAYER_CHANGE
;Z:0.5
;HEIGHT:0.25
;BEFORE_LAYER_CHANGE
G92 E0.0
;0.5


G1 Z.5 F720
;AFTER_LAYER_CHANGE
;0.5
G1 E-.8 F2100
G1 Z.9 F720
G1 X101.069 Y119.972 F10800
G1 Z.5 F720
G1 E.8 F2100
;TYPE:Skirt/Brim
;WIDTH:0.65
G1 F3000
G1 X100.558 Y119.721 E.0353
G1 X99.527 Y119.006 E.07777
G1 X98.598 Y118.162 E.07777
G1 X97.788 Y117.204 E.07777
G1 X97.109 Y116.148 E.07777
G1 X96.704 Y115.327 E.05675
G1 X96.28 Y114.146 E.07777
G1 X96.014 Y112.925 E.07744
G1 X95.91 Y111.677 E.07764
G1 X95.904 Y98.5 E.81677
G1 X96.013 Y97.08 E.0883
G1 X96.28 Y95.854 E.07777
G1 X96.574 Y94.987 E.05676
G1 X97.107 Y93.857 E.07743
G1 X97.787 Y92.798 E.07798
G1 X98.838 Y91.598 E.09888
G1 X99.796 Y90.788 E.07778
G1 X100.852 Y90.109 E.07777
G1 X101.987 Y89.574 E.07777
G1 X103.182 Y89.192 E.07777
G1 X104.409 Y88.97 E.07731
G1 X105.495 Y88.904 E.0674
G1 X144.668 Y88.909 E2.4281
G1 X145.936 Y89.017 E.07887
G1 X147.137 Y89.277 E.07615
G1 X148.013 Y89.574 E.05733
G1 X149.427 Y90.269 E.09768
G1 X150.485 Y91.004 E.07986
G1 X151.379 Y91.813 E.07473
G1 X152.004 Y92.525 E.05872
G1 X152.871 Y93.812 E.09618
G1 X153.434 Y95.009 E.082
G1 X153.799 Y96.139 E.07358
G1 X153.986 Y97.076 E.05926
G1 X154.096 Y98.451 E.08547
G1 X154.096 Y111.5 E.80882
G1 X154.031 Y112.583 E.06728
G1 X153.808 Y113.818 E.07777
G1 X153.296 Y115.327 E.09877
G1 X152.754 Y116.39 E.07395
G1 X152.006 Y117.473 E.08161
G1 X151.162 Y118.402 E.07778
G1 X150.473 Y119.006 E.05676
G1 X149.148 Y119.891 E.09877
G1 X148.013 Y120.426 E.07777
G1 X146.818 Y120.808 E.07777
G1 X145.583 Y121.031 E.07777
G1 X144.505 Y121.096 E.06694
G1 X105.5 Y121.096 E2.41769
G1 X104.417 Y121.031 E.06728
G1 X103.182 Y120.808 E.07777
G1 X102.012 Y120.434 E.07608
G1 X101.15 Y120.011 E.05956
; printing object 8 x AAA id:0 copy 0
;WIPE_START
G1 F8640
G1 X100.558 Y119.721 E-.15227
G1 X99.527 Y119.006 E-.28972
G1 X98.598 Y118.162 E-.28972
G1 X98.519 Y118.068 E-.02828
;WIPE_END
G1 E-.04 F2100
G1 Z.9 F720
G1 X102.487 Y117.3 F10800
G1 Z.5 F720
G1 E.8 F2100
M204 S800
;TYPE:External perimeter
;WIDTH:0.9
G1 X102.225 Y117.172 E.02561
G1 X101.513 Y116.696 E.07536
G1 X100.869 Y116.131 E.07536
G1 X100.304 Y115.487 E.07536
G1 X99.828 Y114.775 E.07536
G1 X99.449 Y114.006 E.07536
G1 X99.174 Y113.195 E.07536
G1 X99.007 Y112.355 E.07536
G1 X98.95 Y111.485 E.07666
G1 X98.95 Y98.515 E1.14099
G1 X99.007 Y97.645 E.07666
G1 X99.174 Y96.805 E.07536
G1 X99.444 Y96.009 E.07396
G1 X99.829 Y95.225 E.07678
G1 X100.304 Y94.513 E.07531
G1 X100.869 Y93.869 E.07536
G1 X101.513 Y93.304 E.07536
G1 X102.225 Y92.828 E.07536
G1 X102.994 Y92.449 E.07536
G1 X103.805 Y92.174 E.07536
G1 X104.645 Y92.007 E.07536
G1 X105.515 Y91.95 E.07666
G1 X144.501 Y91.951 E3.42957
G1 X145.355 Y92.007 E.07522
G1 X146.195 Y92.174 E.07534
G1 X147.005 Y92.449 E.0753
G1 X147.787 Y92.837 E.07675
G1 X148.486 Y93.304 E.07396
G1 X149.13 Y93.868 E.07535
G1 X149.695 Y94.512 E.0753
G1 X150.178 Y95.238 E.07675
G1 X150.55 Y95.992 E.07396
G1 X150.825 Y96.803 E.07535
G1 X150.993 Y97.643 E.07534
G1 X151.05 Y98.515 E.07682
G1 X151.05 Y111.485 E1.14099
G1 X150.993 Y112.355 E.07666
M73 Q9 S23
G1 X150.826 Y113.195 E.07536
G1 X150.551 Y114.006 E.07531
G1 X150.163 Y114.788 E.07678
M73 P9 R23
G1 X149.696 Y115.487 E.07396
G1 X149.131 Y116.131 E.07536
G1 X148.487 Y116.696 E.07536
G1 X147.775 Y117.172 E.07536
G1 X147.006 Y117.551 E.07536
G1 X146.195 Y117.826 E.07536
G1 X145.355 Y117.993 E.07536
G1 X144.485 Y118.05 E.07666
G1 X105.515 Y118.05 E3.42815
G1 X104.645 Y117.993 E.07666
G1 X103.805 Y117.826 E.07536
G1 X102.994 Y117.551 E.07536
G1 X102.567 Y117.34 E.04184
M204 S1000
;WIPE_START
G1 F8640
G1 X102.225 Y117.172 E-.08799
G1 X101.513 Y116.696 E-.1978
G1 X100.869 Y116.131 E-.1978
G1 X100.304 Y115.487 E-.1978
G1 X100.115 Y115.204 E-.0786
;WIPE_END
G1 E-.04 F2100
G1 Z.9 F720
G1 X147.478 Y117.014 F10800
G1 Z.5 F720
G1 E.8 F2100
;TYPE:Solid infill
;WIDTH:0.655856
G1 F4200
G1 X148.771 Y115.721 E.11449
G1 X149.266 Y115.157 E.04694
G1 X149.694 Y114.516 E.04823
G1 X150.05 Y113.798 E.05019
G1 X150.157 Y113.483 E.02077
G1 X146.483 Y117.157 E.32516
G1 X146.055 Y117.302 E.02834
G1 X145.345 Y117.443 E.04529
G1 X150.443 Y112.345 E.45129
G1 X150.509 Y111.428 E.05756
G1 X144.428 Y117.509 E.5383
G1 X143.576 Y117.509 E.05331
G1 X150.509 Y110.576 E.61369
G1 X150.509 Y109.724 E.05331
G1 X142.724 Y117.509 E.68908
G1 X141.873 Y117.509 E.05331
G1 X150.509 Y108.873 E.76446
G1 X150.509 Y108.021 E.05331
G1 X141.021 Y117.509 E.83985
G1 X140.17 Y117.509 E.05331
G1 X150.509 Y107.17 E.91524
G1 X150.509 Y106.318 E.05331
G1 X139.318 Y117.509 E.99062
G1 X138.466 Y117.509 E.05331
G1 X150.509 Y105.466 E1.06601
G1 X150.509 Y104.615 E.05331
G1 X137.615 Y117.509 E1.1414
G1 X136.763 Y117.509 E.05331
G1 X150.509 Y103.763 E1.21678
G1 X150.509 Y102.911 E.05331
G1 X135.911 Y117.509 E1.29217
G1 X135.06 Y117.509 E.05331
G1 X150.509 Y102.06 E1.36756
G1 X150.509 Y101.208 E.05331
G1 X134.208 Y117.509 E1.44294
G1 X133.356 Y117.509 E.05331
G1 X150.509 Y100.356 E1.51833
G1 X150.509 Y99.505 E.05331
G1 X132.505 Y117.509 E1.59372
G1 X131.653 Y117.509 E.05331
G1 X150.509 Y98.653 E1.6691
G1 X150.464 Y97.846 E.05056
G1 X130.801 Y117.509 E1.7405
G1 X129.95 Y117.509 E.05331
G1 X150.337 Y97.122 E1.80467
G1 X150.302 Y96.944 E.01135
G1 X150.14 Y96.467 E.0315
G1 X129.098 Y117.509 E1.86259
G1 X128.246 Y117.509 E.05331
G1 X149.886 Y95.869 E1.91551
G1 X149.708 Y95.509 E.02516
G1 X149.583 Y95.321 E.01414
G1 X127.395 Y117.509 E1.96407
G1 X126.543 Y117.509 E.05331
G1 X149.239 Y94.813 E2.00901
G1 X148.841 Y94.359 E.03777
G1 X125.691 Y117.509 E2.04917
