; generated by PrusaSlicer 2.3.3+win64 on 2021-10-12 at 06:21:24 UTC

; 

; external perimeters extrusion width = 0.45mm
; perimeters extrusion width = 0.45mm
; infill extrusion width = 0.45mm
; solid infill extrusion width = 0.45mm
; top infill extrusion width = 0.40mm
; support material extrusion width = 0.35mm
; first layer extrusion width = 0.42mm

M201 X5000 Y5000 Z500 E5000 ; sets maximum accelerations, mm/sec^2
M203 X500 Y500 Z12 E120 ; sets maximum feedrates, mm/sec
M204 P1500 R1500 T1500 ; sets acceleration (P, T) and retract acceleration (R), mm/sec^2
M205 X8.00 Y8.00 Z0.20 E4.50 ; sets the jerk limits, mm/sec
M205 S0 T0 ; sets the minimum extruding and travel feed rate, mm/sec
M107
;TYPE:Custom
;M412 S0 ;disable filament runout detection
M605 S0 ;full control

G21; millimeter units
G90; absolute positioning
M82; E absolute
M107; fan off

T0

M140 S85; Start the bed warming
M104 S240 T0; set nozzle temp for Extruder 1
M104 S215 T1; set nozzle temp for Extruder 2
M190 S85; set bed temp and wait for temp to be reached
G28; home all axes
G1 Z5 F5000 ; lift nozzle
M420 S1
G28 X
M109 S240 T0; set nozzle temp for Extruder 1 and wait for temp to be reached
M109 S215 T1; set nozzle temp for Extruder 2 and wait for temp to be reached

T0
G92 E0
G1 Z2.0 F3000 ;Move Z Axis up
G1 X5 Y10 Z0.28 F5000.0 ;Move to start position
G1 Y200.0 F1500.0 E15   ;Draw the first line
G1 X4.6 F5000.0         ;Move to side a little
G1 Y10 F1500.0 E30      ;Draw the second line
G1 X4.2 F5000.0         ;Move to side a little
G1 Y200 F1500.0         ;Purge
G92 E0
G1 E-1.00 F200
G1 X-65 F5000.0

T1
G92 E0
G1 Z2.0 F3000 ;Move Z Axis up
G1 X305 Y10 Z0.28 F5000.0 ;Move to start position
G1 Y200.0 F1500.0 E45     ;Draw the first line
G1 X305.4 F5000.0         ;Move to side a little
G1 Y10 F1500.0 E60        ;Draw the second line
G1 X305.8 F5000.0         ;Move to side a little
G1 Y200 F1500.0           ;Purge
G92 E0
G1 E-1.00 F200
G1 X365 F5000.0


T0
M117 Printing...; put message on display
G21 ; set units to millimeters
G90 ; use absolute coordinates
M82 ; use absolute distances for extrusion
G92 E0

T1

G92 E0
G1 E7 F100
G1 E8 F20
G92 E0
G1 X305 F2000
;LAYER_CHANGE
;Z:0.25
;HEIGHT:0.25
G1 Z0.250 F10800.000
G1 E-1.20000 F2400.000
G92 E0
G1 Z0.650 F10800.000
G1 X231.765 Y96.613
G1 Z0.250
G1 E1.20000 F2400.000
M204 S1000
;TYPE:Skirt
;WIDTH:0.42
G1 F1800.000
G1 X232.814 Y94.371 E1.28953
G1 X234.091 Y92.240 E1.37937
G1 X235.408 Y90.460 E1.45950
G1 X237.072 Y88.616 E1.54934
G1 X238.916 Y86.952 E1.63918
G1 X240.696 Y85.634 E1.71931
G1 X242.826 Y84.357 E1.80915
G1 X245.070 Y83.308 E1.89876
G1 X247.164 Y82.566 E1.97912
G1 X249.568 Y81.968 E2.06873
G1 X251.723 Y81.649 E2.14754
G1 X254.202 Y81.522 E2.23731
G1 X256.676 Y81.649 E2.32692
G1 X258.866 Y81.977 E2.40704
G1 X261.276 Y82.580 E2.49689
G1 X263.604 Y83.424 E2.58649
G1 X265.610 Y84.380 E2.66685
G1 X267.732 Y85.658 E2.75646
G1 X269.482 Y86.956 E2.83528
G1 X271.319 Y88.614 E2.92481
G1 X272.979 Y90.453 E3.01442
G1 X274.276 Y92.201 E3.09316
G1 X275.557 Y94.329 E3.18300
G1 X276.511 Y96.331 E3.26320
G1 X277.354 Y98.658 E3.35273
G1 X277.958 Y101.067 E3.44257
G1 X278.285 Y103.257 E3.52270
G1 X278.413 Y105.738 E3.61254
G1 X278.286 Y108.212 E3.70215
G1 X277.967 Y110.365 E3.78089
G1 X277.368 Y112.775 E3.87073
G1 X276.627 Y114.865 E3.95094
G1 X275.579 Y117.107 E4.04047
G1 X274.302 Y119.237 E4.13031
G1 X272.984 Y121.018 E4.21044
G1 X271.321 Y122.862 E4.30028
G1 X269.482 Y124.522 E4.38989
G1 X267.734 Y125.818 E4.46862
G1 X265.611 Y127.096 E4.55823
G1 X263.604 Y128.053 E4.63867
G1 X261.278 Y128.897 E4.72820
G1 X258.868 Y129.500 E4.81804
G1 X256.678 Y129.828 E4.89817
G1 X254.198 Y129.955 E4.98797
G1 X251.723 Y129.829 E5.07762
G1 X249.570 Y129.510 E5.15636
G1 X247.160 Y128.911 E5.24620
G1 X245.070 Y128.170 E5.32640
G1 X242.828 Y127.121 E5.41594
G1 X240.698 Y125.844 E5.50578
G1 X238.917 Y124.527 E5.58590
G1 X237.073 Y122.863 E5.67574
G1 X235.413 Y121.024 E5.76535
G1 X234.117 Y119.276 E5.84409
G1 X232.839 Y117.154 E5.93370
G1 X231.882 Y115.147 E6.01414
G1 X231.038 Y112.820 E6.10367
G1 X230.435 Y110.411 E6.19351
G1 X230.107 Y108.220 E6.27364
G1 X229.980 Y105.740 E6.36348
G1 X230.106 Y103.266 E6.45309
G1 X230.425 Y101.113 E6.53182
G1 X231.024 Y98.702 E6.62167
G1 X231.745 Y96.669 E6.69970
M204 S1500
G1 X232.220 Y96.471 F10800.000
M204 S1000
G1 F1800.000
G1 X233.159 Y94.503 E6.77857
G1 X234.420 Y92.407 E6.86707
G1 X235.696 Y90.686 E6.94455
G1 X237.332 Y88.874 E7.03287
G1 X239.149 Y87.235 E7.12138
G1 X240.901 Y85.938 E7.20024
G1 X243.000 Y84.680 E7.28875
G1 X245.210 Y83.646 E7.37703
G1 X247.265 Y82.918 E7.45590
G1 X249.640 Y82.328 E7.54440
G1 X252.062 Y81.984 E7.63291
G1 X254.203 Y81.888 E7.71043
G1 X256.640 Y82.014 E7.79871
G1 X258.797 Y82.336 E7.87757
G1 X261.170 Y82.931 E7.96608
G1 X263.464 Y83.763 E8.05436
G1 X265.438 Y84.704 E8.13345
G1 X267.528 Y85.963 E8.22173
G1 X269.249 Y87.239 E8.29921
G1 X271.061 Y88.874 E8.38753
G1 X272.700 Y90.691 E8.47604
G1 X273.997 Y92.444 E8.55490
G1 X275.255 Y94.542 E8.64341
G1 X276.289 Y96.753 E8.73169
G1 X277.017 Y98.808 E8.81056
G1 X277.607 Y101.182 E8.89906
G1 X277.922 Y103.301 E8.97654
G1 X278.047 Y105.739 E9.06486
G1 X277.921 Y108.183 E9.15336
G1 X277.599 Y110.339 E9.23223
G1 X277.004 Y112.712 E9.32074
G1 X276.172 Y115.007 E9.40902
G1 X275.231 Y116.980 E9.48811
G1 X273.972 Y119.071 E9.57639
G1 X272.696 Y120.791 E9.65387
G1 X271.061 Y122.604 E9.74219
G1 X269.244 Y124.243 E9.83069
G1 X267.491 Y125.540 E9.90956
G1 X265.393 Y126.798 E9.99807
G1 X263.182 Y127.831 E10.08635
G1 X261.127 Y128.560 E10.16522
G1 X258.753 Y129.150 E10.25372
G1 X256.634 Y129.464 E10.33120
G1 X254.197 Y129.589 E10.41948
G1 X251.752 Y129.463 E10.50802
G1 X249.596 Y129.141 E10.58689
G1 X247.223 Y128.547 E10.67540
G1 X244.928 Y127.715 E10.76368
G1 X242.960 Y126.777 E10.84255
G1 X240.864 Y125.515 E10.93105
G1 X239.144 Y124.239 E11.00853
G1 X237.331 Y122.603 E11.09685
G1 X235.692 Y120.786 E11.18535
G1 X234.395 Y119.034 E11.26422
G1 X233.137 Y116.935 E11.35273
G1 X232.104 Y114.725 E11.44101
G1 X231.375 Y112.670 E11.51988
G1 X230.785 Y110.295 E11.60838
G1 X230.471 Y108.177 E11.68586
G1 X230.346 Y105.738 E11.77418
G1 X230.472 Y103.295 E11.86268
G1 X230.794 Y101.138 E11.94155
G1 X231.388 Y98.765 E12.03006
G1 X232.200 Y96.527 E12.11617
M204 S1500
; printing object Shape-Cylinder id:0 copy 0
G1 E10.91617 F2400.000
G92 E0
G1 Z0.650 F10800.000
G1 X246.180 Y119.550
G1 Z0.250
G1 E1.20000 F2400.000
M204 S1000
;TYPE:Perimeter
G1 F1800.000
G1 X245.731 Y119.286 E1.21884
G1 X245.034 Y118.824 E1.24909
G1 X244.361 Y118.326 E1.27938
G1 X243.716 Y117.795 E1.30960
G1 X243.095 Y117.226 E1.34006
G1 X242.708 Y116.839 E1.35985
G1 X242.140 Y116.219 E1.39028
G1 X241.608 Y115.574 E1.42053
G1 X241.111 Y114.901 E1.45078
G1 X240.649 Y114.204 E1.48104
G1 X240.222 Y113.478 E1.51149
G1 X239.965 Y112.995 E1.53129
G1 X239.603 Y112.236 E1.56171
G1 X239.283 Y111.464 E1.59197
G1 X239.002 Y110.670 E1.62243
G1 X238.842 Y110.147 E1.64218
G1 X238.631 Y109.332 E1.67264
G1 X238.464 Y108.513 E1.70289
G1 X238.341 Y107.686 E1.73315
G1 X238.261 Y106.853 E1.76340
G1 X238.224 Y106.012 E1.79386
G1 X238.224 Y105.465 E1.81365
G1 X238.261 Y104.624 E1.84408
G1 X238.341 Y103.792 E1.87433
G1 X238.465 Y102.959 E1.90479
G1 X238.570 Y102.422 E1.92458
G1 X238.767 Y101.599 E1.95521
G1 X238.918 Y101.074 E1.97497
G1 X239.185 Y100.275 E2.00543
G1 X239.492 Y99.497 E2.03568
G1 X239.838 Y98.736 E2.06594
G1 X240.225 Y97.994 E2.09619
G1 X240.649 Y97.274 E2.12644
G1 X241.111 Y96.576 E2.15670
G1 X241.609 Y95.903 E2.18698
G1 X242.140 Y95.259 E2.21720
G1 X242.709 Y94.638 E2.24766
G1 X243.096 Y94.251 E2.26745
G1 X243.716 Y93.683 E2.29788
G1 X244.361 Y93.151 E2.32813
G1 X245.034 Y92.653 E2.35838
G1 X245.731 Y92.192 E2.38864
G1 X246.452 Y91.767 E2.41889
G1 X247.193 Y91.381 E2.44914
G1 X247.960 Y91.032 E2.47960
G1 X248.466 Y90.827 E2.49936
G1 X249.265 Y90.544 E2.53003
G1 X249.788 Y90.385 E2.54978
G1 X250.603 Y90.174 E2.58024
G1 X251.422 Y90.007 E2.61050
G1 X252.255 Y89.883 E2.64096
G1 X252.798 Y89.825 E2.66071
G1 X253.639 Y89.774 E2.69117
G1 X254.475 Y89.767 E2.72143
G1 X255.311 Y89.803 E2.75168
G1 X256.143 Y89.883 E2.78193
G1 X256.970 Y90.007 E2.81219
G1 X257.790 Y90.174 E2.84244
G1 X258.605 Y90.385 E2.87290
G1 X259.127 Y90.544 E2.89266
G1 X259.921 Y90.825 E2.92312
G1 X260.694 Y91.145 E2.95337
G1 X261.454 Y91.508 E2.98383
G1 X261.936 Y91.764 E3.00359
G1 X262.661 Y92.192 E3.03404
G1 X263.359 Y92.653 E3.06430
G1 X264.032 Y93.151 E3.09458
G1 X264.676 Y93.683 E3.12480
G1 X265.297 Y94.252 E3.15526
G1 X265.684 Y94.638 E3.17505
G1 X266.252 Y95.259 E3.20548
G1 X266.784 Y95.904 E3.23573
G1 X267.282 Y96.576 E3.26599
G1 X267.743 Y97.274 E3.29624
G1 X268.168 Y97.994 E3.32649
G1 X268.557 Y98.741 E3.35695
G1 X268.787 Y99.236 E3.37671
G1 X269.110 Y100.014 E3.40717
G1 X269.391 Y100.808 E3.43763
G1 X269.551 Y101.331 E3.45742
G1 X269.761 Y102.145 E3.48785
G1 X269.928 Y102.965 E3.51810
G1 X270.052 Y103.792 E3.54835
G1 X270.132 Y104.624 E3.57861
G1 X270.169 Y105.466 E3.60906
G1 X270.169 Y106.013 E3.62886
G1 X270.132 Y106.853 E3.65928
G1 X270.052 Y107.686 E3.68953
G1 X269.928 Y108.513 E3.71979
G1 X269.761 Y109.332 E3.75004
G1 X269.550 Y110.147 E3.78050
G1 X269.391 Y110.671 E3.80029
G1 X269.110 Y111.464 E3.83072
G1 X268.790 Y112.236 E3.86097
G1 X268.427 Y112.996 E3.89143
G1 X268.171 Y113.478 E3.91119
G1 X267.743 Y114.204 E3.94165
G1 X267.282 Y114.901 E3.97190
G1 X266.784 Y115.574 E4.00219
G1 X266.252 Y116.219 E4.03241
G1 X265.683 Y116.840 E4.06287
G1 X265.297 Y117.227 E4.08266
G1 X264.676 Y117.795 E4.11308
G1 X264.031 Y118.327 E4.14334
G1 X263.359 Y118.824 E4.17359
G1 X262.661 Y119.286 E4.20384
G1 X261.936 Y119.713 E4.23430
G1 X261.453 Y119.970 E4.25409
G1 X260.694 Y120.332 E4.28452
G1 X259.921 Y120.652 E4.31477
G1 X259.127 Y120.933 E4.34523
G1 X258.605 Y121.093 E4.36499
G1 X257.790 Y121.304 E4.39545
G1 X256.970 Y121.471 E4.42570
G1 X256.143 Y121.594 E4.45595
G1 X255.311 Y121.674 E4.48621
G1 X254.469 Y121.711 E4.51667
G1 X253.922 Y121.711 E4.53646
G1 X253.082 Y121.674 E4.56688
G1 X252.249 Y121.594 E4.59714
G1 X251.417 Y121.470 E4.62760
G1 X250.880 Y121.365 E4.64739
G1 X250.056 Y121.168 E4.67802
G1 X249.531 Y121.017 E4.69778
G1 X248.733 Y120.750 E4.72824
G1 X247.955 Y120.443 E4.75849
G1 X247.193 Y120.097 E4.78874
G1 X246.232 Y119.581 E4.82823
M204 S1500
G1 X246.046 Y119.896 F10800.000
M204 S1000
G1 F1800.000
G1 X245.537 Y119.597 E4.84959
G1 X244.823 Y119.125 E4.88053
G1 X244.135 Y118.615 E4.91151
G1 X243.476 Y118.071 E4.94243
G1 X242.842 Y117.491 E4.97352
G1 X242.444 Y117.093 E4.99389
G1 X241.864 Y116.459 E5.02495
G1 X241.319 Y115.799 E5.05590
G1 X240.810 Y115.112 E5.08685
G1 X240.338 Y114.398 E5.11780
G1 X239.902 Y113.658 E5.14889
G1 X239.638 Y113.160 E5.16926
G1 X239.268 Y112.385 E5.20032
G1 X238.941 Y111.595 E5.23127
G1 X238.654 Y110.785 E5.26237
G1 X238.489 Y110.247 E5.28270
G1 X238.274 Y109.415 E5.31380
G1 X238.104 Y108.576 E5.34475
G1 X237.977 Y107.730 E5.37569
G1 X237.895 Y106.879 E5.40664
G1 X237.858 Y106.020 E5.43773
G1 X237.858 Y105.457 E5.45810
G1 X237.895 Y104.599 E5.48917
G1 X237.977 Y103.747 E5.52011
G1 X238.104 Y102.897 E5.55121
G1 X238.212 Y102.344 E5.57158
G1 X238.413 Y101.505 E5.60279
G1 X238.568 Y100.965 E5.62312
G1 X238.841 Y100.150 E5.65422
G1 X239.154 Y99.354 E5.68517
G1 X239.509 Y98.575 E5.71612
G1 X239.904 Y97.817 E5.74706
G1 X240.338 Y97.079 E5.77801
G1 X240.810 Y96.366 E5.80896
G1 X241.320 Y95.678 E5.83994
G1 X241.864 Y95.018 E5.87085
G1 X242.444 Y94.384 E5.90195
G1 X242.842 Y93.986 E5.92232
G1 X243.476 Y93.406 E5.95338
G1 X244.136 Y92.862 E5.98433
G1 X244.823 Y92.353 E6.01527
G1 X245.537 Y91.881 E6.04622
G1 X246.274 Y91.447 E6.07717
G1 X247.033 Y91.052 E6.10811
G1 X247.815 Y90.695 E6.13921
G1 X248.336 Y90.485 E6.15954
G1 X249.150 Y90.196 E6.19079
G1 X249.688 Y90.032 E6.21112
G1 X250.520 Y89.817 E6.24222
G1 X251.359 Y89.646 E6.27317
G1 X252.209 Y89.519 E6.30426
G1 X252.768 Y89.460 E6.32460
G1 X253.626 Y89.408 E6.35570
G1 X254.481 Y89.400 E6.38664
G1 X255.336 Y89.438 E6.41759
G1 X256.188 Y89.520 E6.44854
G1 X257.034 Y89.646 E6.47948
G1 X257.872 Y89.817 E6.51043
G1 X258.704 Y90.032 E6.54153
G1 X259.242 Y90.196 E6.56186
G1 X260.052 Y90.483 E6.59296
G1 X260.843 Y90.811 E6.62391
G1 X261.619 Y91.181 E6.65500
G1 X262.115 Y91.445 E6.67534
G1 X262.856 Y91.881 E6.70643
G1 X263.569 Y92.353 E6.73738
G1 X264.257 Y92.863 E6.76836
G1 X264.917 Y93.406 E6.79927
G1 X265.551 Y93.987 E6.83037
G1 X265.949 Y94.385 E6.85074
G1 X266.529 Y95.018 E6.88180
G1 X267.073 Y95.678 E6.91275
G1 X267.582 Y96.366 E6.94370
G1 X268.054 Y97.079 E6.97464
G1 X268.488 Y97.817 E7.00559
G1 X268.885 Y98.579 E7.03669
G1 X269.123 Y99.089 E7.05702
G1 X269.452 Y99.883 E7.08812
G1 X269.739 Y100.693 E7.11921
G1 X269.903 Y101.232 E7.13958
G1 X270.118 Y102.063 E7.17064
G1 X270.289 Y102.901 E7.20159
G1 X270.415 Y103.747 E7.23254
G1 X270.497 Y104.599 E7.26349
G1 X270.535 Y105.458 E7.29458
G1 X270.535 Y106.021 E7.31495
G1 X270.497 Y106.879 E7.34601
G1 X270.415 Y107.730 E7.37696
G1 X270.289 Y108.576 E7.40791
G1 X270.118 Y109.415 E7.43885
G1 X269.903 Y110.247 E7.46995
G1 X269.739 Y110.785 E7.49032
G1 X269.452 Y111.595 E7.52138
G1 X269.124 Y112.385 E7.55233
G1 X268.754 Y113.161 E7.58342
G1 X268.490 Y113.657 E7.60376
G1 X268.054 Y114.398 E7.63486
G1 X267.582 Y115.112 E7.66580
G1 X267.073 Y115.800 E7.69678
G1 X266.529 Y116.459 E7.72770
G1 X265.948 Y117.093 E7.75879
G1 X265.550 Y117.491 E7.77916
G1 X264.917 Y118.071 E7.81022
G1 X264.257 Y118.616 E7.84117
G1 X263.569 Y119.125 E7.87212
G1 X262.856 Y119.597 E7.90307
G1 X262.115 Y120.033 E7.93416
G1 X261.618 Y120.297 E7.95453
G1 X260.843 Y120.667 E7.98559
G1 X260.052 Y120.994 E8.01654
G1 X259.242 Y121.281 E8.04764
G1 X258.704 Y121.446 E8.06797
G1 X257.872 Y121.661 E8.09907
G1 X257.034 Y121.831 E8.13001
G1 X256.188 Y121.958 E8.16096
G1 X255.336 Y122.040 E8.19191
G1 X254.477 Y122.077 E8.22300
G1 X253.914 Y122.077 E8.24337
G1 X253.056 Y122.040 E8.27443
G1 X252.205 Y121.958 E8.30538
G1 X251.355 Y121.831 E8.33648
G1 X250.802 Y121.723 E8.35685
G1 X249.963 Y121.522 E8.38806
G1 X249.423 Y121.367 E8.40839
G1 X248.607 Y121.094 E8.43949
G1 X247.811 Y120.781 E8.47044
G1 X247.033 Y120.426 E8.50138
G1 X246.097 Y119.927 E8.53974
M204 S1500
G1 X245.911 Y120.242 F10800.000
M204 S1000
G1 F1800.000
G1 X245.343 Y119.908 E8.56362
G1 X244.613 Y119.425 E8.59526
G1 X243.909 Y118.904 E8.62693
G1 X243.235 Y118.348 E8.65854
G1 X242.588 Y117.755 E8.69027
G1 X242.179 Y117.346 E8.71122
G1 X241.587 Y116.700 E8.74292
G1 X241.031 Y116.025 E8.77456
G1 X240.510 Y115.322 E8.80620
G1 X240.028 Y114.592 E8.83784
G1 X239.582 Y113.837 E8.86957
G1 X239.310 Y113.325 E8.89052
G1 X238.933 Y112.534 E8.92222
G1 X238.598 Y111.726 E8.95386
G1 X238.306 Y110.899 E8.98559
G1 X238.137 Y110.346 E9.00651
G1 X237.917 Y109.497 E9.03824
G1 X237.743 Y108.640 E9.06988
G1 X237.613 Y107.775 E9.10152
G1 X237.529 Y106.904 E9.13316
G1 X237.491 Y106.028 E9.16489
G1 X237.491 Y105.449 E9.18584
G1 X237.529 Y104.573 E9.21754
G1 X237.613 Y103.703 E9.24918
G1 X237.743 Y102.835 E9.28091
G1 X237.854 Y102.267 E9.30186
G1 X238.059 Y101.412 E9.33365
G1 X238.218 Y100.856 E9.35456
G1 X238.496 Y100.025 E9.38630
G1 X238.817 Y99.211 E9.41794
G1 X239.180 Y98.415 E9.44958
G1 X239.584 Y97.639 E9.48122
G1 X240.028 Y96.885 E9.51286
G1 X240.510 Y96.156 E9.54450
G1 X241.031 Y95.452 E9.57618
G1 X241.587 Y94.778 E9.60778
G1 X242.180 Y94.131 E9.63952
G1 X242.589 Y93.722 E9.66046
G1 X243.235 Y93.130 E9.69216
G1 X243.910 Y92.573 E9.72380
G1 X244.613 Y92.053 E9.75544
G1 X245.343 Y91.570 E9.78709
G1 X246.096 Y91.126 E9.81873
G1 X246.872 Y90.722 E9.85037
G1 X247.670 Y90.358 E9.88210
G1 X248.206 Y90.142 E9.90301
G1 X249.036 Y89.848 E9.93484
G1 X249.589 Y89.679 E9.95575
G1 X250.438 Y89.460 E9.98748
G1 X251.295 Y89.285 E10.01912
G1 X252.163 Y89.155 E10.05086
G1 X252.738 Y89.095 E10.07177
G1 X253.613 Y89.042 E10.10350
G1 X254.488 Y89.034 E10.13514
G1 X255.362 Y89.072 E10.16678
G1 X256.232 Y89.156 E10.19843
G1 X257.097 Y89.285 E10.23007
G1 X257.955 Y89.460 E10.26171
G1 X258.804 Y89.679 E10.29344
G1 X259.357 Y89.848 E10.31435
G1 X260.184 Y90.141 E10.34609
