; generated by PrusaSlicer 2.5.0-rc1+win64 on 2022-08-28 at 16:50:00 UTC


;
;
; 

; external perimeters extrusion width = 0.45mm
; perimeters extrusion width = 0.45mm
; infill extrusion width = 0.45mm
; solid infill extrusion width = 0.45mm
; top infill extrusion width = 0.40mm
; first layer extrusion width = 0.42mm

M73 P0 R9
M73 Q0 S9
M201 X1000 Y1000 Z200 E5000 ; sets maximum accelerations, mm/sec^2
M203 X200 Y200 Z12 E120 ; sets maximum feedrates, mm / sec
M204 P1250 R1250 T1250 ; sets acceleration (P, T) and retract acceleration (R), mm/sec^2
M205 X8.00 Y8.00 Z0.40 E4.50 ; sets the jerk limits, mm/sec
M205 S0 T0 ; sets the minimum extruding and travel feed rate, mm/sec
M107
;TYPE:Custom
M862.3 P "MK3SMMU2S" ; printer model check
M862.1 P0.4 ; nozzle diameter check
M115 U3.11.0 ; tell printer latest fw version
G90 ; use absolute coordinates
M83 ; extruder relative mode
M104 S240 ; set extruder temp
M140 S85 ; set bed temp
Tx
M190 S85 ; wait for bed temp
M109 S240 ; wait for extruder temp
G28 W ; home all without mesh bed level
G80 ; mesh bed leveling

;go outside print area
G1 Y-3 F1000
G1 Z0.4 F1000
; select extruder
Tc
; purge line
G1 X55 F2000
G1 Z0.3 F1000
G92 E0
G1 X240 E25 F2200
G1 Y-2 F1000
M73 P1 R9
M73 Q1 S9
G1 X55 E25 F1400
G1 Z0.2 F1000
M73 P2 R9
M73 Q2 S9
G1 X5 E4 F1000

M221 S95
G92 E0

; Don't change E values below. Excessive value can damage the printer.
M907 E430 ; set extruder motor current
G21 ; set units to millimeters
G90 ; use absolute coordinates
M83 ; use relative distances for extrusion
M900 K0.08 ; Filament gcode LA 1.5
M900 K45 ; Filament gcode LA 1.0
M107
;LAYER_CHANGE
;Z:0.2
;HEIGHT:0.2
;BEFORE_LAYER_CHANGE
G92 E0.0
;0.2


G1 E-1 F2100
M73 P3 R9
M73 Q3 S9
G1 Z.2 F720
;AFTER_LAYER_CHANGE
;0.2
G1 Z.4
G1 X119.534 Y99.808 F10800
G1 Z.2 F720
G1 E1 F2100
M204 S800
;TYPE:Skirt/Brim
;WIDTH:0.42
G1 F747
G1 X120.658 Y98.878 E.04573
G1 X121.814 Y98.243 E.04134
G1 X122.684 Y97.925 E.02905
G1 X124.117 Y97.652 E.04573
G1 X125.435 Y97.652 E.04134
G1 X126.868 Y97.925 E.04573
G1 X128.094 Y98.411 E.04134
G1 X129.326 Y99.192 E.04573
G1 X130.287 Y100.095 E.04134
G1 X131.144 Y101.275 E.04573
G1 X131.706 Y102.468 E.04134
G1 X132.068 Y103.881 E.04573
G1 X132.151 Y104.803 E.02905
G1 X132.118 Y105.729 E.02905
G1 X131.969 Y106.637 E.02884
G1 X131.712 Y107.513 E.02863
G1 X131.144 Y108.725 E.04196
G1 X130.291 Y109.9 E.04552
G1 X129.326 Y110.808 E.04155
G1 X128.094 Y111.589 E.04573
G1 X126.868 Y112.075 E.04134
G1 X125.435 Y112.348 E.04573
G1 X124.117 Y112.348 E.04134
G1 X123.201 Y112.208 E.02905
G1 X122.31 Y111.953 E.02905
G1 X120.99 Y111.332 E.04573
G1 X119.899 Y110.534 E.04238
G1 X119.265 Y109.905 E.028
G1 X118.694 Y109.176 E.02905
G1 X118.141 Y108.216 E.03475
G1 X117.843 Y106.882 E.04283
G1 X117.843 Y103.118 E.11804
G1 X118.141 Y101.784 E.04283
G1 X118.694 Y100.824 E.03475
G1 X119.496 Y99.854 E.03946
M204 S1000
G1 X119.784 Y100.093 F10800
M204 S800
G1 F747
G1 X120.88 Y99.183 E.04464
G1 X121.953 Y98.594 E.03838
G1 X122.778 Y98.29 E.02757
G1 X124.164 Y98.026 E.04425
G1 X125.388 Y98.026 E.03838
G1 X126.774 Y98.29 E.04425
M73 Q4 S9
G1 X127.912 Y98.741 E.03838
M73 P4 R9
G1 X129.104 Y99.497 E.04425
G1 X129.996 Y100.335 E.03838
G1 X130.826 Y101.477 E.04425
G1 X131.347 Y102.584 E.03838
G1 X131.698 Y103.951 E.04425
G1 X131.775 Y104.827 E.02757
G1 X131.741 Y105.706 E.02757
G1 X131.514 Y106.897 E.03803
G1 X130.992 Y108.22 E.04459
G1 X130.336 Y109.254 E.03838
G1 X129.37 Y110.282 E.04425
G1 X128.38 Y111.002 E.03838
G1 X127.599 Y111.406 E.02757
G1 X126.774 Y111.71 E.02757
G1 X125.388 Y111.974 E.04425
G1 X124.164 Y111.974 E.03838
G1 X123.295 Y111.842 E.02757
G1 X122.449 Y111.603 E.02757
G1 X121.172 Y111.002 E.04425
G1 X120.157 Y110.26 E.03942
G1 X119.556 Y109.665 E.02652
G1 X119.012 Y108.974 E.02757
G1 X118.482 Y108.055 E.03326
G1 X118.22 Y106.882 E.03768
G1 X118.22 Y103.118 E.11804
G1 X118.482 Y101.945 E.03767
G1 X119.012 Y101.026 E.03326
G1 X119.746 Y100.139 E.0361
M204 S1000
G1 X120.034 Y100.378 F10800
M204 S800
G1 F747
G1 X121.102 Y99.489 E.04355
G1 X122.091 Y98.944 E.03542
G1 X122.872 Y98.656 E.02608
G1 X124.211 Y98.4 E.04276
G1 X125.341 Y98.4 E.03541
G1 X126.68 Y98.656 E.04276
G1 X127.731 Y99.071 E.03542
G1 X128.882 Y99.802 E.04276
G1 X129.706 Y100.575 E.03542
G1 X130.507 Y101.679 E.04276
G1 X130.988 Y102.701 E.03542
G1 X131.227 Y103.498 E.02608
G1 X131.365 Y104.318 E.02608
G1 X131.365 Y105.682 E.04276
G1 X131.156 Y106.781 E.03509
G1 X130.651 Y108.06 E.04309
G1 X130.046 Y109.013 E.03542
G1 X129.541 Y109.603 E.02432
G1 X128.882 Y110.198 E.02785
G1 X127.731 Y110.929 E.04276
G1 X126.68 Y111.344 E.03542
G1 X125.341 Y111.6 E.04276
G1 X124.211 Y111.6 E.03542
G1 X123.388 Y111.477 E.02608
G1 X122.588 Y111.252 E.02608
G1 X121.354 Y110.671 E.04276
G1 X120.415 Y109.985 E.03645
G1 X119.846 Y109.425 E.02504
G1 X119.331 Y108.772 E.02608
G1 X118.823 Y107.895 E.03178
G1 X118.597 Y106.882 E.03252
G1 X118.597 Y103.118 E.11804
G1 X118.823 Y102.106 E.03252
M73 P5 R9
M73 Q5 S9
G1 X119.331 Y101.228 E.03178
G1 X119.996 Y100.424 E.03274
M204 S1000
; printing object FINDA stress relief.stl id:0 copy 0
;WIPE_START
G1 F8640
G1 X121.102 Y99.489 E-.33434
G1 X122.091 Y98.944 E-.26082
G1 X122.872 Y98.656 E-.19208
G1 X123.564 Y98.524 E-.16276
;WIPE_END
G1 E-.05 F2100
G1 Z.4 F720
G1 X121.721 Y102.863 F10800
G1 Z.2 F720
G1 E1 F2100
M204 S800
;TYPE:External perimeter
;WIDTH:0.386572
G1 F747
G1 X121.402 Y102.792 E.00934
G1 X121.42 Y102.749 E.00133
;WIDTH:0.395876
G1 X121.836 Y102.214 E.01989
;WIDTH:0.396068
G1 X122.202 Y101.872 E.01472
G1 X122.615 Y101.574 E.01494
G1 X123.067 Y101.328 E.01512
G1 X123.535 Y101.144 E.01475
G1 X124.028 Y101.019 E.01494
G1 X124.533 Y100.956 E.01494
G1 X125.048 Y100.959 E.01512
G1 X125.546 Y101.023 E.01475
G1 X126.038 Y101.151 E.01494
G1 X126.511 Y101.339 E.01494
G1 X126.956 Y101.586 E.01494
G1 X127.371 Y101.89 E.01513
G1 X127.737 Y102.235 E.01475
G1 X128.06 Y102.628 E.01494
G1 X128.331 Y103.058 E.01494
;WIDTH:0.396262
G1 X128.546 Y103.519 E.01495
G1 X128.702 Y104.003 E.01495
;WIDTH:0.396069
G1 X128.796 Y104.503 E.01494
G1 X128.827 Y105.011 E.01494
;WIDTH:0.396068
G1 X128.826 Y105.033 E.00065
;WIDTH:0.395719
G1 X128.79 Y105.541 E.01492
G1 X128.69 Y106.039 E.01492
G1 X128.529 Y106.522 E.01492
G1 X128.309 Y106.98 E.01492
G1 X128.033 Y107.407 E.01492
G1 X127.705 Y107.796 E.01492
G1 X127.332 Y108.141 E.01492
G1 X126.918 Y108.437 E.01492
G1 X126.47 Y108.678 E.01492
G1 X125.996 Y108.862 E.01493
G1 X125.502 Y108.984 E.01491
G1 X124.997 Y109.044 E.01492
G1 X124.489 Y109.04 E.01492
G1 X123.985 Y108.972 E.01492
G1 X123.493 Y108.841 E.01492
G1 X123.022 Y108.65 E.01492
G1 X122.578 Y108.401 E.01492
G1 X122.169 Y108.099 E.01492
G1 X121.801 Y107.748 E.01492
G1 X121.397 Y107.222 E.01945
G1 X121.72 Y107.142 E.00976
G1 X122.073 Y107.523 E.01524
G1 X122.411 Y107.842 E.01362
G1 X122.785 Y108.116 E.01362
G1 X123.192 Y108.341 E.01362
G1 X123.623 Y108.513 E.01362
G1 X124.072 Y108.63 E.01362
G1 X124.533 Y108.69 E.01362
G1 X124.997 Y108.691 E.01362
G1 X125.458 Y108.634 E.01362
G1 X125.908 Y108.52 E.01362
G1 X126.34 Y108.35 E.01362
G1 X126.748 Y108.128 E.01362
G1 X127.124 Y107.856 E.01362
G1 X127.464 Y107.539 E.01362
G1 X127.761 Y107.182 E.01362
G1 X128.011 Y106.791 E.01362
G1 X128.21 Y106.371 E.01362
G1 X128.355 Y105.93 E.01362
G1 X128.443 Y105.474 E.01362
G1 X128.474 Y105.011 E.01362
G1 X128.446 Y104.548 E.01362
G1 X128.36 Y104.091 E.01362
G1 X128.22 Y103.654 E.01346
G1 X128.022 Y103.229 E.01377
G1 X127.774 Y102.836 E.01363
G1 X127.479 Y102.477 E.01362
G1 X127.141 Y102.158 E.01362
G1 X126.767 Y101.884 E.01362
G1 X126.36 Y101.659 E.01362
G1 X125.929 Y101.487 E.01362
G1 X125.48 Y101.37 E.01362
G1 X125.019 Y101.31 E.01362
G1 X124.555 Y101.309 E.01362
G1 X124.094 Y101.366 E.01362
G1 X123.644 Y101.48 E.01362
G1 X123.212 Y101.65 E.01362
G1 X122.804 Y101.872 E.01362
G1 X122.428 Y102.144 E.01362
G1 X122.073 Y102.477 E.01427
;WIDTH:0.394651
G1 X121.761 Y102.819 E.01353
M204 S1000
; stop printing object FINDA stress relief.stl id:0 copy 0
;LAYER_CHANGE
;Z:0.4
;HEIGHT:0.2
;BEFORE_LAYER_CHANGE
G92 E0.0
;0.4


;WIPE_START
G1 F8640
G1 X121.402 Y102.792 E-.0832
G1 X121.42 Y102.749 E-.01073
G1 X121.836 Y102.214 E-.15645
G1 X122.202 Y101.872 E-.11577
G1 X122.615 Y101.574 E-.11747
G1 X123.067 Y101.328 E-.11893
G1 X123.535 Y101.144 E-.11599
G1 X124.028 Y101.019 E-.11747
G1 X124.518 Y100.958 E-.114
;WIPE_END
G1 E-.05 F2100
G1 Z.4 F720
;AFTER_LAYER_CHANGE
;0.4
M104 S225 ; set temperature
M140 S90 ; set bed temperature
G1 Z.6
G1 X124.518 Y97.652 F10800
G1 Z.4 F720
G1 E1 F2100
;TYPE:Skirt/Brim
;WIDTH:0.42
G1 F709
G1 X125.435 Y97.652 E.02877
G1 X126.868 Y97.925 E.04573
G1 X128.094 Y98.411 E.04134
G1 X129.326 Y99.192 E.04573
G1 X130.287 Y100.095 E.04134
G1 X131.144 Y101.275 E.04573
G1 X131.706 Y102.468 E.04134
G1 X132.068 Y103.881 E.04573
G1 X132.151 Y104.803 E.02905
G1 X132.118 Y105.729 E.02905
G1 X131.969 Y106.637 E.02884
G1 X131.712 Y107.513 E.02863
G1 X131.144 Y108.725 E.04196
G1 X130.291 Y109.9 E.04552
G1 X129.326 Y110.808 E.04155
M73 Q6 S9
G1 X128.094 Y111.589 E.04573
M73 P6 R9
G1 X126.868 Y112.075 E.04134
G1 X125.435 Y112.348 E.04573
G1 X124.117 Y112.348 E.04134
G1 X123.201 Y112.208 E.02905
G1 X122.31 Y111.953 E.02905
G1 X120.99 Y111.332 E.04573
G1 X119.899 Y110.534 E.04238
G1 X119.265 Y109.905 E.028
G1 X118.694 Y109.176 E.02905
G1 X118.141 Y108.216 E.03475
G1 X117.843 Y106.882 E.04283
G1 X117.843 Y103.118 E.11804
G1 X118.141 Y101.784 E.04283
G1 X118.694 Y100.824 E.03475
G1 X119.534 Y99.808 E.04134
G1 X120.658 Y98.878 E.04573
G1 X121.814 Y98.243 E.04134
G1 X122.684 Y97.925 E.02905
G1 X124.117 Y97.652 E.04573
G1 X124.458 Y97.652 E.01069
G1 X124.458 Y98.026 F10800
G1 F709
G1 X125.388 Y98.026 E.02917
G1 X126.774 Y98.29 E.04425
G1 X127.912 Y98.741 E.03838
G1 X129.104 Y99.497 E.04425
G1 X129.996 Y100.335 E.03838
G1 X130.826 Y101.477 E.04425
G1 X131.347 Y102.584 E.03838
G1 X131.698 Y103.951 E.04425
G1 X131.775 Y104.827 E.02757
G1 X131.741 Y105.706 E.02757
G1 X131.514 Y106.897 E.03803
G1 X130.992 Y108.22 E.04459
G1 X130.336 Y109.254 E.03838
G1 X129.37 Y110.282 E.04425
G1 X128.38 Y111.002 E.03838
G1 X127.599 Y111.406 E.02757
G1 X126.774 Y111.71 E.02757
G1 X125.388 Y111.974 E.04425
G1 X124.164 Y111.974 E.03838
G1 X123.295 Y111.842 E.02757
G1 X122.449 Y111.603 E.02757
G1 X121.172 Y111.002 E.04425
G1 X120.157 Y110.26 E.03942
G1 X119.556 Y109.665 E.02652
G1 X119.012 Y108.974 E.02757
G1 X118.482 Y108.055 E.03326
G1 X118.22 Y106.882 E.03768
G1 X118.22 Y103.118 E.11804
G1 X118.482 Y101.945 E.03767
G1 X119.012 Y101.026 E.03326
G1 X119.792 Y100.083 E.03838
G1 X120.88 Y99.183 E.04425
G1 X121.953 Y98.594 E.03838
G1 X122.778 Y98.29 E.02757
M73 Q7 S9
G1 X124.164 Y98.026 E.04425
M73 P7 R9
G1 X124.398 Y98.026 E.00733
G1 X124.398 Y98.4 F10800
G1 F709
G1 X125.341 Y98.4 E.02956
G1 X126.68 Y98.656 E.04276
G1 X127.731 Y99.071 E.03542
G1 X128.882 Y99.802 E.04276
G1 X129.706 Y100.575 E.03542
G1 X130.507 Y101.679 E.04276
G1 X130.988 Y102.701 E.03542
G1 X131.227 Y103.498 E.02608
G1 X131.365 Y104.318 E.02608
G1 X131.365 Y105.682 E.04276
G1 X131.156 Y106.781 E.03509
G1 X130.651 Y108.06 E.04309
G1 X130.046 Y109.013 E.03542
G1 X129.541 Y109.603 E.02432
G1 X128.882 Y110.198 E.02785
G1 X127.731 Y110.929 E.04276
G1 X126.68 Y111.344 E.03542
G1 X125.341 Y111.6 E.04276
G1 X124.211 Y111.6 E.03542
G1 X123.388 Y111.477 E.02608
G1 X122.588 Y111.252 E.02608
G1 X121.354 Y110.671 E.04276
G1 X120.415 Y109.985 E.03645
G1 X119.846 Y109.425 E.02504
G1 X119.331 Y108.772 E.02608
G1 X118.823 Y107.895 E.03178
G1 X118.597 Y106.882 E.03252
G1 X118.597 Y103.118 E.11804
G1 X118.823 Y102.106 E.03252
G1 X119.331 Y101.228 E.03178
G1 X120.051 Y100.358 E.03542
G1 X121.102 Y99.489 E.04276
G1 X122.091 Y98.944 E.03542
G1 X122.872 Y98.656 E.02608
G1 X124.211 Y98.4 E.04276
G1 X124.338 Y98.4 E.00397
; printing object FINDA stress relief.stl id:0 copy 0
;WIPE_START
G1 F8640
G1 X125.341 Y98.4 E-.23158
G1 X126.68 Y98.656 E-.31493
G1 X127.731 Y99.071 E-.26082
G1 X128.252 Y99.403 E-.14267
;WIPE_END
G1 E-.05 F2100
G1 Z.6 F720
G1 X121.682 Y102.997 F10800
G1 Z.4 F720
G1 E1 F2100
M204 S800
;TYPE:External perimeter
;WIDTH:0.402242
G1 F709
G1 X121.303 Y102.953 E.01139
;WIDTH:0.407239
G1 X121.513 Y102.609 E.01222
G1 X121.831 Y102.219 E.01524
;WIDTH:0.396069
G1 X122.202 Y101.872 E.01494
G1 X122.615 Y101.574 E.01494
G1 X123.069 Y101.327 E.01519
G1 X123.535 Y101.144 E.01469
G1 X124.028 Y101.019 E.01494
G1 X124.533 Y100.957 E.01494
G1 X125.05 Y100.959 E.01519
G1 X125.546 Y101.023 E.01469
G1 X126.038 Y101.151 E.01494
G1 X126.511 Y101.339 E.01494
G1 X126.956 Y101.586 E.01494
G1 X127.367 Y101.886 E.01494
G1 X127.737 Y102.235 E.01494
G1 X128.06 Y102.628 E.01494
G1 X128.331 Y103.058 E.01494
;WIDTH:0.396777
G1 X128.546 Y103.519 E.01497
G1 X128.702 Y104.003 E.01497
;WIDTH:0.396068
G1 X128.796 Y104.503 E.01494
G1 X128.827 Y105.011 E.01494
G1 X128.796 Y105.497 E.01429
G1 X128.702 Y105.997 E.01494
G1 X128.545 Y106.483 E.015
G1 X128.32 Y106.962 E.01555
;WIDTH:0.396778
G1 X128.046 Y107.39 E.01494
G1 X127.705 Y107.796 E.01562
;WIDTH:0.39572
G1 X127.332 Y108.141 E.01492
G1 X126.918 Y108.437 E.01492
G1 X126.47 Y108.678 E.01492
G1 X125.995 Y108.862 E.01494
G1 X125.502 Y108.984 E.0149
G1 X124.997 Y109.044 E.01492
G1 X124.489 Y109.04 E.01492
G1 X123.985 Y108.972 E.01492
G1 X123.493 Y108.841 E.01492
G1 X123.022 Y108.65 E.01492
G1 X122.578 Y108.401 E.01492
G1 X122.169 Y108.099 E.01492
;WIDTH:0.395951
G1 X121.79 Y107.734 E.01546
;WIDTH:0.40396
M73 Q8 S9
G1 X121.292 Y107.049 E.02542
G1 X121.681 Y107.004 E.01177
M73 P8 R9
G1 X122.067 Y107.516 E.01925
;WIDTH:0.395951
G1 X122.411 Y107.842 E.01389
;WIDTH:0.395719
G1 X122.785 Y108.116 E.01362
G1 X123.192 Y108.341 E.01362
G1 X123.623 Y108.513 E.01362
G1 X124.072 Y108.63 E.01362
G1 X124.533 Y108.69 E.01362
G1 X124.997 Y108.691 E.01362
G1 X125.458 Y108.634 E.01362
G1 X125.908 Y108.52 E.01362
G1 X126.34 Y108.35 E.01362
G1 X126.748 Y108.128 E.01362
G1 X127.124 Y107.856 E.01362
G1 X127.464 Y107.539 E.01362
G1 X127.75 Y107.195 E.01314
G1 X128.01 Y106.792 E.01408
G1 X128.209 Y106.371 E.01365
G1 X128.355 Y105.93 E.01362
G1 X128.443 Y105.474 E.01362
G1 X128.474 Y105.011 E.01362
G1 X128.446 Y104.548 E.01362
G1 X128.36 Y104.091 E.01362
G1 X128.223 Y103.665 E.01314
G1 X128.022 Y103.229 E.01408
G1 X127.774 Y102.836 E.01365
G1 X127.479 Y102.477 E.01362
G1 X127.141 Y102.158 E.01362
G1 X126.767 Y101.884 E.01362
G1 X126.36 Y101.659 E.01362
G1 X125.929 Y101.487 E.01362
G1 X125.48 Y101.37 E.01362
G1 X125.019 Y101.31 E.01362
G1 X124.555 Y101.309 E.01362
G1 X124.094 Y101.366 E.01362
G1 X123.644 Y101.48 E.01362
G1 X123.212 Y101.65 E.01362
G1 X122.804 Y101.872 E.01362
G1 X122.428 Y102.144 E.01362
;WIDTH:0.395952
G1 X122.067 Y102.484 E.01454
;WIDTH:0.402242
G1 X121.718 Y102.949 E.01738
M204 S1000
; stop printing object FINDA stress relief.stl id:0 copy 0
;LAYER_CHANGE
;Z:0.6
;HEIGHT:0.2
;BEFORE_LAYER_CHANGE
G92 E0.0
;0.6


;WIPE_START
G1 F8640
G1 X121.303 Y102.953 E-.09581
G1 X121.513 Y102.609 E-.09313
G1 X121.831 Y102.219 E-.11613
G1 X122.202 Y101.872 E-.11746
G1 X122.615 Y101.574 E-.11745
G1 X123.069 Y101.327 E-.11942
G1 X123.535 Y101.144 E-.11551
G1 X124.028 Y101.019 E-.11746
G1 X124.275 Y100.988 E-.05762
;WIPE_END
G1 E-.05 F2100
G1 Z.6 F720
;AFTER_LAYER_CHANGE
;0.6
G1 Z.8
G1 X123.656 Y97.74 F10800
G1 Z.6 F720
G1 E1 F2100
;TYPE:Skirt/Brim
;WIDTH:0.42
G1 F709
G1 X124.117 Y97.652 E.01471
G1 X125.435 Y97.652 E.04134
G1 X126.868 Y97.925 E.04573
G1 X128.094 Y98.411 E.04134
G1 X129.326 Y99.192 E.04573
G1 X130.287 Y100.095 E.04134
G1 X131.144 Y101.275 E.04573
G1 X131.706 Y102.468 E.04134
G1 X132.068 Y103.881 E.04573
G1 X132.151 Y104.803 E.02905
G1 X132.118 Y105.729 E.02905
G1 X131.969 Y106.637 E.02884
G1 X131.712 Y107.513 E.02863
G1 X131.144 Y108.725 E.04196
G1 X130.291 Y109.9 E.04552
G1 X129.326 Y110.808 E.04155
G1 X128.094 Y111.589 E.04573
G1 X126.868 Y112.075 E.04134
G1 X125.435 Y112.348 E.04573
G1 X124.117 Y112.348 E.04134
G1 X123.201 Y112.208 E.02905
G1 X122.31 Y111.953 E.02905
M73 P8 R8
G1 X120.99 Y111.332 E.04573
G1 X119.899 Y110.534 E.04238
G1 X119.265 Y109.905 E.028
G1 X118.694 Y109.176 E.02905
G1 X118.141 Y108.216 E.03475
