; generated by PrusaSlicer 2.2.0+win64 on 2020-06-24 at 15:27:09 UTC

; 

; external perimeters extrusion width = 0.45mm
; perimeters extrusion width = 0.45mm
; infill extrusion width = 0.45mm
; solid infill extrusion width = 0.45mm
; top infill extrusion width = 0.40mm
; first layer extrusion width = 0.42mm

M73 P0 R7
M73 Q0 S7
M201 X1000 Y1000 Z200 E5000 ; sets maximum accelerations, mm/sec^2
M203 X200 Y200 Z12 E120 ; sets maximum feedrates, mm/sec
M204 P1250 R1250 T1250 ; sets acceleration (P, T) and retract acceleration (R), mm/sec^2
M205 X8.00 Y8.00 Z0.40 E4.50 ; sets the jerk limits, mm/sec
M205 S0 T0 ; sets the minimum extruding and travel feed rate, mm/sec
M107
M862.3 P "MK3SMMU2S" ; printer model check
M862.1 P0.4 ; nozzle diameter check
M115 U3.9.0 ; tell printer latest fw version
G90 ; use absolute coordinates
M83 ; extruder relative mode
M104 S240 ; set extruder temp
M140 S85 ; set bed temp
Tx
M190 S85 ; wait for bed temp
M109 S240 ; wait for extruder temp
G28 W ; home all without mesh bed level
G80 ; mesh bed leveling

;go outside print area
G1 Y-3.0 F1000.0
G1 Z0.4 F1000.0
; select extruder
Tc
; purge line
G1 X55.0 F2000.0
G1 Z0.3 F1000.0
G92 E0.0
G1 X240.0 E25.0 F2200.0
M73 Q1 S7
M73 P1 R7
G1 Y-2.0 F1000.0
G1 X55.0 E25 F1400.0
G1 Z0.20 F1000.0
G1 X5.0 E4.0 F1000.0

M221 S95
G92 E0.0
G21 ; set units to millimeters
G90 ; use absolute coordinates
M83 ; use relative distances for extrusion
M900 K0.12 ; Filament gcode LA 1.5
M900 K45 ; Filament gcode LA 1.0
;BEFORE_LAYER_CHANGE
G92 E0.0
;0.2


G1 E-1.40000 F2100.00000
G1 Z0.200 F10800.000
;AFTER_LAYER_CHANGE
;0.2
G1 Z0.400
G1 X117.998 Y102.144
G1 Z0.200
G1 E1.40000 F2100.00000
M204 S1000
G1 F900
G1 X118.394 Y101.300 E0.02924
G1 X119.310 Y100.042 E0.04880
G1 X120.202 Y99.210 E0.03823
G1 X121.485 Y98.396 E0.04765
G1 X122.491 Y97.981 E0.03412
G1 X123.548 Y97.724 E0.03412
G1 X125.047 Y97.627 E0.04710
G1 X126.300 Y97.780 E0.03957
G1 X127.879 Y98.303 E0.05215
G1 X128.883 Y98.871 E0.03616
G1 X130.151 Y99.941 E0.05201
G1 X131.146 Y101.278 E0.05229
G1 X131.650 Y102.311 E0.03603
G1 X132.074 Y103.913 E0.05194
G1 X132.154 Y105.144 E0.03869
G1 X131.954 Y106.712 E0.04956
G1 X131.565 Y107.887 E0.03880
G1 X130.751 Y109.333 E0.05202
G1 X129.616 Y110.569 E0.05261
G1 X128.608 Y111.307 E0.03918
G1 X127.107 Y112.003 E0.05188
G1 X125.987 Y112.278 E0.03617
G1 X124.365 Y112.370 E0.05092
G1 X123.414 Y112.255 E0.03002
G1 X122.541 Y112.034 E0.02824
G1 X121.673 Y111.697 E0.02920
G1 X120.986 Y111.330 E0.02440
G1 X119.946 Y110.578 E0.04025
G1 X119.366 Y110.021 E0.02523
G1 X118.764 Y109.282 E0.02988
G1 X118.127 Y108.186 E0.03973
G1 X117.878 Y107.338 E0.02773
G1 X117.846 Y102.971 E0.13690
G1 X117.987 Y102.203 E0.02449
G1 X118.420 Y102.088 F10800.000
G1 F900
G1 X119.011 Y101.028 E0.03803
G1 X119.669 Y100.206 E0.03303
G1 X120.443 Y99.501 E0.03283
G1 X121.665 Y98.727 E0.04533
G1 X122.611 Y98.339 E0.03206
G1 X123.604 Y98.097 E0.03206
G1 X125.047 Y98.004 E0.04533
G1 X126.216 Y98.147 E0.03692
G1 X127.724 Y98.647 E0.04981
G1 X128.664 Y99.178 E0.03385
G1 X129.876 Y100.199 E0.04968
G1 X130.828 Y101.480 E0.05006
G1 X131.297 Y102.444 E0.03360
G1 X131.703 Y103.977 E0.04973
G1 X131.777 Y105.130 E0.03624
G1 X131.586 Y106.629 E0.04738
G1 X131.223 Y107.727 E0.03625
G1 X130.447 Y109.111 E0.04975
G1 X129.359 Y110.293 E0.05039
G1 X128.417 Y110.981 E0.03655
G1 X126.980 Y111.648 E0.04968
G1 X125.935 Y111.905 E0.03373
G1 X124.378 Y111.993 E0.04891
G1 X123.481 Y111.883 E0.02835
G1 X122.648 Y111.673 E0.02694
G1 X121.165 Y110.998 E0.05108
G1 X120.195 Y110.295 E0.03756
G1 X119.640 Y109.762 E0.02411
G1 X119.063 Y109.051 E0.02873
G1 X118.471 Y108.032 E0.03695
G1 X118.249 Y107.267 E0.02498
G1 X118.223 Y102.984 E0.13426
G1 X118.407 Y102.146 E0.02691
G1 X118.777 Y102.231 F10800.000
G1 F900
G1 X118.787 Y102.185 E0.00148
G1 X119.399 Y101.126 E0.03835
G1 X120.030 Y100.377 E0.03071
G1 X121.114 Y99.480 E0.04412
G1 X121.947 Y99.007 E0.03002
G1 X122.822 Y98.669 E0.02943
G1 X123.676 Y98.468 E0.02752
G1 X125.047 Y98.381 E0.04305
G1 X126.132 Y98.515 E0.03430
G1 X127.573 Y98.992 E0.04757
G1 X128.446 Y99.485 E0.03145
G1 X129.604 Y100.460 E0.04745
G1 X130.509 Y101.682 E0.04769
G1 X130.946 Y102.581 E0.03133
G1 X131.331 Y104.042 E0.04736
G1 X131.400 Y105.117 E0.03380
G1 X131.196 Y106.644 E0.04829
G1 X130.656 Y108.050 E0.04724
G1 X130.084 Y108.965 E0.03382
G1 X129.101 Y110.018 E0.04516
G1 X128.226 Y110.656 E0.03394
G1 X126.854 Y111.293 E0.04745
G1 X125.883 Y111.531 E0.03133
G1 X124.391 Y111.616 E0.04686
G1 X123.546 Y111.512 E0.02669
G1 X122.754 Y111.311 E0.02562
G1 X121.344 Y110.666 E0.04864
G1 X120.446 Y110.014 E0.03477
G1 X119.920 Y109.509 E0.02287
G1 X119.365 Y108.824 E0.02764
G1 X118.816 Y107.880 E0.03423
G1 X118.620 Y107.198 E0.02225
G1 X118.600 Y103.001 E0.13159
G1 X118.763 Y102.290 E0.02290
G1 F8640.000
G1 X118.787 Y102.185 E-0.02474
G1 X119.399 Y101.126 E-0.28239
G1 X120.030 Y100.377 E-0.22615
G1 X121.114 Y99.480 E-0.32491
G1 X121.947 Y99.007 E-0.22108
G1 X122.822 Y98.669 E-0.21671
G1 X122.965 Y98.635 E-0.03401
G1 E-0.07000 F2100.00000
G1 Z0.400 F10800.000
G1 X121.413 Y102.775
G1 Z0.200
G1 E1.40000 F2100.00000
G1 F900
G1 X121.508 Y102.626 E0.00555
G1 X121.831 Y102.235 E0.01591
G1 X122.201 Y101.887 E0.01591
G1 X122.611 Y101.589 E0.01591
G1 X123.056 Y101.345 E0.01591
G1 X123.528 Y101.158 E0.01591
G1 X124.019 Y101.032 E0.01591
G1 X124.522 Y100.968 E0.01590
G1 X125.036 Y100.969 E0.01611
G1 X125.533 Y101.032 E0.01570
G1 X126.024 Y101.158 E0.01591
G1 X126.496 Y101.345 E0.01591
G1 X126.941 Y101.589 E0.01591
G1 X127.351 Y101.887 E0.01591
G1 X127.721 Y102.235 E0.01591
G1 X128.044 Y102.626 E0.01591
G1 X128.316 Y103.054 E0.01591
G1 X128.532 Y103.513 E0.01591
G1 X128.689 Y103.995 E0.01591
G1 X128.784 Y104.494 E0.01591
G1 X128.816 Y105.000 E0.01591
G1 X128.784 Y105.506 E0.01591
G1 X128.689 Y106.005 E0.01591
G1 X128.534 Y106.481 E0.01570
G1 X128.316 Y106.946 E0.01611
G1 X128.044 Y107.374 E0.01590
G1 X127.721 Y107.765 E0.01591
G1 X127.351 Y108.112 E0.01590
G1 X126.935 Y108.414 E0.01611
G1 X126.496 Y108.655 E0.01570
G1 X126.024 Y108.842 E0.01591
G1 X125.533 Y108.968 E0.01591
G1 X125.030 Y109.032 E0.01591
G1 X124.522 Y109.032 E0.01591
G1 X124.019 Y108.968 E0.01591
G1 X123.528 Y108.842 E0.01591
G1 X123.056 Y108.655 E0.01591
G1 X122.611 Y108.411 E0.01591
G1 X122.201 Y108.113 E0.01591
G1 X121.831 Y107.765 E0.01591
G1 X121.508 Y107.374 E0.01591
G1 X121.413 Y107.225 E0.00555
G1 X121.717 Y107.155 E0.00979
G1 X121.801 Y107.213 E0.00320
G1 X122.071 Y107.540 E0.01329
G1 X122.411 Y107.859 E0.01461
G1 X122.788 Y108.133 E0.01461
G1 X123.196 Y108.357 E0.01461
G1 X123.629 Y108.529 E0.01461
G1 X124.081 Y108.645 E0.01461
G1 X124.543 Y108.703 E0.01461
G1 X125.009 Y108.703 E0.01461
G1 X125.471 Y108.645 E0.01461
G1 X125.923 Y108.529 E0.01461
G1 X126.356 Y108.357 E0.01461
G1 X126.764 Y108.133 E0.01461
G1 X127.141 Y107.859 E0.01461
G1 X127.481 Y107.540 E0.01461
G1 X127.778 Y107.181 E0.01461
G1 X128.027 Y106.788 E0.01461
G1 X128.226 Y106.366 E0.01461
G1 X128.370 Y105.923 E0.01461
G1 X128.457 Y105.465 E0.01461
G1 X128.486 Y105.000 E0.01461
G1 X128.457 Y104.535 E0.01461
G1 X128.370 Y104.077 E0.01461
G1 X128.226 Y103.634 E0.01461
G1 X128.027 Y103.212 E0.01461
G1 X127.778 Y102.819 E0.01461
G1 X127.481 Y102.460 E0.01461
G1 X127.141 Y102.141 E0.01461
G1 X126.764 Y101.867 E0.01461
G1 X126.356 Y101.643 E0.01461
G1 X125.923 Y101.471 E0.01461
G1 X125.471 Y101.355 E0.01461
G1 X125.009 Y101.297 E0.01461
G1 X124.543 Y101.297 E0.01461
G1 X124.081 Y101.355 E0.01461
G1 X123.629 Y101.471 E0.01461
G1 X123.196 Y101.643 E0.01461
G1 X122.788 Y101.867 E0.01461
G1 X122.411 Y102.141 E0.01461
G1 X122.071 Y102.460 E0.01461
G1 X121.801 Y102.787 E0.01329
G1 X121.717 Y102.845 E0.00320
G1 X121.472 Y102.787 E0.00791
G1 X121.553 Y102.667 F10800.000
;BEFORE_LAYER_CHANGE
G92 E0.0
;0.4


G1 F8640.000
G1 X121.508 Y102.626 E-0.03822
G1 X121.831 Y102.235 E-0.11713
G1 X122.201 Y101.887 E-0.11714
G1 X122.611 Y101.589 E-0.11714
G1 X123.056 Y101.345 E-0.11714
G1 X123.528 Y101.158 E-0.11714
G1 X124.019 Y101.032 E-0.11714
G1 X124.522 Y100.968 E-0.11710
G1 X125.036 Y100.969 E-0.11866
G1 X125.533 Y101.032 E-0.11563
G1 X126.024 Y101.158 E-0.11714
G1 X126.496 Y101.345 E-0.11714
G1 X126.508 Y101.352 E-0.00330
G1 E-0.07000 F2100.00000
G1 Z0.400 F10800.000
;AFTER_LAYER_CHANGE
;0.4
M140 S90 ; set bed temperature
G1 Z0.600
G1 X127.879 Y98.303
G1 Z0.400
G1 E1.40000 F2100.00000
G1 F900
G1 X128.883 Y98.871 E0.03616
G1 X130.151 Y99.941 E0.05201
G1 X131.146 Y101.278 E0.05229
G1 X131.650 Y102.311 E0.03603
G1 X132.074 Y103.913 E0.05194
G1 X132.154 Y105.144 E0.03869
G1 X131.954 Y106.712 E0.04956
G1 X131.565 Y107.887 E0.03880
G1 X130.751 Y109.333 E0.05202
G1 X129.616 Y110.569 E0.05261
G1 X128.608 Y111.307 E0.03918
G1 X127.107 Y112.003 E0.05188
G1 X125.987 Y112.278 E0.03617
G1 X124.365 Y112.370 E0.05092
G1 X123.414 Y112.255 E0.03002
G1 X122.541 Y112.034 E0.02824
G1 X121.673 Y111.697 E0.02920
G1 X120.986 Y111.330 E0.02440
G1 X119.946 Y110.578 E0.04025
G1 X119.366 Y110.021 E0.02523
G1 X118.764 Y109.282 E0.02988
G1 X118.127 Y108.186 E0.03973
G1 X117.878 Y107.338 E0.02773
G1 X117.846 Y102.971 E0.13690
G1 X117.998 Y102.144 E0.02637
G1 X118.394 Y101.300 E0.02924
G1 X119.310 Y100.042 E0.04880
G1 X120.202 Y99.210 E0.03823
G1 X121.485 Y98.396 E0.04765
G1 X122.491 Y97.981 E0.03412
G1 X123.548 Y97.724 E0.03412
G1 X125.047 Y97.627 E0.04710
G1 X126.300 Y97.780 E0.03957
G1 X127.822 Y98.284 E0.05027
G1 X127.704 Y98.640 F10800.000
G1 F900
G1 X128.664 Y99.178 E0.03449
G1 X129.876 Y100.199 E0.04968
G1 X130.828 Y101.480 E0.05006
G1 X131.297 Y102.444 E0.03360
G1 X131.703 Y103.977 E0.04973
G1 X131.777 Y105.130 E0.03624
G1 X131.586 Y106.629 E0.04738
G1 X131.223 Y107.727 E0.03625
G1 X130.447 Y109.111 E0.04975
G1 X129.359 Y110.293 E0.05039
G1 X128.417 Y110.981 E0.03655
G1 X126.980 Y111.648 E0.04968
G1 X125.935 Y111.905 E0.03373
G1 X124.378 Y111.993 E0.04891
G1 X123.481 Y111.883 E0.02835
G1 X122.648 Y111.673 E0.02694
G1 X121.165 Y110.998 E0.05108
G1 X120.195 Y110.295 E0.03756
G1 X119.640 Y109.762 E0.02411
G1 X119.063 Y109.051 E0.02873
G1 X118.471 Y108.032 E0.03695
G1 X118.249 Y107.267 E0.02498
G1 X118.223 Y102.984 E0.13426
G1 X118.420 Y102.088 E0.02879
G1 X119.011 Y101.028 E0.03803
G1 X119.669 Y100.206 E0.03303
G1 X120.443 Y99.501 E0.03283
G1 X121.665 Y98.727 E0.04533
G1 X122.611 Y98.339 E0.03206
G1 X123.604 Y98.097 E0.03206
G1 X125.047 Y98.004 E0.04533
G1 X126.216 Y98.147 E0.03692
G1 X127.647 Y98.621 E0.04728
G1 X127.529 Y98.978 F10800.000
G1 F900
G1 X128.446 Y99.485 E0.03286
G1 X129.604 Y100.460 E0.04745
G1 X130.509 Y101.682 E0.04769
G1 X130.946 Y102.581 E0.03133
G1 X131.331 Y104.042 E0.04736
G1 X131.400 Y105.117 E0.03380
G1 X131.196 Y106.644 E0.04829
G1 X130.656 Y108.050 E0.04724
G1 X130.084 Y108.965 E0.03382
G1 X129.101 Y110.018 E0.04516
G1 X128.226 Y110.656 E0.03394
G1 X126.854 Y111.293 E0.04745
G1 X125.883 Y111.531 E0.03133
G1 X124.391 Y111.616 E0.04686
G1 X123.546 Y111.512 E0.02669
G1 X122.754 Y111.311 E0.02562
G1 X121.344 Y110.666 E0.04864
G1 X120.446 Y110.014 E0.03477
G1 X119.920 Y109.509 E0.02287
G1 X119.365 Y108.824 E0.02764
G1 X118.816 Y107.880 E0.03423
G1 X118.620 Y107.198 E0.02225
G1 X118.600 Y103.001 E0.13159
G1 X118.787 Y102.185 E0.02626
G1 X119.399 Y101.126 E0.03835
G1 X120.030 Y100.377 E0.03071
G1 X121.114 Y99.480 E0.04412
G1 X121.947 Y99.007 E0.03002
G1 X122.822 Y98.669 E0.02943
G1 X123.676 Y98.468 E0.02752
G1 X125.047 Y98.381 E0.04305
G1 X126.132 Y98.515 E0.03430
G1 X127.472 Y98.959 E0.04426
G1 F8640.000
G1 X128.446 Y99.485 E-0.25561
G1 X129.604 Y100.460 E-0.34945
G1 X130.509 Y101.682 E-0.35120
G1 X130.946 Y102.581 E-0.23071
G1 X131.104 Y103.180 E-0.14303
G1 E-0.07000 F2100.00000
G1 Z0.600 F10800.000
G1 X121.331 Y102.932
G1 Z0.400
G1 E1.40000 F2100.00000
M204 S800
G1 F900
G1 X121.520 Y102.634 E0.01194
G1 X121.842 Y102.245 E0.01711
G1 X122.211 Y101.899 E0.01711
G1 X122.620 Y101.602 E0.01711
G1 X123.062 Y101.358 E0.01711
G1 X123.532 Y101.172 E0.01711
G1 X124.022 Y101.047 E0.01711
G1 X124.523 Y100.983 E0.01709
G1 X125.048 Y100.986 E0.01778
G1 X125.530 Y101.047 E0.01645
G1 X126.020 Y101.172 E0.01711
G1 X126.490 Y101.358 E0.01711
G1 X126.932 Y101.602 E0.01711
G1 X127.341 Y101.899 E0.01711
G1 X127.710 Y102.245 E0.01711
G1 X128.032 Y102.634 E0.01711
G1 X128.303 Y103.061 E0.01711
G1 X128.518 Y103.518 E0.01711
G1 X128.674 Y103.999 E0.01711
G1 X128.769 Y104.496 E0.01711
G1 X128.801 Y105.000 E0.01711
G1 X128.769 Y105.504 E0.01711
G1 X128.674 Y106.001 E0.01711
G1 X128.524 Y106.463 E0.01645
G1 X128.302 Y106.939 E0.01778
G1 X128.032 Y107.366 E0.01709
G1 X127.710 Y107.755 E0.01711
G1 X127.341 Y108.101 E0.01711
G1 X126.932 Y108.398 E0.01711
G1 X126.490 Y108.642 E0.01711
G1 X126.020 Y108.828 E0.01711
G1 X125.530 Y108.953 E0.01711
G1 X125.029 Y109.017 E0.01711
G1 X124.523 Y109.017 E0.01711
G1 X124.022 Y108.953 E0.01711
G1 X123.532 Y108.828 E0.01711
G1 X123.062 Y108.642 E0.01711
G1 X122.620 Y108.398 E0.01711
G1 X122.211 Y108.101 E0.01711
G1 X121.842 Y107.755 E0.01711
G1 X121.520 Y107.366 E0.01711
G1 X121.331 Y107.068 E0.01194
G1 X121.660 Y107.030 E0.01122
G1 X121.762 Y107.190 E0.00642
G1 X122.060 Y107.550 E0.01584
G1 X122.401 Y107.871 E0.01584
G1 X122.780 Y108.145 E0.01584
G1 X123.190 Y108.371 E0.01584
G1 X123.625 Y108.543 E0.01584
G1 X124.078 Y108.659 E0.01584
G1 X124.543 Y108.718 E0.01585
G1 X125.027 Y108.716 E0.01639
G1 X125.474 Y108.659 E0.01526
G1 X125.927 Y108.543 E0.01584
G1 X126.362 Y108.371 E0.01584
G1 X126.772 Y108.145 E0.01584
G1 X127.151 Y107.871 E0.01584
G1 X127.492 Y107.550 E0.01584
G1 X127.790 Y107.190 E0.01584
G1 X128.041 Y106.795 E0.01584
G1 X128.240 Y106.371 E0.01584
G1 X128.384 Y105.926 E0.01584
G1 X128.472 Y105.467 E0.01584
G1 X128.501 Y105.000 E0.01584
G1 X128.472 Y104.533 E0.01584
G1 X128.384 Y104.074 E0.01584
G1 X128.240 Y103.629 E0.01584
G1 X128.041 Y103.205 E0.01584
G1 X127.790 Y102.810 E0.01584
G1 X127.492 Y102.450 E0.01584
G1 X127.151 Y102.129 E0.01584
G1 X126.772 Y101.855 E0.01584
G1 X126.362 Y101.629 E0.01584
G1 X125.927 Y101.457 E0.01584
G1 X125.474 Y101.341 E0.01584
G1 X125.010 Y101.282 E0.01584
G1 X124.542 Y101.282 E0.01584
G1 X124.078 Y101.341 E0.01584
G1 X123.625 Y101.457 E0.01584
G1 X123.190 Y101.629 E0.01584
G1 X122.780 Y101.855 E0.01584
G1 X122.401 Y102.129 E0.01584
G1 X122.060 Y102.450 E0.01584
G1 X121.762 Y102.810 E0.01584
G1 X121.660 Y102.970 E0.00642
G1 X121.391 Y102.939 E0.00919
M204 S1000
G1 X121.586 Y102.689 F10800.000
;BEFORE_LAYER_CHANGE
G92 E0.0
;0.6


G1 F8640.000
G1 X121.520 Y102.634 E-0.07646
G1 X121.842 Y102.245 E-0.11670
G1 X122.211 Y101.899 E-0.11670
G1 X122.620 Y101.602 E-0.11670
G1 X123.062 Y101.358 E-0.11670
G1 X123.532 Y101.172 E-0.11670
G1 X124.022 Y101.047 E-0.11670
G1 X124.523 Y100.983 E-0.11658
G1 X125.048 Y100.986 E-0.12129
G1 X125.530 Y101.047 E-0.11220
G1 X126.020 Y101.172 E-0.11670
G1 X126.368 Y101.310 E-0.08657
G1 E-0.07000 F2100.00000
G1 Z0.600 F10800.000
;AFTER_LAYER_CHANGE
;0.6
G1 Z0.800
G1 X127.879 Y98.303
G1 Z0.600
G1 E1.40000 F2100.00000
G1 F900
G1 X128.883 Y98.871 E0.03616
G1 X130.151 Y99.941 E0.05201
G1 X131.146 Y101.278 E0.05229
G1 X131.650 Y102.311 E0.03603
G1 X132.074 Y103.913 E0.05194
G1 X132.154 Y105.144 E0.03869
G1 X131.954 Y106.712 E0.04956
G1 X131.565 Y107.887 E0.03880
G1 X130.751 Y109.333 E0.05202
G1 X129.616 Y110.569 E0.05261
G1 X128.608 Y111.307 E0.03918
G1 X127.107 Y112.003 E0.05188
G1 X125.987 Y112.278 E0.03617
G1 X124.365 Y112.370 E0.05092
G1 X123.414 Y112.255 E0.03002
G1 X122.541 Y112.034 E0.02824
G1 X121.673 Y111.697 E0.02920
G1 X120.986 Y111.330 E0.02440
G1 X119.946 Y110.578 E0.04025
G1 X119.366 Y110.021 E0.02523
G1 X118.764 Y109.282 E0.02988
G1 X118.127 Y108.186 E0.03973
G1 X117.878 Y107.338 E0.02773
G1 X117.846 Y102.971 E0.13690
G1 X117.998 Y102.144 E0.02637
G1 X118.394 Y101.300 E0.02924
G1 X119.310 Y100.042 E0.04880
G1 X120.202 Y99.210 E0.03823
G1 X121.485 Y98.396 E0.04765
G1 X122.491 Y97.981 E0.03412
G1 X123.548 Y97.724 E0.03412
G1 X125.047 Y97.627 E0.04710
G1 X126.300 Y97.780 E0.03957
G1 X127.822 Y98.284 E0.05027
G1 X127.704 Y98.640 F10800.000
G1 F900
G1 X128.664 Y99.178 E0.03449
G1 X129.876 Y100.199 E0.04968
