; generated by PrusaSlicer 2.2.0+win64 on 2020-09-16 at 18:34:38 UTC

; 

; external perimeters extrusion width = 0.40mm
; perimeters extrusion width = 0.40mm
; infill extrusion width = 0.45mm
; solid infill extrusion width = 0.45mm
; top infill extrusion width = 0.40mm
; first layer extrusion width = 0.42mm

M73 P0 R27
M73 Q0 S27
M201 X1000 Y1000 Z200 E5000 ; sets maximum accelerations, mm/sec^2
M203 X200 Y200 Z12 E120 ; sets maximum feedrates, mm/sec
M204 P1250 R1250 T1250 ; sets acceleration (P, T) and retract acceleration (R), mm/sec^2
M205 X8.00 Y8.00 Z0.40 E4.50 ; sets the jerk limits, mm/sec
M205 S0 T0 ; sets the minimum extruding and travel feed rate, mm/sec
M107
M862.3 P "MK3SMMU2S" ; printer model check
M862.1 P0.4 ; nozzle diameter check
M115 U3.9.0 ; tell printer latest fw version
G90 ; use absolute coordinates
M83 ; extruder relative mode
M104 S240 ; set extruder temp
M140 S85 ; set bed temp
Tx
M190 S85 ; wait for bed temp
M109 S240 ; wait for extruder temp
G28 W ; home all without mesh bed level
G80 ; mesh bed leveling

;go outside print area
G1 Y-3.0 F1000.0
G1 Z0.4 F1000.0
; select extruder
Tc
; purge line
G1 X55.0 F2000.0
G1 Z0.3 F1000.0
G92 E0.0
G1 X240.0 E25.0 F2200.0
M73 Q0 S27
M73 P0 R27
G1 Y-2.0 F1000.0
G1 X55.0 E25 F1400.0
G1 Z0.20 F1000.0
G1 X5.0 E4.0 F1000.0

M221 S95
G92 E0.0

; Don't change E values below. Excessive value can damage the printer.

G21 ; set units to millimeters
G90 ; use absolute coordinates
M83 ; use relative distances for extrusion
M900 K0.12 ; Filament gcode LA 1.5
M900 K45 ; Filament gcode LA 1.0
;BEFORE_LAYER_CHANGE
G92 E0.0
;0.2


G1 E-1.40000 F2100.00000
G1 Z0.200 F10800.000
;AFTER_LAYER_CHANGE
;0.2
G1 Z0.400
G1 X112.129 Y92.236
G1 Z0.200
G1 E1.40000 F2100.00000
M204 S1000
G1 F1200.000
G1 X112.627 Y91.702 E0.02290
G1 X113.103 Y91.359 E0.01838
G1 X115.151 Y90.193 E0.07390
G1 X115.837 Y89.964 E0.02268
G1 X116.555 Y89.888 E0.02263
G1 X117.395 Y89.996 E0.02656
G1 X118.172 Y90.306 E0.02622
G1 X137.163 Y101.292 E0.68790
G1 X137.926 Y102.070 E0.03417
G1 X138.407 Y103.074 E0.03491
G1 X138.534 Y103.847 E0.02454
G1 X138.537 Y106.000 E0.06752
G1 X138.430 Y106.842 E0.02661
G1 X138.121 Y107.618 E0.02618
G1 X137.641 Y108.282 E0.02569
G1 X136.998 Y108.821 E0.02630
G1 X118.180 Y119.689 E0.68138
G1 X117.396 Y120.004 E0.02649
G1 X116.547 Y120.112 E0.02682
G1 X115.854 Y120.040 E0.02186
G1 X115.187 Y119.823 E0.02199
G1 X112.831 Y118.461 E0.08534
G1 X112.362 Y118.044 E0.01968
G1 X111.990 Y117.563 E0.01906
G1 X111.702 Y117.001 E0.01980
G1 X111.528 Y116.414 E0.01920
G1 X111.463 Y115.765 E0.02045
G1 X111.463 Y94.242 E0.67485
G1 X111.539 Y93.531 E0.02242
G1 X111.765 Y92.850 E0.02250
G1 X112.098 Y92.287 E0.02049
G1 X112.907 Y91.958 F10800.000
G1 F1200.000
G1 X115.302 Y90.538 E0.08729
G1 X115.914 Y90.333 E0.02023
G1 X116.552 Y90.265 E0.02011
G1 X117.300 Y90.361 E0.02366
G1 X117.994 Y90.639 E0.02343
G1 X136.935 Y101.593 E0.68605
G1 X137.622 Y102.293 E0.03073
G1 X138.052 Y103.206 E0.03167
G1 X138.158 Y103.877 E0.02129
G1 X138.160 Y106.000 E0.06656
G1 X138.064 Y106.751 E0.02373
G1 X137.788 Y107.441 E0.02330
G1 X137.363 Y108.028 E0.02272
G1 X136.786 Y108.508 E0.02354
G1 X118.001 Y119.357 E0.68016
G1 X117.302 Y119.639 E0.02362
G1 X116.550 Y119.735 E0.02377
G1 X115.924 Y119.669 E0.01975
G1 X115.325 Y119.472 E0.01976
G1 X113.050 Y118.154 E0.08246
G1 X112.629 Y117.777 E0.01773
G1 X112.296 Y117.342 E0.01714
G1 X112.040 Y116.831 E0.01792
G1 X111.887 Y116.285 E0.01778
G1 X111.840 Y94.242 E0.69117
G1 X111.909 Y93.605 E0.02007
G1 X112.116 Y92.990 E0.02035
G1 X112.446 Y92.442 E0.02007
G1 X112.866 Y92.001 E0.01909
G1 F8640.000
G1 X115.302 Y90.538 E-0.65617
G1 X115.914 Y90.333 E-0.14901
G1 X116.552 Y90.265 E-0.14811
G1 X117.300 Y90.361 E-0.17423
G1 X117.994 Y90.639 E-0.17257
G1 X118.106 Y90.704 E-0.02992
G1 E-0.07000 F2100.00000
G1 Z0.400 F10800.000
G1 X128.571 Y102.892
G1 Z0.200
G1 E1.40000 F2100.00000
G1 F1200.000
G1 X129.056 Y103.340 E0.02068
G1 X129.350 Y103.562 E0.01156
G1 X129.783 Y103.840 E0.01612
G1 X130.303 Y104.105 E0.01829
G1 X130.849 Y104.314 E0.01834
G1 X131.412 Y104.465 E0.01829
G1 X131.927 Y104.550 E0.01636
G1 X132.555 Y104.587 E0.01973
G1 X134.596 Y104.587 E0.06398
G1 X134.596 Y105.411 E0.02583
G1 X132.557 Y105.413 E0.06393
G1 X131.997 Y105.442 E0.01759
G1 X131.630 Y105.493 E0.01161
G1 X131.129 Y105.603 E0.01607
G1 X130.641 Y105.759 E0.01607
G1 X130.299 Y105.897 E0.01156
G1 X129.843 Y106.127 E0.01602
G1 X129.474 Y106.353 E0.01357
G1 X129.059 Y106.658 E0.01614
G1 X128.570 Y107.110 E0.02089
G1 X128.776 Y106.491 E0.02046
G1 X128.900 Y105.901 E0.01890
G1 X128.963 Y105.301 E0.01890
G1 X128.963 Y104.699 E0.01890
G1 X128.900 Y104.099 E0.01890
G1 X128.776 Y103.509 E0.01890
G1 X128.594 Y102.948 E0.01850
G1 F8640.000
G1 X129.056 Y103.340 E-0.13985
G1 X129.350 Y103.562 E-0.08516
G1 X129.783 Y103.840 E-0.11871
G1 X130.303 Y104.105 E-0.13470
G1 X130.849 Y104.314 E-0.13505
G1 X131.412 Y104.465 E-0.13470
G1 X131.927 Y104.550 E-0.12052
G1 X132.555 Y104.587 E-0.14529
G1 X133.924 Y104.587 E-0.31601
G1 E-0.07000 F2100.00000
G1 Z0.400 F10800.000
G1 X126.504 Y100.263
G1 Z0.200
G1 E1.40000 F2100.00000
G1 F1200.000
G1 X126.159 Y100.036 E0.01297
G1 X125.569 Y99.727 E0.02089
G1 X125.007 Y99.507 E0.01891
G1 X124.495 Y99.363 E0.01668
G1 X124.057 Y99.279 E0.01397
G1 X123.694 Y99.240 E0.01144
G1 X122.601 Y98.609 E0.03957
G1 X123.183 Y98.666 E0.01833
G1 X123.623 Y98.752 E0.01405
G1 X124.060 Y98.869 E0.01419
G1 X124.481 Y99.013 E0.01396
G1 X124.889 Y99.187 E0.01389
G1 X125.391 Y99.448 E0.01777
G1 X125.767 Y99.683 E0.01387
G1 X126.133 Y99.949 E0.01419
G1 X126.460 Y100.223 E0.01339
G1 F8640.000
G1 X126.159 Y100.036 E-0.08185
G1 X125.569 Y99.727 E-0.15382
G1 X125.007 Y99.507 E-0.13929
G1 X124.495 Y99.363 E-0.12285
G1 X124.057 Y99.279 E-0.10286
G1 X123.694 Y99.240 E-0.08423
G1 X122.601 Y98.609 E-0.29141
G1 X123.183 Y98.666 E-0.13501
G1 X123.623 Y98.752 E-0.10343
G1 X124.060 Y98.869 E-0.10448
G1 X124.104 Y98.884 E-0.01076
G1 E-0.07000 F2100.00000
G1 Z0.400 F10800.000
G1 X122.183 Y98.803
G1 Z0.200
G1 E1.40000 F2100.00000
G1 F1200.000
G1 X123.575 Y99.606 E0.05039
G1 X124.001 Y99.653 E0.01345
G1 X124.408 Y99.731 E0.01299
G1 X124.887 Y99.865 E0.01560
G1 X125.412 Y100.070 E0.01767
G1 X125.967 Y100.361 E0.01965
G1 X126.329 Y100.599 E0.01359
G1 X126.608 Y100.812 E0.01098
G1 X127.023 Y101.189 E0.01761
G1 X127.399 Y101.609 E0.01767
G1 X127.729 Y102.066 E0.01767
G1 X128.009 Y102.555 E0.01767
G1 X128.237 Y103.070 E0.01767
G1 X128.411 Y103.606 E0.01767
G1 X128.527 Y104.158 E0.01767
G1 X128.586 Y104.718 E0.01767
G1 X128.586 Y105.282 E0.01767
G1 X128.527 Y105.842 E0.01767
G1 X128.411 Y106.394 E0.01767
G1 X128.237 Y106.930 E0.01767
G1 X128.009 Y107.445 E0.01767
G1 X127.729 Y107.934 E0.01767
G1 X127.399 Y108.391 E0.01767
G1 X127.024 Y108.811 E0.01765
G1 X126.658 Y109.146 E0.01558
G1 X126.382 Y109.363 E0.01099
G1 X125.969 Y109.637 E0.01554
G1 X125.606 Y109.837 E0.01299
G1 X125.151 Y110.040 E0.01562
G1 X124.617 Y110.217 E0.01765
G1 X124.066 Y110.338 E0.01767
G1 X123.576 Y110.393 E0.01548
G1 X122.183 Y111.197 E0.05042
G1 X120.791 Y110.393 E0.05040
G1 X120.300 Y110.338 E0.01548
G1 X119.813 Y110.233 E0.01561
G1 X119.416 Y110.113 E0.01301
G1 X118.896 Y109.903 E0.01758
G1 X118.512 Y109.704 E0.01357
G1 X118.214 Y109.523 E0.01091
G1 X117.929 Y109.322 E0.01095
G1 X117.546 Y109.005 E0.01558
G1 X117.150 Y108.606 E0.01764
G1 X116.836 Y108.220 E0.01561
G1 X116.602 Y107.877 E0.01301
G1 X116.328 Y107.387 E0.01760
G1 X116.128 Y106.929 E0.01565
G1 X115.955 Y106.394 E0.01765
G1 X115.839 Y105.842 E0.01767
G1 X115.780 Y105.282 E0.01767
G1 X115.780 Y104.718 E0.01767
G1 X115.839 Y104.158 E0.01767
G1 X115.955 Y103.606 E0.01767
G1 X116.129 Y103.070 E0.01767
G1 X116.357 Y102.555 E0.01767
G1 X116.637 Y102.066 E0.01767
G1 X116.967 Y101.610 E0.01765
G1 X117.297 Y101.237 E0.01560
G1 X117.596 Y100.951 E0.01299
G1 X117.983 Y100.637 E0.01561
G1 X118.453 Y100.329 E0.01764
G1 X118.896 Y100.097 E0.01565
G1 X119.416 Y99.887 E0.01760
G1 X119.813 Y99.767 E0.01301
G1 X120.300 Y99.662 E0.01561
G1 X120.790 Y99.607 E0.01546
G1 X122.131 Y98.833 E0.04854
G1 X122.450 Y98.505 F10800.000
G1 X121.838 Y98.567
G1 F1200.000
G1 X120.670 Y99.241 E0.04229
G1 X120.239 Y99.290 E0.01358
G1 X119.719 Y99.401 E0.01669
G1 X119.290 Y99.531 E0.01404
G1 X118.737 Y99.755 E0.01871
G1 X118.262 Y100.003 E0.01681
G1 X117.761 Y100.332 E0.01881
G1 X117.347 Y100.667 E0.01669
G1 X117.003 Y101.000 E0.01500
G1 X117.205 Y100.378 E0.02049
G1 X117.310 Y99.874 E0.01614
G1 X117.366 Y99.362 E0.01614
G1 X117.377 Y98.930 E0.01357
G1 X117.348 Y98.420 E0.01602
G1 X117.297 Y98.055 E0.01156
G1 X117.188 Y97.554 E0.01607
G1 X117.032 Y97.065 E0.01607
G1 X116.893 Y96.722 E0.01161
G1 X116.638 Y96.222 E0.01760
G1 X115.619 Y94.457 E0.06390
G1 X116.335 Y94.045 E0.02589
G1 X117.353 Y95.809 E0.06386
G1 X117.659 Y96.280 E0.01760
G1 X117.887 Y96.572 E0.01161
G1 X118.229 Y96.948 E0.01595
G1 X118.499 Y97.200 E0.01156
G1 X118.899 Y97.521 E0.01607
G1 X119.329 Y97.803 E0.01614
G1 X119.709 Y98.010 E0.01357
G1 X120.181 Y98.217 E0.01614
G1 X120.669 Y98.378 E0.01614
G1 X121.089 Y98.479 E0.01352
G1 X121.538 Y98.550 E0.01425
G1 X121.778 Y98.563 E0.00755
G1 F8640.000
G1 X120.670 Y99.241 E-0.29993
G1 X120.239 Y99.290 E-0.10003
G1 X119.719 Y99.401 E-0.12289
G1 X119.290 Y99.531 E-0.10340
G1 X118.737 Y99.755 E-0.13781
G1 X118.262 Y100.003 E-0.12377
G1 X117.761 Y100.332 E-0.13850
G1 X117.347 Y100.667 E-0.12292
G1 X117.003 Y101.000 E-0.11043
G1 X117.097 Y100.710 E-0.07031
G1 E-0.07000 F2100.00000
G1 Z0.400 F10800.000
G1 X116.991 Y108.982
G1 Z0.200
G1 E1.40000 F2100.00000
G1 F1200.000
G1 X117.291 Y109.284 E0.01337
G1 X117.700 Y109.622 E0.01661
G1 X118.008 Y109.838 E0.01179
G1 X118.327 Y110.033 E0.01172
G1 X118.738 Y110.246 E0.01453
G1 X119.290 Y110.469 E0.01867
G1 X119.719 Y110.599 E0.01404
G1 X120.239 Y110.710 E0.01668
G1 X120.670 Y110.759 E0.01360
G1 X121.832 Y111.430 E0.04207
G1 X121.666 Y111.436 E0.00522
G1 X121.029 Y111.533 E0.02021
G1 X120.667 Y111.622 E0.01167
G1 X120.181 Y111.783 E0.01607
G1 X119.711 Y111.989 E0.01607
G1 X119.384 Y112.164 E0.01161
G1 X118.899 Y112.479 E0.01817
G1 X118.444 Y112.847 E0.01834
G1 X118.031 Y113.260 E0.01829
G1 X117.701 Y113.664 E0.01636
G1 X117.354 Y114.189 E0.01973
G1 X116.334 Y115.956 E0.06398
G1 X115.619 Y115.543 E0.02589
G1 X116.639 Y113.776 E0.06398
G1 X116.921 Y113.214 E0.01973
G1 X117.106 Y112.725 E0.01636
G1 X117.256 Y112.162 E0.01829
G1 X117.348 Y111.584 E0.01834
G1 X117.379 Y111.002 E0.01829
G1 X117.354 Y110.488 E0.01612
G1 X117.240 Y109.768 E0.02286
G1 X117.104 Y109.270 E0.01618
G1 X117.013 Y109.037 E0.00783
G1 F8640.000
G1 X117.291 Y109.284 E-0.08593
G1 X117.700 Y109.622 E-0.12236
G1 X118.008 Y109.838 E-0.08686
G1 X118.327 Y110.033 E-0.08633
G1 X118.738 Y110.246 E-0.10700
G1 X119.290 Y110.469 E-0.13748
G1 X119.719 Y110.599 E-0.10340
G1 X120.239 Y110.710 E-0.12286
G1 X120.670 Y110.759 E-0.10018
G1 X121.832 Y111.430 E-0.30979
G1 X121.666 Y111.436 E-0.03846
G1 X121.540 Y111.455 E-0.02936
G1 E-0.07000 F2100.00000
G1 Z0.400 F10800.000
G1 X122.590 Y111.397
G1 Z0.200
G1 E1.40000 F2100.00000
G1 F1200.000
G1 X123.696 Y110.759 E0.04003
G1 X124.128 Y110.710 E0.01363
G1 X124.717 Y110.581 E0.01890
G1 X125.288 Y110.392 E0.01886
G1 X125.774 Y110.175 E0.01669
G1 X126.165 Y109.960 E0.01398
G1 X126.505 Y109.734 E0.01280
G1 X126.220 Y109.982 E0.01182
G1 X125.765 Y110.318 E0.01777
G1 X125.097 Y110.712 E0.02431
G1 X124.691 Y110.901 E0.01405
G1 X124.268 Y111.063 E0.01419
G1 X123.843 Y111.194 E0.01396
G1 X123.409 Y111.294 E0.01396
G1 X122.962 Y111.365 E0.01419
G1 X122.650 Y111.392 E0.00982
G1 F8640.000
G1 X123.696 Y110.759 E-0.28232
G1 X124.128 Y110.710 E-0.10036
G1 X124.717 Y110.581 E-0.13916
G1 X125.288 Y110.392 E-0.13887
G1 X125.774 Y110.175 E-0.12293
G1 X126.165 Y109.960 E-0.10293
G1 X126.505 Y109.734 E-0.09428
G1 X126.220 Y109.982 E-0.08701
G1 X125.765 Y110.318 E-0.13085
G1 X125.275 Y110.607 E-0.13128
G1 E-0.07000 F2100.00000
G1 Z0.400 F10800.000
G1 X116.472 Y116.471
G1 Z0.200
G1 E1.40000 F2100.00000
G1 F1200.000
G1 X115.104 Y115.681 E0.04954
G1 X116.307 Y113.597 E0.07545
G1 X116.575 Y113.062 E0.01877
G1 X116.746 Y112.610 E0.01517
G1 X116.887 Y112.083 E0.01708
G1 X116.972 Y111.545 E0.01710
G1 X117.001 Y111.001 E0.01708
G1 X116.978 Y110.520 E0.01508
G1 X116.937 Y110.185 E0.01059
G1 X116.873 Y109.853 E0.01059
G1 X116.746 Y109.389 E0.01510
G1 X116.524 Y108.823 E0.01904
G1 X116.134 Y108.085 E0.02619
G1 X115.934 Y107.655 E0.01486
G1 X115.763 Y107.208 E0.01500
G1 X115.625 Y106.757 E0.01479
G1 X115.519 Y106.298 E0.01479
G1 X115.444 Y105.825 E0.01500
G1 X115.402 Y105.354 E0.01482
G1 X115.393 Y105.001 E0.01108
G1 X115.410 Y104.529 E0.01479
G1 X115.477 Y103.937 E0.01870
G1 X115.567 Y103.475 E0.01476
G1 X115.691 Y103.013 E0.01500
G1 X115.844 Y102.566 E0.01482
G1 X115.979 Y102.241 E0.01104
G1 X116.575 Y101.063 E0.04138
G1 X116.725 Y100.670 E0.01318
G1 X116.839 Y100.286 E0.01256
G1 X116.937 Y99.815 E0.01509
G1 X116.990 Y99.337 E0.01509
G1 X117.000 Y98.936 E0.01258
G1 X116.972 Y98.457 E0.01504
G1 X116.926 Y98.121 E0.01063
G1 X116.823 Y97.651 E0.01506
G1 X116.677 Y97.194 E0.01506
G1 X116.550 Y96.879 E0.01065
G1 X116.307 Y96.402 E0.01678
G1 X115.104 Y94.319 E0.07542
G1 X116.473 Y93.531 E0.04954
G1 X117.675 Y95.612 E0.07536
G1 X117.967 Y96.061 E0.01678
G1 X118.176 Y96.329 E0.01065
G1 X118.498 Y96.683 E0.01502
G1 X118.746 Y96.915 E0.01063
G1 X119.121 Y97.215 E0.01506
G1 X119.523 Y97.479 E0.01509
G1 X119.875 Y97.671 E0.01258
G1 X120.316 Y97.864 E0.01509
G1 X120.773 Y98.015 E0.01509
G1 X121.162 Y98.109 E0.01256
G1 X121.578 Y98.175 E0.01318
G1 X122.895 Y98.248 E0.04138
G1 X123.244 Y98.294 E0.01104
G1 X123.708 Y98.384 E0.01482
G1 X124.170 Y98.508 E0.01500
G1 X124.616 Y98.661 E0.01479
G1 X125.049 Y98.846 E0.01476
G1 X125.579 Y99.120 E0.01870
G1 X125.978 Y99.370 E0.01476
G1 X126.365 Y99.651 E0.01500
G1 X126.727 Y99.955 E0.01482
G1 X126.983 Y100.198 E0.01108
G1 X127.305 Y100.544 E0.01482
G1 X127.607 Y100.916 E0.01500
G1 X127.879 Y101.304 E0.01486
G1 X128.324 Y102.011 E0.02619
G1 X128.702 Y102.484 E0.01899
G1 X128.938 Y102.730 E0.01067
G1 X129.295 Y103.048 E0.01502
G1 X129.566 Y103.253 E0.01063
G1 X129.971 Y103.513 E0.01508
G1 X130.456 Y103.760 E0.01708
G1 X130.965 Y103.955 E0.01710
G1 X131.492 Y104.096 E0.01708
G1 X131.969 Y104.174 E0.01517
G1 X132.566 Y104.210 E0.01877
G1 X134.973 Y104.210 E0.07545
G1 X134.973 Y105.788 E0.04946
G1 X132.567 Y105.790 E0.07544
G1 X132.033 Y105.818 E0.01678
G1 X131.696 Y105.865 E0.01065
G1 X131.227 Y105.967 E0.01506
G1 X130.769 Y106.113 E0.01506
G1 X130.455 Y106.241 E0.01063
G1 X130.026 Y106.456 E0.01504
G1 X129.684 Y106.666 E0.01258
G1 X129.296 Y106.951 E0.01509
G1 X128.937 Y107.271 E0.01509
G1 X128.661 Y107.562 E0.01256
G1 X128.397 Y107.888 E0.01318
G1 X127.675 Y108.993 E0.04138
G1 X127.460 Y109.272 E0.01104
G1 X127.150 Y109.629 E0.01482
G1 X126.812 Y109.967 E0.01500
G1 X126.457 Y110.276 E0.01476
G1 X125.977 Y110.630 E0.01870
G1 X125.577 Y110.881 E0.01479
G1 X125.266 Y111.049 E0.01108
G1 X124.838 Y111.249 E0.01482
G1 X124.391 Y111.420 E0.01500
G1 X123.940 Y111.558 E0.01479
G1 X123.481 Y111.664 E0.01479
G1 X123.008 Y111.739 E0.01500
G1 X122.536 Y111.781 E0.01486
G1 X121.701 Y111.812 E0.02619
G1 X121.102 Y111.903 E0.01899
G1 X120.772 Y111.985 E0.01067
G1 X120.316 Y112.136 E0.01506
G1 X119.876 Y112.329 E0.01506
G1 X119.576 Y112.489 E0.01065
G1 X119.120 Y112.785 E0.01704
G1 X118.697 Y113.128 E0.01710
G1 X118.311 Y113.513 E0.01708
G1 X118.005 Y113.888 E0.01517
G1 X117.675 Y114.387 E0.01877
G1 X116.502 Y116.419 E0.07357
G1 X116.274 Y116.124 F10800.000
G1 X116.500 Y115.442
G1 F1200.000
G1 X116.186 Y115.127 E0.01430
G1 X116.386 Y114.781 E0.01285
G1 X116.576 Y114.971 E0.00866
G1 X116.776 Y114.625 E0.01285
G1 X116.586 Y114.434 E0.00866
G1 X116.786 Y114.088 E0.01285
G1 X116.976 Y114.278 E0.00866
G1 X117.182 Y113.937 E0.01279
G1 X116.977 Y113.733 E0.00929
G1 X117.160 Y113.369 E0.01308
G1 X117.399 Y113.608 E0.01088
G1 X117.635 Y113.298 E0.01253
G1 X117.313 Y112.976 E0.01463
G1 X117.443 Y112.559 E0.01402
G1 X117.888 Y113.004 E0.02021
G1 X118.161 Y112.731 E0.01241
G1 X117.550 Y112.119 E0.02777
