; generated by PrusaSlicer 2.2.0+win64 on 2020-06-24 at 15:36:28 UTC

; 

; external perimeters extrusion width = 0.50mm
; perimeters extrusion width = 0.45mm
; infill extrusion width = 0.45mm
; solid infill extrusion width = 0.45mm
; top infill extrusion width = 0.40mm
; first layer extrusion width = 0.42mm

M73 P0 R9
M73 Q0 S9
M201 X1000 Y1000 Z200 E5000 ; sets maximum accelerations, mm/sec^2
M203 X200 Y200 Z12 E120 ; sets maximum feedrates, mm/sec
M204 P1250 R1250 T1250 ; sets acceleration (P, T) and retract acceleration (R), mm/sec^2
M205 X8.00 Y8.00 Z0.40 E4.50 ; sets the jerk limits, mm/sec
M205 S0 T0 ; sets the minimum extruding and travel feed rate, mm/sec
M107
M862.3 P "MK3SMMU2S" ; printer model check
M862.1 P0.4 ; nozzle diameter check
M115 U3.9.0 ; tell printer latest fw version
G90 ; use absolute coordinates
M83 ; extruder relative mode
M104 S215 ; set extruder temp
M140 S60 ; set bed temp
Tx
M190 S60 ; wait for bed temp
M109 S215 ; wait for extruder temp
G28 W ; home all without mesh bed level
G80 ; mesh bed leveling

;go outside print area
G1 Y-3.0 F1000.0
G1 Z0.4 F1000.0
; select extruder
Tc
; purge line
G1 X55.0 F2000.0
G1 Z0.3 F1000.0
G92 E0.0
G1 X240.0 E25.0 F2200.0
M73 Q1 S9
M73 P1 R9
G1 Y-2.0 F1000.0
G1 X55.0 E25 F1400.0
G1 Z0.20 F1000.0
G1 X5.0 E4.0 F1000.0

M221 S95
G92 E0.0
G21 ; set units to millimeters
G90 ; use absolute coordinates
M83 ; use relative distances for extrusion
M900 K0.06 ; Filament gcode LA 1.5
M900 K30 ; Filament gcode LA 1.0
;BEFORE_LAYER_CHANGE
G92 E0.0
;0.2


G1 E-0.80000 F2100.00000
G1 Z0.600 F10800.000
;AFTER_LAYER_CHANGE
;0.2
G1 X114.905 Y99.236
G1 Z0.200
G1 E0.80000 F2100.00000
M204 S1000
G1 F920
G1 X116.463 Y98.511 E0.05388
G1 X118.010 Y98.213 E0.04938
G1 X131.117 Y97.855 E0.41113
G1 X132.120 Y97.893 E0.03147
G1 X133.322 Y98.140 E0.03847
G1 X134.894 Y98.811 E0.05361
G1 X135.567 Y99.302 E0.02613
G1 X136.065 Y99.850 E0.02321
G1 X136.397 Y100.364 E0.01916
G1 X136.696 Y101.074 E0.02417
G1 X136.868 Y102.118 E0.03316
G1 X136.829 Y108.322 E0.19454
G1 X136.638 Y109.100 E0.02509
G1 X136.260 Y109.875 E0.02704
G1 X135.723 Y110.550 E0.02704
G1 X135.095 Y111.062 E0.02540
G1 X133.530 Y111.800 E0.05426
G1 X131.851 Y112.130 E0.05364
G1 X118.072 Y111.792 E0.43218
G1 X116.575 Y111.523 E0.04768
G1 X115.278 Y110.982 E0.04406
G1 X114.433 Y110.399 E0.03218
G1 X113.800 Y109.669 E0.03031
G1 X113.348 Y108.761 E0.03181
G1 X113.143 Y107.798 E0.03086
G1 X113.149 Y102.139 E0.17744
G1 X113.335 Y101.277 E0.02766
G1 X113.708 Y100.475 E0.02773
G1 X114.259 Y99.767 E0.02813
G1 X114.859 Y99.274 E0.02434
G1 X115.096 Y99.570 F10800.000
G1 F920
G1 X115.159 Y99.520 E0.00252
G1 X116.601 Y98.863 E0.04969
G1 X118.051 Y98.588 E0.04626
G1 X131.118 Y98.232 E0.40986
G1 X132.071 Y98.267 E0.02991
G1 X133.222 Y98.503 E0.03684
G1 X134.689 Y99.128 E0.05001
G1 X135.312 Y99.580 E0.02413
G1 X135.766 Y100.080 E0.02116
G1 X136.064 Y100.540 E0.01720
G1 X136.339 Y101.197 E0.02232
G1 X136.491 Y102.129 E0.02960
G1 X136.458 Y108.251 E0.19196
G1 X136.285 Y108.965 E0.02305
G1 X135.934 Y109.686 E0.02514
G1 X135.436 Y110.304 E0.02488
G1 X134.841 Y110.779 E0.02386
G1 X133.400 Y111.446 E0.04979
G1 X131.824 Y111.754 E0.05036
G1 X118.093 Y111.415 E0.43064
G1 X116.674 Y111.159 E0.04523
G1 X115.441 Y110.643 E0.04191
G1 X114.667 Y110.102 E0.02961
G1 X114.085 Y109.416 E0.02820
G1 X113.695 Y108.610 E0.02807
G1 X113.517 Y107.741 E0.02782
G1 X113.525 Y102.172 E0.17462
G1 X113.695 Y101.387 E0.02519
G1 X114.043 Y100.651 E0.02552
G1 X114.553 Y100.006 E0.02578
G1 X115.050 Y99.608 E0.01996
G1 X115.402 Y99.812 F10800.000
G1 F920
G1 X116.730 Y99.217 E0.04564
G1 X118.092 Y98.963 E0.04343
G1 X131.118 Y98.609 E0.40859
G1 X132.023 Y98.641 E0.02839
G1 X133.127 Y98.868 E0.03532
G1 X134.484 Y99.446 E0.04625
G1 X135.058 Y99.859 E0.02219
G1 X135.469 Y100.313 E0.01920
G1 X135.980 Y101.312 E0.03516
G1 X136.114 Y102.137 E0.02621
G1 X136.088 Y108.179 E0.18945
G1 X135.932 Y108.834 E0.02110
G1 X135.611 Y109.490 E0.02290
G1 X135.155 Y110.051 E0.02266
G1 X134.598 Y110.487 E0.02219
G1 X133.271 Y111.091 E0.04573
G1 X131.796 Y111.377 E0.04709
G1 X118.119 Y111.039 E0.42899
G1 X116.776 Y110.796 E0.04278
G1 X115.611 Y110.306 E0.03962
G1 X114.905 Y109.809 E0.02708
G1 X114.376 Y109.171 E0.02598
G1 X114.043 Y108.462 E0.02456
G1 X113.891 Y107.690 E0.02468
G1 X113.900 Y102.212 E0.17176
G1 X114.054 Y101.504 E0.02271
G1 X114.372 Y100.835 E0.02325
G1 X114.836 Y100.256 E0.02325
G1 X115.355 Y99.849 E0.02066
G1 F8640.000
G1 X116.730 Y99.217 E-0.34953
G1 X118.092 Y98.963 E-0.31982
G1 X118.484 Y98.952 E-0.09065
G1 E-0.04000 F2100.00000
G1 Z0.800 F10800.000
G1 X121.507 Y104.155
G1 Z0.200
G1 E0.80000 F2100.00000
G1 F920
G1 X121.894 Y104.402 E0.01438
G1 X122.771 Y104.694 E0.02898
G1 X123.639 Y104.787 E0.02737
G1 X125.725 Y104.787 E0.06541
G1 X126.634 Y104.685 E0.02869
G1 X127.547 Y104.365 E0.03032
G1 X127.969 Y104.085 E0.01589
G1 X127.836 Y104.563 E0.01555
G1 X127.836 Y105.437 E0.02742
G1 X127.968 Y105.915 E0.01555
G1 X127.547 Y105.635 E0.01588
G1 X126.634 Y105.315 E0.03032
G1 X125.725 Y105.213 E0.02869
G1 X123.639 Y105.213 E0.06541
G1 X122.771 Y105.306 E0.02737
G1 X121.894 Y105.598 E0.02898
G1 X121.507 Y105.845 E0.01439
G1 X121.634 Y105.395 E0.01466
G1 X121.634 Y104.605 E0.02475
G1 X121.523 Y104.213 E0.01278
G1 F8640.000
G1 X121.894 Y104.402 E-0.09604
G1 X122.771 Y104.694 E-0.21342
G1 X123.639 Y104.787 E-0.20152
G1 X124.717 Y104.787 E-0.24901
G1 E-0.04000 F2100.00000
G1 Z0.800 F10800.000
G1 X117.151 Y102.638
G1 Z0.200
G1 E0.80000 F2100.00000
G1 F920
G1 X117.035 Y102.606 E0.00378
G1 X116.999 Y102.557 E0.00191
G1 X117.004 Y102.485 E0.00226
G1 X117.030 Y102.436 E0.00176
G1 X117.330 Y102.224 E0.01149
G1 X117.630 Y102.095 E0.01026
G1 X118.317 Y101.969 E0.02189
G1 X119.012 Y102.003 E0.02182
G1 X119.683 Y102.195 E0.02189
G1 X120.291 Y102.533 E0.02182
G1 X120.818 Y103.028 E0.02265
G1 X121.349 Y103.608 E0.02467
G1 X122.057 Y104.059 E0.02633
G1 X122.852 Y104.323 E0.02625
G1 X123.659 Y104.410 E0.02546
G1 X125.704 Y104.410 E0.06412
G1 X126.550 Y104.315 E0.02669
G1 X127.377 Y104.025 E0.02750
G1 X128.111 Y103.537 E0.02762
G1 X128.644 Y102.905 E0.02592
G1 X129.213 Y102.333 E0.02531
G1 X129.880 Y101.927 E0.02447
G1 X130.622 Y101.684 E0.02450
G1 X131.412 Y101.616 E0.02485
G1 X131.514 Y101.620 E0.00319
G1 X132.292 Y101.762 E0.02480
G1 X132.573 Y101.882 E0.00959
G1 X132.929 Y102.110 E0.01325
G1 X132.982 Y102.169 E0.00248
G1 X133.003 Y102.236 E0.00221
G1 X132.980 Y102.290 E0.00185
G1 X132.941 Y102.322 E0.00157
G1 X132.847 Y102.340 E0.00300
G1 X132.463 Y102.245 E0.01242
G1 X132.137 Y102.107 E0.01109
G1 X131.405 Y101.992 E0.02324
G1 X130.666 Y102.059 E0.02325
G1 X129.967 Y102.305 E0.02323
G1 X129.352 Y102.713 E0.02313
G1 X128.846 Y103.241 E0.02293
G1 X128.421 Y103.867 E0.02374
G1 X128.213 Y104.614 E0.02432
G1 X128.213 Y105.386 E0.02420
G1 X128.420 Y106.133 E0.02432
G1 X128.846 Y106.759 E0.02374
G1 X129.352 Y107.287 E0.02293
G1 X129.967 Y107.695 E0.02313
G1 X130.666 Y107.941 E0.02323
G1 X131.405 Y108.008 E0.02325
G1 X132.137 Y107.893 E0.02324
G1 X132.463 Y107.755 E0.01109
G1 X132.834 Y107.663 E0.01200
G1 X132.908 Y107.666 E0.00233
G1 X132.964 Y107.693 E0.00195
G1 X133.001 Y107.790 E0.00326
G1 X132.966 Y107.854 E0.00228
G1 X132.571 Y108.119 E0.01490
G1 X132.292 Y108.238 E0.00952
G1 X131.514 Y108.380 E0.02480
G1 X130.621 Y108.316 E0.02806
G1 X129.885 Y108.077 E0.02425
G1 X129.213 Y107.667 E0.02468
G1 X128.644 Y107.095 E0.02531
G1 X128.111 Y106.463 E0.02592
G1 X127.377 Y105.975 E0.02762
G1 X126.550 Y105.685 E0.02750
G1 X125.704 Y105.590 E0.02669
G1 X123.659 Y105.590 E0.06412
G1 X122.852 Y105.677 E0.02546
G1 X122.057 Y105.941 E0.02625
G1 X121.349 Y106.392 E0.02633
G1 X120.818 Y106.972 E0.02467
G1 X120.291 Y107.467 E0.02265
G1 X119.683 Y107.805 E0.02182
G1 X119.013 Y107.997 E0.02186
G1 X118.316 Y108.031 E0.02186
G1 X117.630 Y107.905 E0.02187
G1 X117.327 Y107.774 E0.01036
G1 X117.072 Y107.606 E0.00958
G1 X117.014 Y107.542 E0.00271
G1 X116.995 Y107.471 E0.00231
G1 X117.019 Y107.411 E0.00201
G1 X117.123 Y107.360 E0.00361
G1 X117.502 Y107.439 E0.01213
G1 X117.785 Y107.556 E0.00961
G1 X118.430 Y107.655 E0.02047
G1 X119.081 Y107.594 E0.02049
G1 X119.697 Y107.377 E0.02048
G1 X120.237 Y107.019 E0.02032
G1 X120.692 Y106.561 E0.02024
G1 X121.070 Y106.006 E0.02108
G1 X121.257 Y105.343 E0.02159
G1 X121.257 Y104.657 E0.02149
G1 X121.070 Y103.994 E0.02159
G1 X120.692 Y103.438 E0.02108
G1 X120.237 Y102.981 E0.02024
G1 X119.697 Y102.623 E0.02032
G1 X119.081 Y102.406 E0.02048
G1 X118.430 Y102.345 E0.02049
G1 X117.785 Y102.444 E0.02047
G1 X117.504 Y102.560 E0.00953
G1 X117.207 Y102.616 E0.00946
G1 X117.100 Y102.530 F10800.000
G1 F8640.000
G1 X117.035 Y102.606 E-0.03974
G1 X116.999 Y102.557 E-0.01403
G1 X117.004 Y102.485 E-0.01663
G1 X117.030 Y102.436 E-0.01298
G1 X117.330 Y102.224 E-0.08464
G1 X117.630 Y102.095 E-0.07556
G1 X118.317 Y101.969 E-0.16123
G1 X119.012 Y102.003 E-0.16066
G1 X119.683 Y102.195 E-0.16117
G1 X119.809 Y102.265 E-0.03334
G1 E-0.04000 F2100.00000
G1 Z0.800 F10800.000
G1 X121.068 Y103.615
G1 Z0.200
G1 E0.80000 F2100.00000
G1 F920
G1 X121.188 Y103.795 E0.00120
G1 F8640.000
G1 X121.068 Y103.615 E-0.04985
G1 E-0.75015 F2100.00000
G1 Z0.800 F10800.000
G1 X121.747 Y104.731
G1 Z0.200
G1 E0.80000 F2100.00000
G1 F920
G1 X122.344 Y105.329 E0.02789
G1 X122.685 Y105.000 F10800.000
G1 F920
G1 X122.925 Y105.000 E0.00450
G1
G1 X123.645 Y105.000 E0.00564
G1 F8640.000
G1 X122.925 Y105.000 E-0.16624
G1 E-0.63376 F2100.00000
G1 Z0.800 F10800.000
G1 X125.719 Y105.000
G1 Z0.200
G1 E0.80000 F2100.00000
G1 F920
G1 X125.961 Y105.000 E0.00194
G1
G1 X126.203 Y105.000 E0.00287
G1
G1 X126.445 Y105.000 E0.00380
G1
G1 X126.686 Y105.000 E0.00472
G1 X127.078 Y104.649 F10800.000
G1 F920
G1 X127.723 Y105.293 E0.03269
G1 F8640.000
G1 X127.078 Y104.649 E-0.21040
G1 E-0.58960 F2100.00000
G1 Z0.800 F10800.000
G1 X128.302 Y106.332
G1 Z0.200
G1 E0.80000 F2100.00000
G1 F920
G1 X128.382 Y106.454 E0.00071
G1 F8640.000
G1 X128.302 Y106.332 E-0.03376
G1 E-0.76624 F2100.00000
G1 Z0.800 F10800.000
G1 X128.302 Y103.668
G1 Z0.200
G1 E0.80000 F2100.00000
G1 F920
G1 X128.383 Y103.544 E0.00071
G1 F8640.000
G1 X128.302 Y103.668 E-0.03411
G1 E-0.76589 F2100.00000
G1 Z0.800 F10800.000
G1 X121.188 Y106.205
G1 Z0.200
G1 E0.80000 F2100.00000
G1 F920
G1 X121.068 Y106.385 E0.00120
M106 S255
;BEFORE_LAYER_CHANGE
G92 E0.0
;0.35


G1 F8640.000
G1 X121.188 Y106.205 E-0.04988
G1 E-0.75012 F2100.00000
G1 Z0.800 F10800.000
;AFTER_LAYER_CHANGE
;0.35
G1 X116.575 Y111.523
G1 Z0.350
G1 E0.80000 F2100.00000
G1 F994
G1 X115.278 Y110.982 E0.03398
G1 X114.433 Y110.399 E0.02483
G1 X113.800 Y109.669 E0.02338
G1 X113.348 Y108.761 E0.02453
G1 X113.143 Y107.798 E0.02380
G1 X113.149 Y102.139 E0.13687
G1 X113.335 Y101.277 E0.02133
G1 X113.708 Y100.475 E0.02139
G1 X114.259 Y99.767 E0.02170
G1 X114.905 Y99.236 E0.02022
G1 X116.463 Y98.511 E0.04156
G1 X118.010 Y98.213 E0.03809
G1 X131.117 Y97.855 E0.31712
G1 X132.120 Y97.893 E0.02427
G1 X133.322 Y98.140 E0.02967
G1 X134.894 Y98.811 E0.04135
G1 X135.567 Y99.302 E0.02016
G1 X136.065 Y99.850 E0.01790
G1 X136.397 Y100.364 E0.01478
G1 X136.696 Y101.074 E0.01864
G1 X136.868 Y102.118 E0.02558
G1 X136.829 Y108.322 E0.15006
G1 X136.638 Y109.100 E0.01936
G1 X136.260 Y109.875 E0.02086
G1 X135.723 Y110.550 E0.02086
G1 X135.095 Y111.062 E0.01959
G1 X133.530 Y111.800 E0.04185
G1 X131.851 Y112.130 E0.04138
G1 X118.072 Y111.792 E0.33336
G1 X116.634 Y111.534 E0.03533
G1 F8640.000
G1 X115.278 Y110.982 E-0.33799
G1 X114.433 Y110.399 E-0.23702
G1 X113.909 Y109.794 E-0.18499
G1 E-0.04000 F2100.00000
G1 Z0.950 F10800.000
G1 X114.667 Y110.102
G1 Z0.350
G1 E0.80000 F2100.00000
G1 F994
G1 X114.085 Y109.416 E0.02175
G1 X113.695 Y108.610 E0.02165
G1 X113.517 Y107.741 E0.02146
G1 X113.525 Y102.172 E0.13469
G1 X113.695 Y101.387 E0.01943
G1 X114.043 Y100.651 E0.01969
G1 X114.553 Y100.006 E0.01988
G1 X115.159 Y99.520 E0.01880
G1 X116.601 Y98.863 E0.03832
G1 X118.051 Y98.588 E0.03568
G1 X131.118 Y98.232 E0.31614
G1 X132.071 Y98.267 E0.02307
G1 X133.222 Y98.503 E0.02841
G1 X134.689 Y99.128 E0.03857
G1 X135.312 Y99.580 E0.01862
G1 X135.766 Y100.080 E0.01632
G1 X136.064 Y100.540 E0.01327
G1 X136.339 Y101.197 E0.01721
G1 X136.491 Y102.129 E0.02283
G1 X136.458 Y108.251 E0.14807
G1 X136.285 Y108.965 E0.01778
G1 X135.934 Y109.686 E0.01939
G1 X135.436 Y110.304 E0.01919
G1 X134.841 Y110.779 E0.01840
G1 X133.400 Y111.446 E0.03840
G1 X131.824 Y111.754 E0.03884
G1 X118.093 Y111.415 E0.33217
G1 X116.674 Y111.159 E0.03489
G1 X115.441 Y110.643 E0.03232
G1 X114.716 Y110.137 E0.02139
G1 X114.932 Y109.829 F10800.000
G1 F994
G1 X114.376 Y109.171 E0.02083
G1 X114.043 Y108.462 E0.01894
G1 X113.891 Y107.690 E0.01903
G1 X113.900 Y102.212 E0.13248
G1 X114.054 Y101.504 E0.01752
G1 X114.372 Y100.835 E0.01794
G1 X114.836 Y100.256 E0.01794
G1 X115.402 Y99.812 E0.01739
G1 X116.730 Y99.217 E0.03520
G1 X118.092 Y98.963 E0.03350
G1 X131.118 Y98.609 E0.31517
G1 X132.023 Y98.641 E0.02190
G1 X133.127 Y98.868 E0.02724
G1 X134.484 Y99.446 E0.03567
G1 X135.058 Y99.859 E0.01712
G1 X135.469 Y100.313 E0.01481
G1 X135.980 Y101.312 E0.02712
G1 X136.114 Y102.137 E0.02022
G1 X136.088 Y108.179 E0.14613
G1 X135.932 Y108.834 E0.01628
G1 X135.611 Y109.490 E0.01766
G1 X135.155 Y110.051 E0.01748
G1 X134.598 Y110.487 E0.01711
G1 X133.271 Y111.091 E0.03527
G1 X131.796 Y111.377 E0.03633
G1 X118.119 Y111.039 E0.33090
G1 X116.776 Y110.796 E0.03300
G1 X115.611 Y110.306 E0.03056
G1 X114.981 Y109.863 E0.01862
G1 F8640.000
G1 X114.376 Y109.171 E-0.21229
G1 X114.043 Y108.462 E-0.18086
G1 X113.891 Y107.690 E-0.18173
G1 X113.893 Y106.888 E-0.18512
G1 E-0.04000 F2100.00000
G1 Z0.950 F10800.000
G1 X120.863 Y106.656
G1 Z0.350
G1 E0.80000 F2100.00000
M204 S800
G1 F994
G1 X121.195 Y106.039 E0.01827
G1 X121.367 Y105.353 E0.01842
G1 X121.367 Y104.647 E0.01842
G1 X121.195 Y103.961 E0.01842
G1 X120.863 Y103.344 E0.01827
G1 X121.279 Y103.725 E0.01470
G1 X122.015 Y104.161 E0.02229
G1 X122.829 Y104.430 E0.02233
G1 X123.644 Y104.518 E0.02136
G1 X125.720 Y104.518 E0.05409
G1 X126.574 Y104.422 E0.02240
G1 X127.422 Y104.126 E0.02342
G1 X128.184 Y103.648 E0.02342
G1 X128.643 Y103.191 E0.01688
G1 X128.297 Y103.833 E0.01901
G1 X128.103 Y104.603 E0.02069
G1 X128.103 Y105.397 E0.02069
G1 X128.297 Y106.167 E0.02069
G1 X128.643 Y106.809 E0.01901
G1 X128.184 Y106.352 E0.01688
G1 X127.422 Y105.874 E0.02342
G1 X126.574 Y105.578 E0.02342
G1 X125.720 Y105.482 E0.02240
G1 X123.644 Y105.482 E0.05409
G1 X122.829 Y105.570 E0.02136
G1 X122.015 Y105.839 E0.02233
G1 X121.279 Y106.275 E0.02229
G1 X120.907 Y106.616 E0.01314
M204 S1000
G1 F8640.000
G1 X121.195 Y106.039 E-0.14885
G1 X121.367 Y105.353 E-0.16323
G1 X121.367 Y104.647 E-0.16323
G1 X121.195 Y103.961 E-0.16323
G1 X120.946 Y103.498 E-0.12146
G1 E-0.04000 F2100.00000
G1 Z0.950 F10800.000
G1 X117.002 Y107.050
G1 Z0.350
G1 E0.80000 F2100.00000
M204 S800
G1 F994
G1 X117.204 Y107.059 E0.00592
G1 X117.847 Y107.333 E0.02039
G1 X118.437 Y107.426 E0.01742
G1 X119.032 Y107.372 E0.01742
G1 X119.595 Y107.174 E0.01742
G1 X120.093 Y106.845 E0.01742
G1 X120.496 Y106.404 E0.01742
G1 X120.779 Y105.878 E0.01742
G1 X120.925 Y105.299 E0.01742
G1 X120.925 Y104.701 E0.01742
G1 X120.779 Y104.122 E0.01742
G1 X120.496 Y103.596 E0.01742
G1 X120.334 Y103.419 E0.00699
G1 X120.093 Y103.155 E0.01043
G1 X119.595 Y102.826 E0.01742
G1 X119.032 Y102.628 E0.01742
G1 X118.437 Y102.574 E0.01742
G1 X117.847 Y102.667 E0.01742
G1 X117.204 Y102.941 E0.02039
G1 X117.002 Y102.950 E0.00592
G1 X116.819 Y102.864 E0.00591
G1 X116.748 Y102.790 E0.00298
G1 X116.680 Y102.647 E0.00461
G1 X116.665 Y102.495 E0.00446
G1 X116.727 Y102.310 E0.00569
G1 X116.874 Y102.169 E0.00593
G1 X117.562 Y101.869 E0.02189
G1 X118.301 Y101.734 E0.02192
G1 X119.051 Y101.771 E0.02192
G1 X119.773 Y101.978 E0.02192
G1 X120.428 Y102.343 E0.02190
G1 X121.544 Y103.368 E0.04418
G1 X122.199 Y103.755 E0.02222
G1 X122.923 Y103.995 E0.02224
G1 X123.667 Y104.075 E0.02184
G1 X125.695 Y104.075 E0.05915
G1 X126.475 Y103.987 E0.02290
G1 X127.229 Y103.724 E0.02332
G1 X127.907 Y103.299 E0.02332
G1 X129.036 Y102.172 E0.04656
G1 X129.715 Y101.744 E0.02341
